; generated by Slic3r 1.2.9 on 2017-09-11 at 17:48:32

; external perimeters extrusion width = 0.50mm
; perimeters extrusion width = 0.50mm
; infill extrusion width = 0.50mm
; solid infill extrusion width = 0.50mm
; top infill extrusion width = 0.50mm

M107
M190 S57 ; set bed temperature
G28 ; home all axes
M83;
G10 P0 S195 R160                       ; Set tool 0 operating and standby temperatures
T0

G21 ; set units to millimeters
G90 ; use absolute coordinates
M83 ; use relative distances for extrusion
G1 E-3.50000 F2400.00000
G1 Z0.300 F9000.000
G1 X14.474 Y20.752 F9000.000
G1 E3.50000 F2400.00000
G1 X16.532 Y20.134 E0.19713 F1200.000
G1 X183.468 Y20.134 E15.31650
G1 X185.139 Y20.529 E0.15755 F1200.000
G1 X186.703 Y22.002 E0.19711
G1 X186.753 Y22.089 E0.00919
G1 X191.153 Y29.710 E0.80740
G1 X191.647 Y31.354 E0.15755
G1 X191.153 Y33.445 E0.19713
G1 X107.685 Y178.016 E15.31647
G1 X106.508 Y179.266 E0.15755
G1 X104.450 Y179.884 E0.19713
G1 X95.550 Y179.884 E0.81658
G1 X93.879 Y179.489 E0.15755
G1 X92.315 Y178.016 E0.19713
G1 X8.847 Y33.445 E15.31650
G1 X8.353 Y31.801 E0.15755
G1 X8.847 Y29.710 E0.19713
G1 X13.297 Y22.002 E0.81658
G1 X14.423 Y20.807 E0.15067
G1 E-3.50000 F2400.00000
G1 X86.922 Y71.708 F9000.000
G1 E3.50000 F2400.00000
G1 X87.277 Y70.924 E0.07893 F900.000
G1 X87.716 Y70.103 E0.08542
G1 X88.244 Y69.262 E0.09117
G1 X88.745 Y68.563 E0.07893
G1 X89.334 Y67.845 E0.08517
G1 X89.969 Y67.167 E0.08517
G1 X90.646 Y66.533 E0.08517
G1 X91.364 Y65.944 E0.08518
G1 X92.119 Y65.403 E0.08517
G1 X92.907 Y64.913 E0.08517
G1 X93.726 Y64.475 E0.08518
G1 X94.571 Y64.092 E0.08517
G1 X95.440 Y63.765 E0.08517
G1 X96.328 Y63.496 E0.08517
G1 X97.232 Y63.285 E0.08517
G1 X98.151 Y63.133 E0.08542
G1 X99.140 Y63.040 E0.09117
G1 X100.000 Y63.012 E0.07893 F900.000
G1 X100.928 Y63.043 E0.08517
G1 X101.852 Y63.134 E0.08517
G1 X102.768 Y63.285 E0.08517
G1 X103.672 Y63.496 E0.08517
G1 X104.560 Y63.765 E0.08517
G1 X105.429 Y64.092 E0.08517
G1 X106.274 Y64.475 E0.08517
G1 X107.093 Y64.913 E0.08517
G1 X107.882 Y65.403 E0.08517
G1 X108.636 Y65.944 E0.08517
G1 X109.356 Y66.534 E0.08542
G1 X110.078 Y67.217 E0.09117
G1 X110.666 Y67.845 E0.07893
G1 X111.255 Y68.563 E0.08517
G1 X111.796 Y69.317 E0.08517
G1 X112.286 Y70.105 E0.08517
G1 X112.723 Y70.924 E0.08518
G1 X113.106 Y71.770 E0.08517
G1 X113.433 Y72.639 E0.08517
G1 X113.703 Y73.527 E0.08517
G1 X113.914 Y74.431 E0.08517
G1 X114.065 Y75.347 E0.08518
G1 X114.156 Y76.273 E0.08542
G1 X114.184 Y77.267 E0.09116
G1 X114.156 Y78.126 E0.07893
G1 X114.065 Y79.050 E0.08518
G1 X113.913 Y79.969 E0.08541
G1 X113.703 Y80.870 E0.08493
G1 X113.433 Y81.761 E0.08542
G1 X113.078 Y82.689 E0.09117
G1 X112.723 Y83.473 E0.07893
G1 X112.286 Y84.292 E0.08517
G1 X111.796 Y85.080 E0.08518
G1 X111.255 Y85.835 E0.08517
G1 X110.664 Y86.554 E0.08542
G1 X109.982 Y87.276 E0.09117
G1 X109.354 Y87.864 E0.07893
G1 X108.636 Y88.453 E0.08517
G1 X107.882 Y88.994 E0.08518
G1 X107.093 Y89.484 E0.08517
G1 X106.274 Y89.922 E0.08518
G1 X105.429 Y90.305 E0.08517
G1 X104.560 Y90.632 E0.08517
G1 X103.672 Y90.901 E0.08517
G1 X102.768 Y91.112 E0.08517
G1 X101.852 Y91.263 E0.08517
G1 X100.928 Y91.354 E0.08517
G1 X100.000 Y91.385 E0.08517
G1 X99.072 Y91.354 E0.08517
G1 X98.148 Y91.263 E0.08517
G1 X97.233 Y91.112 E0.08517
G1 X96.328 Y90.901 E0.08517
G1 X95.440 Y90.632 E0.08517
G1 X94.571 Y90.305 E0.08517
G1 X93.726 Y89.922 E0.08517
G1 X92.907 Y89.484 E0.08517
G1 X92.119 Y88.994 E0.08517
G1 X91.364 Y88.453 E0.08517
G1 X90.646 Y87.864 E0.08517
G1 X89.969 Y87.230 E0.08517
G1 X89.334 Y86.552 E0.08517
G1 X88.744 Y85.833 E0.08542
G1 X88.169 Y85.022 E0.09117
G1 X87.714 Y84.292 E0.07893
G1 X87.276 Y83.471 E0.08542
G1 X86.870 Y82.564 E0.09117
G1 X86.567 Y81.759 E0.07893
G1 X86.297 Y80.870 E0.08517
G1 X86.086 Y79.966 E0.08517
G1 X85.935 Y79.050 E0.08517
G1 X85.844 Y78.124 E0.08542
G1 X85.816 Y77.131 E0.09117
G1 X85.844 Y76.271 E0.07893
G1 X85.935 Y75.347 E0.08517
G1 X86.086 Y74.431 E0.08517
G1 X86.297 Y73.527 E0.08517
G1 X86.567 Y72.636 E0.08542
G1 X86.895 Y71.778 E0.08429
G1 X87.601 Y71.991 F9000.000
G1 X87.937 Y71.250 E0.07467 F900.000
G1 X88.352 Y70.473 E0.08084
G1 X88.855 Y69.672 E0.08675
G1 X89.329 Y69.011 E0.07467
G1 X89.888 Y68.330 E0.08075
G1 X90.489 Y67.688 E0.08076
G1 X91.132 Y67.086 E0.08076
G1 X91.812 Y66.528 E0.08076
G1 X92.527 Y66.015 E0.08075
G1 X93.275 Y65.550 E0.08075
G1 X94.051 Y65.135 E0.08076
G1 X94.853 Y64.772 E0.08076
G1 X95.677 Y64.462 E0.08076
G1 X96.519 Y64.207 E0.08076
G1 X97.376 Y64.007 E0.08076
G1 X98.245 Y63.863 E0.08084
G1 X99.187 Y63.775 E0.08675
G1 X100.000 Y63.748 E0.07467 F900.000
G1 X100.880 Y63.777 E0.08075
G1 X101.756 Y63.863 E0.08075
G1 X102.624 Y64.007 E0.08076
G1 X103.481 Y64.207 E0.08076
G1 X104.323 Y64.462 E0.08075
G1 X105.147 Y64.772 E0.08076
G1 X105.949 Y65.135 E0.08075
G1 X106.725 Y65.550 E0.08075
G1 X107.473 Y66.015 E0.08076
G1 X108.188 Y66.528 E0.08076
G1 X108.869 Y67.087 E0.08084
G1 X109.556 Y67.736 E0.08675
G1 X110.112 Y68.330 E0.07467
G1 X110.671 Y69.011 E0.08075
G1 X111.184 Y69.726 E0.08076
G1 X111.648 Y70.473 E0.08076
G1 X112.063 Y71.250 E0.08076
G1 X112.426 Y72.051 E0.08075
G1 X112.737 Y72.875 E0.08075
G1 X112.992 Y73.717 E0.08076
G1 X113.192 Y74.575 E0.08075
G1 X113.335 Y75.443 E0.08076
G1 X113.422 Y76.320 E0.08084
G1 X113.448 Y77.265 E0.08675
G1 X113.422 Y78.078 E0.07467
G1 X113.335 Y78.954 E0.08076
G1 X113.191 Y79.825 E0.08099
G1 X112.992 Y80.680 E0.08052
G1 X112.736 Y81.523 E0.08084
G1 X112.399 Y82.406 E0.08675
G1 X112.063 Y83.147 E0.07467
G1 X111.648 Y83.924 E0.08075
G1 X111.184 Y84.671 E0.08076
G1 X110.671 Y85.387 E0.08075
G1 X110.112 Y86.068 E0.08084
G1 X109.462 Y86.755 E0.08675
G1 X108.868 Y87.311 E0.07467
G1 X108.188 Y87.869 E0.08075
G1 X107.473 Y88.382 E0.08076
G1 X106.725 Y88.847 E0.08075
G1 X105.949 Y89.262 E0.08076
G1 X105.147 Y89.625 E0.08075
G1 X104.324 Y89.935 E0.08076
G1 X103.481 Y90.191 E0.08075
G1 X102.624 Y90.390 E0.08075
G1 X101.756 Y90.534 E0.08076
G1 X100.880 Y90.620 E0.08075
G1 X100.000 Y90.649 E0.08076
G1 X99.120 Y90.620 E0.08076
G1 X98.244 Y90.534 E0.08075
G1 X97.376 Y90.390 E0.08076
G1 X96.519 Y90.191 E0.08076
G1 X95.677 Y89.935 E0.08075
G1 X94.853 Y89.625 E0.08075
G1 X94.051 Y89.262 E0.08075
G1 X93.275 Y88.847 E0.08075
G1 X92.528 Y88.382 E0.08076
G1 X91.812 Y87.869 E0.08075
G1 X91.132 Y87.311 E0.08076
G1 X90.489 Y86.709 E0.08075
G1 X89.888 Y86.067 E0.08075
G1 X89.329 Y85.386 E0.08084
G1 X88.782 Y84.615 E0.08675
G1 X88.352 Y83.924 E0.07467
G1 X87.937 Y83.147 E0.08084
G1 X87.550 Y82.284 E0.08675
G1 X87.264 Y81.522 E0.07467
G1 X87.008 Y80.680 E0.08076
G1 X86.808 Y79.823 E0.08076
G1 X86.665 Y78.954 E0.08075
G1 X86.579 Y78.077 E0.08084
G1 X86.552 Y77.132 E0.08675
G1 X86.579 Y76.319 E0.07467
G1 X86.665 Y75.443 E0.08076
G1 X86.808 Y74.575 E0.08075
G1 X87.008 Y73.717 E0.08076
G1 X87.264 Y72.874 E0.08084
G1 X87.574 Y72.061 E0.07987
G1 X87.302 Y71.591 F9000.000
G1 X18.845 Y31.135 F9000.000
G1 X20.845 Y27.671 E0.36700 F900.000
G1 X59.437 Y49.952 E4.08860
G1 X81.649 Y52.441 E2.05077
G1 X84.147 Y52.766 E0.23107
G1 X86.278 Y53.240 E0.20037
G1 X87.237 Y52.607 E0.10541
G1 X104.228 Y48.054 E1.61390
G1 X104.364 Y48.039 E0.01253
G1 X137.460 Y49.979 E3.04181
G1 X140.501 Y49.988 E0.27907
G1 X183.053 Y25.421 E4.50806
G1 X186.367 Y31.162 E0.60819
G1 X185.822 Y31.476 E0.05769
G1 X183.822 Y28.012 E0.36700
G1 X180.470 Y29.948 E0.35519
G1 X182.470 Y33.412 E0.36700
G1 X143.878 Y55.693 E4.08860
G1 X130.616 Y73.685 E2.05078
G1 X129.086 Y75.686 E0.23107
G1 X127.610 Y77.295 E0.20036
G1 X127.679 Y78.442 E0.10541
G1 X123.126 Y95.432 E1.61390
G1 X123.065 Y95.573 E0.01405
G1 X120.287 Y100.060 E0.48420
G1 X103.315 Y125.843 E2.83217
G1 X103.315 Y175.013 E4.51134
G1 X96.686 Y175.013 E0.60819
G1 X96.686 Y174.384 E0.05769
G1 X100.686 Y174.384 E0.36700
G1 X100.686 Y170.513 E0.35519
G1 X96.686 Y170.513 E0.36700
G1 X96.686 Y125.951 E4.08860
G1 X87.735 Y105.469 E2.05081
G1 X86.768 Y103.144 E0.23106
G1 X86.112 Y101.061 E0.20036
G1 X85.084 Y100.547 E0.10541
G1 X72.646 Y88.109 E1.61391
G1 X72.555 Y87.986 E0.01405
G1 X70.058 Y83.337 E0.48421
G1 X56.215 Y55.747 E2.83216
G1 X13.633 Y31.162 E4.51134
G1 X16.947 Y25.421 E0.60819
G1 X17.492 Y25.736 E0.05769
G1 X15.492 Y29.200 E0.36700
G1 X18.780 Y31.098 E0.34831
G1 X18.575 Y30.130 F9000.000
G1 X20.575 Y26.666 E0.36700 F900.000
G1 X59.671 Y49.238 E4.14199
G1 X81.737 Y51.711 E2.03726
G1 X84.274 Y52.041 E0.23469
G1 X86.133 Y52.454 E0.17476
G1 X86.931 Y51.927 E0.08774
G1 X104.090 Y47.330 E1.62981
G1 X104.343 Y47.300 E0.02337
G1 X137.482 Y49.244 E3.04580
G1 X140.305 Y49.252 E0.25900
G1 X183.322 Y24.416 E4.55737
G1 X187.372 Y31.431 E0.74318
G1 X185.553 Y32.481 E0.19268
G1 X183.553 Y29.017 E0.36700
G1 X181.475 Y30.217 E0.22020
G1 X183.475 Y33.681 E0.36700
G1 X144.379 Y56.253 E4.14199
G1 X131.204 Y74.127 E2.03727
G1 X129.650 Y76.159 E0.23468
G1 X128.363 Y77.562 E0.17475
G1 X128.420 Y78.517 E0.08774
G1 X123.823 Y95.675 E1.62982
G1 X123.719 Y95.915 E0.02394
G1 X120.907 Y100.456 E0.49006
G1 X104.050 Y126.064 E2.81289
G1 X104.050 Y175.748 E4.55861
G1 X95.950 Y175.748 E0.74318
G1 X95.950 Y173.648 E0.19268
G1 X99.950 Y173.648 E0.36700
G1 X99.950 Y171.248 E0.22020
G1 X95.950 Y171.248 E0.36700
G1 X95.950 Y126.104 E4.14199
G1 X87.058 Y105.758 E2.03730
G1 X86.076 Y103.396 E0.23468
G1 X85.504 Y101.579 E0.17475
G1 X84.649 Y101.152 E0.08774
G1 X72.088 Y88.591 E1.62982
G1 X71.932 Y88.381 E0.02394
G1 X69.405 Y83.676 E0.49007
G1 X55.657 Y56.273 E2.81288
G1 X12.628 Y31.431 E4.55861
G1 X16.678 Y24.416 E0.74318
G1 X18.497 Y25.466 E0.19268
G1 X16.497 Y28.930 E0.36700
G1 X18.510 Y30.093 E0.21332
G1 X19.008 Y30.380 F9000.000
G1 X17.285 Y30.868 F9000.000
G1 X21.472 Y35.054 E0.54505 F900.000
G1 X19.002 Y33.629 F9000.000
G1 X14.989 Y29.615 E0.52251 F900.000
G1 X14.600 Y30.271 E0.07013
G1 X16.533 Y32.203 E0.25155
G1 X19.041 Y31.580 F9000.000
G1 X23.941 Y36.480 E0.63796 F900.000
G1 X26.411 Y37.906 F9000.000
G1 X19.423 Y30.918 E0.90972 F900.000
G1 X19.805 Y30.256 E0.07034
G1 X28.880 Y39.332 E1.18147
G1 X31.350 Y40.758 F9000.000
G1 X20.187 Y29.595 E1.45323 F900.000
G1 X20.569 Y28.933 E0.07034
G1 X33.819 Y42.183 E1.72498
G1 X36.289 Y43.609 F9000.000
G1 X21.174 Y28.494 E1.96771 F900.000
G1 X23.643 Y29.920 F9000.000
G1 X38.758 Y45.035 E1.96771 F900.000
G1 X41.228 Y46.461 F9000.000
G1 X26.113 Y31.346 E1.96771 F900.000
G1 X28.583 Y32.772 F9000.000
G1 X43.698 Y47.887 E1.96771 F900.000
G1 X46.167 Y49.312 F9000.000
G1 X31.052 Y34.197 E1.96771 F900.000
G1 X33.522 Y35.623 F9000.000
G1 X48.637 Y50.738 E1.96771 F900.000
G1 X51.106 Y52.164 F9000.000
G1 X35.991 Y37.049 E1.96771 F900.000
G1 X38.461 Y38.475 F9000.000
G1 X53.576 Y53.590 E1.96771 F900.000
G1 X55.747 Y48.455 F9000.000
G1 X85.389 Y78.097 E3.85886 F900.000
G1 X85.486 Y79.238 E0.10537
G1 X53.278 Y47.029 E4.19294
G1 X50.808 Y45.604 F9000.000
G1 X85.710 Y80.506 E4.54362 F900.000
G1 X86.097 Y81.936 E0.13635
G1 X48.339 Y44.178 E4.91540
G1 X45.869 Y42.752 F9000.000
G1 X86.788 Y83.671 E5.32695 F900.000
G1 X88.391 Y86.317 F9000.000
G1 X43.400 Y41.326 E5.85705 F900.000
G1 X40.930 Y39.900 F9000.000
G1 X112.386 Y111.356 E9.30223 F900.000
G1 X112.800 Y110.726 E0.06937
G1 X90.881 Y88.808 E2.85344
G1 X93.529 Y90.412 F9000.000
G1 X113.214 Y110.097 E2.56265 F900.000
G1 X113.629 Y109.468 E0.06937
G1 X95.263 Y91.102 E2.39087
G1 X96.693 Y91.488 E0.13635
G1 X114.043 Y108.838 E2.25865
G1 X114.457 Y108.209 E0.06937
G1 X97.961 Y91.713 E2.14752
G1 X99.102 Y91.810 E0.10545
G1 X114.872 Y107.579 E2.05288
G1 X115.286 Y106.950 E0.06937
G1 X100.160 Y91.824 E1.96913
G1 X101.149 Y91.769 E0.09119
G1 X115.700 Y106.321 E1.89430
G1 X116.115 Y105.691 E0.06937
G1 X102.081 Y91.657 E1.82696
G1 X102.963 Y91.496 E0.08256
G1 X116.529 Y105.062 E1.76605
G1 X116.943 Y104.432 E0.06937
G1 X103.802 Y91.291 E1.71076
G1 X104.603 Y91.048 E0.07702
G1 X117.358 Y103.803 E1.66048
G1 X117.772 Y103.174 E0.06937
G1 X105.361 Y90.762 E1.61569
G1 X106.087 Y90.445 E0.07295
G1 X118.186 Y102.544 E1.57514
G1 X118.601 Y101.915 E0.06937
G1 X106.783 Y90.097 E1.53846
G1 X107.451 Y89.721 E0.07056
G1 X119.015 Y101.285 E1.50541
G1 X119.429 Y100.656 E0.06937
G1 X108.093 Y89.319 E1.47581
G1 X108.701 Y88.884 E0.06886
G1 X119.844 Y100.026 E1.45059
G1 X120.246 Y99.385 E0.06970
G1 X109.283 Y88.422 E1.42725
G1 X109.840 Y87.936 E0.06810
G1 X120.645 Y98.740 E1.40659
G1 X121.044 Y98.096 E0.06979
G1 X110.372 Y87.423 E1.38935
G1 X110.879 Y86.887 E0.06797
G1 X121.443 Y97.451 E1.37528
G1 X121.842 Y96.806 E0.06979
G1 X111.356 Y86.320 E1.36520
G1 X111.808 Y85.728 E0.06854
G1 X122.242 Y96.162 E1.35828
G1 X122.641 Y95.517 E0.06979
G1 X112.235 Y85.112 E1.35459
G1 X112.636 Y84.468 E0.06976
G1 X122.888 Y94.721 E1.33470
G1 X123.109 Y93.898 E0.07845
G1 X113.001 Y83.790 E1.31586
G1 X113.338 Y83.083 E0.07208
G1 X123.329 Y93.075 E1.30071
G1 X123.550 Y92.251 E0.07845
G1 X113.642 Y82.344 E1.28976
G1 X113.918 Y81.576 E0.07513
G1 X123.770 Y91.428 E1.28260
G1 X123.991 Y90.605 E0.07845
G1 X114.155 Y80.770 E1.28040
G1 X114.352 Y79.923 E0.08003
G1 X124.212 Y89.782 E1.28348
G1 X124.432 Y88.959 E0.07845
G1 X114.500 Y79.027 E1.29292
G1 X114.597 Y78.080 E0.08762
G1 X124.653 Y88.135 E1.30903
G1 X124.873 Y87.312 E0.07845
G1 X114.632 Y77.071 E1.33317
G1 X114.596 Y75.991 E0.09950
G1 X125.094 Y86.489 E1.36664
G1 X125.314 Y85.666 E0.07845
G1 X114.460 Y74.811 E1.41308
G1 X114.200 Y73.508 E0.12230
G1 X125.535 Y84.843 E1.47555
G1 X125.755 Y84.020 E0.07845
G1 X113.746 Y72.011 E1.56336
G1 X112.916 Y70.136 F9000.000
G1 X125.976 Y83.196 E1.70022 F900.000
G1 X107.063 Y64.283 F9000.000
G1 X94.003 Y51.223 E1.70020 F900.000
G1 X94.826 Y51.002 E0.07845
G1 X126.197 Y82.373 E4.08394
G1 X126.417 Y81.550 E0.07845
G1 X95.649 Y50.782 E4.00549
G1 X96.472 Y50.561 E0.07845
G1 X126.638 Y80.727 E3.92704
G1 X126.858 Y79.904 E0.07845
G1 X97.295 Y50.341 E3.84859
G1 X98.118 Y50.120 E0.07845
G1 X127.079 Y79.080 E3.77014
G1 X127.202 Y78.160 E0.08549
G1 X98.942 Y49.899 E3.67903
G1 X99.765 Y49.679 E0.07845
G1 X127.228 Y77.142 E3.57523
G1 X127.727 Y76.598 E0.06800
G1 X100.588 Y49.458 E3.53307
G1 X101.411 Y49.238 E0.07845
G1 X128.227 Y76.053 E3.49091
G1 X128.726 Y75.509 E0.06800
G1 X102.234 Y49.017 E3.44875
G1 X103.057 Y48.797 E0.07845
G1 X129.183 Y74.922 E3.40111
G1 X129.636 Y74.331 E0.06854
G1 X103.881 Y48.576 E3.35283
G1 X104.876 Y48.528 E0.09177
G1 X130.088 Y73.739 E3.28208
G1 X130.535 Y73.143 E0.06863
G1 X105.985 Y48.593 E3.19594
G1 X107.094 Y48.658 E0.10224
G1 X130.978 Y72.542 E3.10925
G1 X131.421 Y71.941 E0.06871
G1 X108.203 Y48.723 E3.02257
G1 X109.312 Y48.788 E0.10224
G1 X131.864 Y71.340 E2.93588
G1 X132.307 Y70.739 E0.06871
G1 X110.420 Y48.853 E2.84919
G1 X111.529 Y48.918 E0.10224
G1 X132.749 Y70.138 E2.76251
G1 X133.192 Y69.538 E0.06871
G1 X112.638 Y48.983 E2.67582
G1 X113.747 Y49.048 E0.10224
G1 X133.635 Y68.937 E2.58913
G1 X134.078 Y68.336 E0.06871
G1 X114.855 Y49.113 E2.50245
G1 X115.964 Y49.178 E0.10224
G1 X134.521 Y67.735 E2.41576
G1 X134.964 Y67.134 E0.06871
G1 X117.073 Y49.243 E2.32908
G1 X118.182 Y49.308 E0.10224
G1 X135.407 Y66.533 E2.24239
G1 X135.850 Y65.932 E0.06871
G1 X119.290 Y49.373 E2.15570
G1 X120.399 Y49.438 E0.10224
G1 X136.292 Y65.332 E2.06902
G1 X136.735 Y64.731 E0.06871
G1 X121.508 Y49.503 E1.98233
G1 X122.617 Y49.568 E0.10224
G1 X137.178 Y64.130 E1.89564
G1 X137.621 Y63.529 E0.06871
G1 X123.726 Y49.633 E1.80896
G1 X124.834 Y49.698 E0.10224
G1 X138.064 Y62.928 E1.72227
G1 X138.507 Y62.327 E0.06871
G1 X125.943 Y49.763 E1.63559
G1 X127.052 Y49.828 E0.10224
G1 X138.950 Y61.726 E1.54890
G1 X139.393 Y61.126 E0.06871
G1 X128.161 Y49.893 E1.46221
G1 X129.269 Y49.958 E0.10224
G1 X139.836 Y60.525 E1.37553
G1 X140.278 Y59.924 E0.06871
G1 X130.378 Y50.023 E1.28884
G1 X131.487 Y50.089 E0.10224
G1 X140.721 Y59.323 E1.20216
G1 X141.164 Y58.722 E0.06871
G1 X132.596 Y50.154 E1.11547
G1 X133.705 Y50.219 E0.10224
G1 X141.607 Y58.121 E1.02878
G1 X142.050 Y57.520 E0.06871
G1 X134.813 Y50.284 E0.94210
G1 X135.922 Y50.349 E0.10224
G1 X142.493 Y56.919 E0.85541
G1 X142.936 Y56.319 E0.06871
G1 X137.031 Y50.414 E0.76872
G1 X138.092 Y50.431 E0.09768
G1 X143.379 Y55.718 E0.68826
G1 X143.920 Y55.216 E0.06799
G1 X139.139 Y50.434 E0.62250
G1 X140.185 Y50.437 E0.09636
