; generated by Slic3r 1.2.9 on 2017-09-26 at 20:13:40

; external perimeters extrusion width = 0.50mm
; perimeters extrusion width = 0.50mm
; infill extrusion width = 0.50mm
; solid infill extrusion width = 0.50mm
; top infill extrusion width = 0.50mm

M107
M190 S57 ; set bed temperature
G28 ; home all axes
M83;
G10 P0 S195 R160                       ; Set tool 0 operating and standby temperatures
T0

G21 ; set units to millimeters
G90 ; use absolute coordinates
M83 ; use relative distances for extrusion
G1 E-3.50000 F2400.00000
G1 Z0.300 F9000.000
G1 X6.396 Y6.396 F9000.000
G1 E3.50000 F2400.00000
G1 X8.200 Y4.591 E0.23416 F1200.000
G1 X10.059 Y3.294 E0.20795
G1 X12.251 Y2.717 E0.20795
G1 X14.451 Y2.916 E0.20271
G1 X175.699 Y46.122 E15.31650 F1200.000
G1 X177.752 Y47.083 E0.20795
G1 X179.348 Y48.693 E0.20795
G1 X180.275 Y50.698 E0.20271
G1 X182.637 Y59.532 E0.83897
G1 X198.907 Y130.916 E6.71754
G1 X199.504 Y134.461 E0.32977
G1 X199.559 Y134.880 E0.03885
G1 X199.873 Y138.068 E0.29390
G1 X200.005 Y141.692 E0.33273
G1 X199.901 Y145.317 E0.33273
G1 X199.854 Y145.930 E0.05634
G1 X199.504 Y149.347 E0.31522
G1 X198.899 Y152.923 E0.33274
G1 X198.172 Y156.043 E0.29390
G1 X197.132 Y159.517 E0.33273
G1 X195.868 Y162.916 E0.33273
G1 X195.706 Y163.307 E0.03886
G1 X194.197 Y166.604 E0.33272
G1 X192.687 Y169.429 E0.29390
G1 X192.374 Y169.958 E0.05634
G1 X190.548 Y172.868 E0.31523
G1 X188.425 Y175.808 E0.33272
G1 X186.113 Y178.603 E0.33273
G1 X183.924 Y180.940 E0.29390
G1 X181.286 Y183.430 E0.33273
G1 X180.968 Y183.709 E0.03885
G1 X178.156 Y185.999 E0.33273
G1 X175.552 Y187.864 E0.29390
G1 X172.480 Y189.791 E0.33273
G1 X169.288 Y191.513 E0.33273
G1 X168.909 Y191.700 E0.03885
G1 X165.991 Y193.022 E0.29389
G1 X162.602 Y194.313 E0.33273
G1 X162.201 Y194.449 E0.03885
G1 X158.727 Y195.488 E0.33272
G1 X155.607 Y196.216 E0.29391
G1 X152.031 Y196.820 E0.33273
G1 X148.424 Y197.189 E0.33273
G1 X144.799 Y197.322 E0.33274
G1 X144.376 Y197.322 E0.03886
G1 X140.752 Y197.189 E0.33273
G1 X137.283 Y196.841 E0.31991
G1 X57.370 Y185.417 E7.40654
G1 X56.611 Y185.262 E0.07109
G1 X48.014 Y182.959 E0.81658
G1 X46.795 Y182.496 E0.11964
G1 X44.977 Y181.143 E0.20795
G1 X43.439 Y178.383 E0.28993
G1 X0.232 Y17.135 E15.31647
G1 X0.038 Y14.877 E0.20795
G1 X0.635 Y12.690 E0.20795
G1 X1.907 Y10.884 E0.20270
G1 X6.343 Y6.449 E0.57554
G1 X6.916 Y6.916 F9000.000
G1 X8.720 Y5.111 E0.23416 F1200.000
G1 X10.483 Y3.910 E0.19568
G1 X12.562 Y3.435 E0.19568
G1 X14.261 Y3.627 E0.15685
G1 X175.509 Y46.833 E15.31650 F1200.000
G1 X177.430 Y47.758 E0.19568
G1 X178.881 Y49.321 E0.19568
G1 X179.565 Y50.888 E0.15685
G1 X181.920 Y59.695 E0.83642
G1 X198.189 Y131.080 E6.71754
G1 X198.827 Y134.953 E0.36011
G1 X199.165 Y138.515 E0.32831
G1 X199.270 Y141.716 E0.29390
G1 X199.165 Y145.293 E0.32832
G1 X198.827 Y148.855 E0.32831
G1 X198.747 Y149.416 E0.05193
G1 X198.183 Y152.756 E0.31081
G1 X197.358 Y156.238 E0.32832
G1 X196.308 Y159.659 E0.32831
G1 X195.180 Y162.657 E0.29389
G1 X193.548 Y166.258 E0.36272
G1 X191.850 Y169.408 E0.32832
G1 X190.159 Y172.128 E0.29390
G1 X188.085 Y175.044 E0.32831
G1 X185.824 Y177.818 E0.32831
G1 X183.121 Y180.703 E0.36273
G1 X180.784 Y182.893 E0.29389
G1 X178.025 Y185.172 E0.32831
G1 X174.812 Y187.475 E0.36273
G1 X172.092 Y189.167 E0.29389
G1 X168.942 Y190.864 E0.32831
G1 X165.340 Y192.496 E0.36273
G1 X161.987 Y193.745 E0.32832
G1 X158.922 Y194.675 E0.29389
G1 X155.072 Y195.572 E0.36273
G1 X151.911 Y196.094 E0.29389
G1 X148.351 Y196.457 E0.32831
G1 X144.400 Y196.586 E0.36274
G1 X140.824 Y196.457 E0.32831
G1 X137.387 Y196.113 E0.31695
G1 X57.474 Y184.689 E7.40654
G1 X56.802 Y184.552 E0.06301
G1 X48.205 Y182.248 E0.81658
G1 X47.124 Y181.838 E0.10604
G1 X45.427 Y180.546 E0.19568
G1 X44.149 Y178.192 E0.24575
G1 X0.943 Y16.945 E15.31647
G1 X0.783 Y14.818 E0.19568
G1 X1.412 Y12.780 E0.19568
G1 X2.427 Y11.404 E0.15685
G1 X6.863 Y6.969 E0.57554
G1 E-3.50000 F2400.00000
G1 X142.402 Y183.718 F9000.000
G1 E3.50000 F2400.00000
G1 X146.773 Y183.718 E0.40106 F900.000
G1 X146.773 Y188.090 E0.40106
G1 X142.402 Y188.090 E0.40106
G1 X142.402 Y183.793 E0.39418
G1 X143.138 Y184.454 F9000.000
G1 X146.038 Y184.454 E0.26607 F900.000
G1 X146.038 Y187.354 E0.26607
G1 X143.138 Y187.354 E0.26607
G1 X143.138 Y184.529 E0.25919
G1 X143.138 Y183.954 F9000.000
G1 X186.402 Y144.090 F9000.000
G1 X186.402 Y139.718 E0.40106 F900.000
G1 X190.773 Y139.718 E0.40106
G1 X190.773 Y144.090 E0.40106
G1 X186.477 Y144.090 E0.39418
G1 X187.138 Y143.354 F9000.000
G1 X187.138 Y140.454 E0.26607 F900.000
G1 X190.038 Y140.454 E0.26607
G1 X190.038 Y143.354 E0.26607
G1 X187.213 Y143.354 E0.25919
G1 X186.638 Y143.354 F9000.000
G1 X186.538 Y143.954 F9000.000
G1 X152.338 Y170.107 F9000.000
G1 X146.201 Y167.628 F9000.000
G1 X132.195 Y171.123 F9000.000
G1 X129.480 Y164.174 F9000.000
G1 X127.710 Y161.051 F9000.000
G1 X126.955 Y159.556 F9000.000
G1 X126.927 Y159.500 F9000.000
G1 X125.944 Y158.417 F9000.000
G1 X126.354 Y158.981 F9000.000
G1 X127.253 Y166.561 E0.70032 F900.000
G1 X120.139 Y165.241 E0.66392
G1 X119.018 Y173.340 E0.75023
G1 X113.104 Y170.251 E0.61222
G1 X110.444 Y163.695 E0.64913
G1 X119.656 Y164.389 E0.84760
G1 X118.850 Y157.589 E0.62836
G1 X126.281 Y158.968 E0.69344
G1 X122.627 Y156.375 F9000.000
G1 X119.854 Y158.661 F9000.000
G1 X115.793 Y160.688 F9000.000
G1 X119.346 Y164.092 F9000.000
G1 X119.260 Y165.233 F9000.000
G1 X119.414 Y165.109 F9000.000
G1 X118.432 Y172.205 E0.65724 F900.000
G1 X113.684 Y169.724 E0.49157
G1 X111.572 Y164.517 E0.51550
G1 X119.339 Y165.103 E0.71471
G1 X118.578 Y165.784 F9000.000
G1 X117.847 Y171.069 E0.48955 F900.000
G1 X114.264 Y169.197 E0.37091
G1 X112.699 Y165.340 E0.38187
G1 X118.503 Y165.778 E0.53404
G1 X119.075 Y165.842 F9000.000
G1 X120.415 Y164.544 F9000.000
G1 X119.698 Y158.494 E0.55896 F900.000
G1 X125.688 Y159.606 E0.55896
G1 X126.405 Y165.656 E0.55896
G1 X120.489 Y164.558 E0.55208
G1 X121.082 Y163.919 F9000.000
G1 X120.546 Y159.400 E0.41759 F900.000
G1 X125.021 Y160.230 E0.41759
G1 X125.557 Y164.750 E0.41759
G1 X121.156 Y163.933 E0.41071
G1 X120.582 Y163.928 F9000.000
G1 E-3.50000 F2400.00000
G1 X125.565 Y159.721 F9000.000
G1 X125.874 Y158.376 F9000.000
G1 X125.944 Y158.417 F9000.000
G1 X125.944 Y158.417 F9000.000
G1 X126.772 Y158.590 F9000.000
G1 E3.50000 F2400.00000
G1 X126.259 Y158.041 E0.06894 F900.000
G1 X125.212 Y156.771 E0.15099
G1 X124.256 Y155.432 E0.15099
G1 X123.437 Y154.115 E0.14226
G1 X122.684 Y152.706 E0.14663
G1 X122.024 Y151.250 E0.14663
G1 X121.462 Y149.754 E0.14663
G1 X120.997 Y148.223 E0.14680
G1 X120.627 Y146.621 E0.15082
G1 X120.374 Y145.092 E0.14226
G1 X120.218 Y143.501 E0.14663
G1 X120.165 Y141.904 E0.14663
G1 X120.218 Y140.307 E0.14663
G1 X120.374 Y138.716 E0.14663
G1 X120.635 Y137.139 E0.14663
G1 X120.998 Y135.583 E0.14663
G1 X121.462 Y134.054 E0.14663
G1 X122.024 Y132.558 E0.14663
G1 X122.684 Y131.102 E0.14663
G1 X123.437 Y129.693 E0.14663
G1 X124.281 Y128.336 E0.14663
G1 X125.212 Y127.037 E0.14663
G1 X126.227 Y125.800 E0.14680
G1 X127.353 Y124.602 E0.15083
G1 X128.485 Y123.542 E0.14226
G1 X129.720 Y122.528 E0.14663
G1 X131.019 Y121.598 E0.14663
G1 X132.377 Y120.754 E0.14663
G1 X133.786 Y120.000 E0.14663
G1 X135.242 Y119.341 E0.14663
G1 X136.737 Y118.778 E0.14663
G1 X138.267 Y118.314 E0.14663
G1 X139.823 Y117.951 E0.14663
G1 X141.402 Y117.690 E0.14680
G1 X143.038 Y117.532 E0.15082
G1 X144.588 Y117.482 E0.14226 F900.000
G1 X146.185 Y117.534 E0.14663
G1 X147.776 Y117.691 E0.14663
G1 X149.352 Y117.951 E0.14663
G1 X150.909 Y118.314 E0.14663
G1 X152.438 Y118.778 E0.14663
G1 X153.934 Y119.341 E0.14663
G1 X155.389 Y120.000 E0.14663
G1 X156.799 Y120.754 E0.14663
G1 X158.156 Y121.598 E0.14663
G1 X159.455 Y122.528 E0.14663
G1 X160.692 Y123.544 E0.14680
G1 X161.889 Y124.670 E0.15083
G1 X162.949 Y125.801 E0.14226
G1 X163.964 Y127.038 E0.14680
G1 X164.919 Y128.376 E0.15082
G1 X165.738 Y129.693 E0.14226
G1 X166.491 Y131.102 E0.14663
G1 X167.151 Y132.558 E0.14663
G1 X167.714 Y134.054 E0.14663
G1 X168.178 Y135.583 E0.14663
G1 X168.541 Y137.139 E0.14663
G1 X168.801 Y138.716 E0.14663
G1 X168.958 Y140.307 E0.14663
G1 X169.010 Y141.904 E0.14663
G1 X168.958 Y143.501 E0.14663
G1 X168.801 Y145.092 E0.14663
G1 X168.541 Y146.669 E0.14663
G1 X168.178 Y148.225 E0.14663
G1 X167.714 Y149.754 E0.14663
G1 X167.151 Y151.250 E0.14663
G1 X166.491 Y152.706 E0.14663
G1 X165.737 Y154.117 E0.14680
G1 X164.866 Y155.511 E0.15082
G1 X163.963 Y156.771 E0.14226
G1 X162.948 Y158.008 E0.14680
G1 X161.822 Y159.206 E0.15083
G1 X160.690 Y160.266 E0.14226
G1 X159.454 Y161.281 E0.14680
G1 X158.116 Y162.235 E0.15082
G1 X156.799 Y163.054 E0.14226
G1 X155.389 Y163.808 E0.14663
G1 X153.934 Y164.467 E0.14663
G1 X152.438 Y165.030 E0.14663
G1 X150.909 Y165.494 E0.14663
G1 X149.352 Y165.857 E0.14663
G1 X147.823 Y166.109 E0.14226
G1 X146.187 Y166.274 E0.15083
G1 X144.588 Y166.326 E0.14680
G1 X142.990 Y166.274 E0.14663
G1 X141.400 Y166.117 E0.14663
G1 X139.823 Y165.857 E0.14663
G1 X138.267 Y165.494 E0.14663
G1 X136.737 Y165.030 E0.14663
G1 X135.242 Y164.467 E0.14663
G1 X133.786 Y163.808 E0.14663
G1 X132.375 Y163.053 E0.14680
G1 X130.981 Y162.183 E0.15082
G1 X129.720 Y161.279 E0.14226
G1 X128.485 Y160.266 E0.14663
G1 X127.319 Y159.173 E0.14663
G1 X126.824 Y158.645 E0.06644
G1 X127.309 Y158.087 F9000.000
G1 X126.812 Y157.556 E0.06680 F900.000
G1 X125.796 Y156.323 E0.14651
G1 X124.869 Y155.023 E0.14651
G1 X124.075 Y153.747 E0.13791
G1 X123.344 Y152.380 E0.14221
G1 X122.704 Y150.968 E0.14221
G1 X122.158 Y149.518 E0.14221
G1 X121.708 Y148.033 E0.14231
G1 X121.349 Y146.479 E0.14641
G1 X121.104 Y144.996 E0.13791
G1 X120.952 Y143.453 E0.14221
G1 X120.901 Y141.904 E0.14221
G1 X120.952 Y140.355 E0.14221
G1 X121.104 Y138.812 E0.14221
G1 X121.357 Y137.283 E0.14221
G1 X121.709 Y135.773 E0.14221
G1 X122.158 Y134.290 E0.14221
G1 X122.704 Y132.840 E0.14221
G1 X123.344 Y131.428 E0.14221
G1 X124.075 Y130.061 E0.14221
G1 X124.893 Y128.745 E0.14221
G1 X125.796 Y127.485 E0.14221
G1 X126.780 Y126.286 E0.14231
G1 X127.873 Y125.123 E0.14641
G1 X128.970 Y124.096 E0.13791
G1 X130.168 Y123.112 E0.14221
G1 X131.428 Y122.210 E0.14221
G1 X132.745 Y121.391 E0.14221
G1 X134.112 Y120.660 E0.14221
G1 X135.523 Y120.021 E0.14221
G1 X136.974 Y119.475 E0.14221
G1 X138.457 Y119.025 E0.14221
G1 X139.967 Y118.673 E0.14221
G1 X141.497 Y118.420 E0.14231
G1 X143.085 Y118.267 E0.14641
G1 X144.588 Y118.218 E0.13791 F900.000
G1 X146.137 Y118.268 E0.14221
G1 X147.679 Y118.420 E0.14221
G1 X149.209 Y118.673 E0.14221
G1 X150.718 Y119.025 E0.14221
G1 X152.201 Y119.475 E0.14221
G1 X153.652 Y120.021 E0.14221
G1 X155.064 Y120.660 E0.14221
G1 X156.431 Y121.391 E0.14221
G1 X157.747 Y122.210 E0.14221
G1 X159.007 Y123.112 E0.14221
G1 X160.206 Y124.096 E0.14231
G1 X161.369 Y125.190 E0.14641
G1 X162.396 Y126.287 E0.13791
G1 X163.380 Y127.486 E0.14231
G1 X164.307 Y128.784 E0.14641
G1 X165.101 Y130.061 E0.13791
G1 X165.831 Y131.428 E0.14221
G1 X166.471 Y132.840 E0.14221
G1 X167.017 Y134.290 E0.14221
G1 X167.467 Y135.774 E0.14221
G1 X167.819 Y137.283 E0.14221
G1 X168.071 Y138.812 E0.14221
G1 X168.223 Y140.355 E0.14221
G1 X168.274 Y141.904 E0.14221
G1 X168.223 Y143.453 E0.14221
G1 X168.071 Y144.996 E0.14221
G1 X167.819 Y146.525 E0.14221
G1 X167.467 Y148.034 E0.14221
G1 X167.017 Y149.518 E0.14221
G1 X166.471 Y150.968 E0.14221
G1 X165.831 Y152.380 E0.14221
G1 X165.100 Y153.748 E0.14231
G1 X164.255 Y155.101 E0.14641
G1 X163.379 Y156.323 E0.13791
G1 X162.395 Y157.522 E0.14231
G1 X161.302 Y158.685 E0.14641
G1 X160.205 Y159.712 E0.13791
G1 X159.006 Y160.696 E0.14231
G1 X157.707 Y161.623 E0.14641
G1 X156.431 Y162.417 E0.13791
G1 X155.064 Y163.147 E0.14221
G1 X153.652 Y163.787 E0.14221
G1 X152.201 Y164.333 E0.14221
G1 X150.718 Y164.783 E0.14221
G1 X149.209 Y165.135 E0.14221
G1 X147.726 Y165.380 E0.13791
G1 X146.138 Y165.539 E0.14641
G1 X144.588 Y165.590 E0.14232
G1 X143.039 Y165.539 E0.14221
G1 X141.496 Y165.388 E0.14221
G1 X139.967 Y165.135 E0.14221
G1 X138.457 Y164.783 E0.14221
G1 X136.974 Y164.333 E0.14221
G1 X135.523 Y163.787 E0.14221
G1 X134.112 Y163.147 E0.14221
G1 X132.744 Y162.416 E0.14231
G1 X131.390 Y161.571 E0.14641
G1 X130.168 Y160.695 E0.13791
G1 X128.970 Y159.712 E0.14221
G1 X127.839 Y158.653 E0.14221
G1 X127.360 Y158.142 E0.06423
G1 X127.846 Y157.584 F9000.000
G1 X127.364 Y157.070 E0.06465 F900.000
G1 X126.380 Y155.875 E0.14202
G1 X125.481 Y154.615 E0.14202
G1 X124.712 Y153.379 E0.13355
G1 X124.004 Y152.055 E0.13779
G1 X123.384 Y150.687 E0.13779
G1 X122.855 Y149.281 E0.13779
G1 X122.419 Y147.844 E0.13783
G1 X122.071 Y146.336 E0.14199
G1 X121.834 Y144.900 E0.13355
G1 X121.687 Y143.405 E0.13779
G1 X121.637 Y141.904 E0.13779
G1 X121.687 Y140.403 E0.13779
G1 X121.834 Y138.908 E0.13779
G1 X122.078 Y137.427 E0.13779
G1 X122.419 Y135.964 E0.13779
G1 X122.855 Y134.527 E0.13779
G1 X123.384 Y133.121 E0.13779
G1 X124.004 Y131.753 E0.13779
G1 X124.712 Y130.429 E0.13779
G1 X125.505 Y129.153 E0.13779
G1 X126.380 Y127.933 E0.13779
G1 X127.333 Y126.771 E0.13783
G1 X128.393 Y125.644 E0.14199
G1 X129.456 Y124.649 E0.13355
G1 X130.617 Y123.696 E0.13779
G1 X131.837 Y122.822 E0.13779
G1 X133.113 Y122.028 E0.13779
G1 X134.437 Y121.320 E0.13779
G1 X135.805 Y120.701 E0.13779
G1 X137.211 Y120.172 E0.13779
G1 X138.648 Y119.736 E0.13779
G1 X140.110 Y119.395 E0.13779
G1 X141.593 Y119.150 E0.13783
G1 X143.133 Y119.001 E0.14199
G1 X144.588 Y118.954 E0.13355 F900.000
G1 X146.089 Y119.003 E0.13779
G1 X147.583 Y119.150 E0.13779
G1 X149.065 Y119.395 E0.13779
G1 X150.528 Y119.736 E0.13779
G1 X151.965 Y120.172 E0.13779
G1 X153.370 Y120.701 E0.13779
G1 X154.738 Y121.321 E0.13779
G1 X156.063 Y122.028 E0.13779
G1 X157.338 Y122.822 E0.13779
G1 X158.559 Y123.696 E0.13779
G1 X159.720 Y124.649 E0.13783
G1 X160.848 Y125.709 E0.14199
G1 X161.843 Y126.772 E0.13355
G1 X162.796 Y127.933 E0.13783
G1 X163.695 Y129.193 E0.14199
G1 X164.463 Y130.429 E0.13355
G1 X165.171 Y131.753 E0.13779
G1 X165.791 Y133.121 E0.13779
G1 X166.320 Y134.527 E0.13779
G1 X166.756 Y135.964 E0.13779
G1 X167.097 Y137.427 E0.13779
G1 X167.342 Y138.908 E0.13779
G1 X167.489 Y140.403 E0.13779
G1 X167.538 Y141.904 E0.13779
G1 X167.489 Y143.405 E0.13779
G1 X167.342 Y144.900 E0.13779
G1 X167.097 Y146.381 E0.13779
G1 X166.756 Y147.844 E0.13779
G1 X166.320 Y149.281 E0.13779
G1 X165.791 Y150.687 E0.13779
G1 X165.171 Y152.055 E0.13779
G1 X164.463 Y153.379 E0.13783
G1 X163.643 Y154.692 E0.14199
G1 X162.795 Y155.875 E0.13355
G1 X161.842 Y157.036 E0.13783
G1 X160.782 Y158.164 E0.14199
G1 X159.720 Y159.159 E0.13355
G1 X158.559 Y160.112 E0.13783
G1 X157.299 Y161.011 E0.14199
G1 X156.063 Y161.779 E0.13355
G1 X154.738 Y162.487 E0.13779
G1 X153.370 Y163.107 E0.13779
G1 X151.965 Y163.636 E0.13779
G1 X150.528 Y164.072 E0.13779
G1 X149.065 Y164.413 E0.13779
G1 X147.629 Y164.650 E0.13355
G1 X146.089 Y164.805 E0.14199
G1 X144.588 Y164.854 E0.13783
G1 X143.087 Y164.805 E0.13779
G1 X141.592 Y164.658 E0.13779
G1 X140.110 Y164.413 E0.13779
G1 X138.648 Y164.072 E0.13779
G1 X137.211 Y163.636 E0.13779
G1 X135.805 Y163.107 E0.13779
G1 X134.437 Y162.487 E0.13779
G1 X133.112 Y161.779 E0.13783
G1 X131.800 Y160.959 E0.14199
G1 X130.617 Y160.112 E0.13355
G1 X129.456 Y159.159 E0.13779
G1 X128.359 Y158.132 E0.13779
G1 X127.897 Y157.639 E0.06202
G1 X127.359 Y157.698 F9000.000
G1 X140.931 Y168.247 F9000.000
G1 X148.245 Y168.247 E0.67104 F900.000
G1 X148.245 Y175.561 E0.67104
G1 X140.931 Y175.561 E0.67104
G1 X140.931 Y168.322 E0.66415
G1 X141.667 Y168.983 F9000.000
G1 X147.509 Y168.983 E0.53605 F900.000
G1 X147.509 Y174.825 E0.53605
G1 X141.667 Y174.825 E0.53605
G1 X141.667 Y169.058 E0.52917
G1 X142.402 Y169.718 F9000.000
G1 X146.773 Y169.718 E0.40106 F900.000
G1 X146.773 Y174.090 E0.40106
G1 X142.402 Y174.090 E0.40106
G1 X142.402 Y169.793 E0.39418
G1 X143.138 Y170.454 F9000.000
G1 X146.038 Y170.454 E0.26607 F900.000
G1 X146.038 Y173.354 E0.26607
G1 X143.138 Y173.354 E0.26607
G1 X143.138 Y170.529 E0.25919
G1 X143.138 Y169.954 F9000.000
G1 X142.538 Y169.854 F9000.000
G1 X125.874 Y158.376 F9000.000
G1 X119.360 Y154.180 F9000.000
G1 X116.638 Y149.321 F9000.000
G1 X118.103 Y147.058 F9000.000
G1 X118.148 Y146.970 F9000.000
