; generated by Slic3r 1.2.9 on 2017-09-27 at 02:01:31

; external perimeters extrusion width = 0.50mm
; perimeters extrusion width = 0.50mm
; infill extrusion width = 0.50mm
; solid infill extrusion width = 0.50mm
; top infill extrusion width = 0.50mm

M107
M190 S57 ; set bed temperature
G28 ; home all axes
M83;
G10 P0 S195 R160                       ; Set tool 0 operating and standby temperatures
T0

G21 ; set units to millimeters
G90 ; use absolute coordinates
M83 ; use relative distances for extrusion
G1 E-3.50000 F2400.00000
G1 Z0.300 F9000.000
G1 X45.442 Y21.272 F9000.000
G1 E3.50000 F2400.00000
G1 X46.108 Y19.848 E0.14429 F1200.000
G1 X47.718 Y18.253 E0.20795
G1 X49.723 Y17.325 E0.20271
G1 X58.320 Y15.022 E0.81658
G1 X58.993 Y14.879 E0.06308
G1 X135.487 Y2.888 E7.10411
G1 X139.043 Y2.527 E0.32792
G1 X139.465 Y2.499 E0.03885
G1 X143.090 Y2.394 E0.33273
G1 X146.292 Y2.499 E0.29390 F1200.000
G1 X149.902 Y2.841 E0.33273
G1 X153.482 Y3.418 E0.33273
G1 X153.898 Y3.500 E0.03886
G1 X157.426 Y4.337 E0.33273
G1 X160.892 Y5.403 E0.33273
G1 X163.890 Y6.532 E0.29390
G1 X164.455 Y6.772 E0.05635
G1 X167.579 Y8.203 E0.31523
G1 X170.404 Y9.713 E0.29390
G1 X173.491 Y11.616 E0.33273
G1 X173.998 Y11.963 E0.05635
G1 X176.783 Y13.975 E0.31522
G1 X179.577 Y16.286 E0.33274
G1 X181.915 Y18.476 E0.29390
G1 X184.404 Y21.114 E0.33273
G1 X186.716 Y23.908 E0.33273
G1 X188.839 Y26.848 E0.33273
G1 X189.074 Y27.200 E0.03886
G1 X190.978 Y30.287 E0.33273
G1 X192.488 Y33.112 E0.29389
G1 X193.997 Y36.409 E0.33273
G1 X195.287 Y39.798 E0.33273
G1 X195.423 Y40.199 E0.03886
G1 X196.463 Y43.673 E0.33272
G1 X197.190 Y46.793 E0.29390
G1 X197.794 Y50.369 E0.33273
G1 X197.850 Y50.789 E0.03885
G1 X198.191 Y54.399 E0.33273
G1 X198.296 Y57.600 E0.29390
G1 X198.191 Y61.225 E0.33273
G1 X198.145 Y61.838 E0.05634
G1 X197.794 Y65.255 E0.31522
G1 X197.258 Y68.500 E0.30169
G1 X184.407 Y140.452 E6.70614
G1 X184.288 Y140.989 E0.05046
G1 X181.984 Y149.586 E0.81661
G1 X181.023 Y151.638 E0.20795
G1 X179.413 Y153.234 E0.20795
G1 X177.408 Y154.162 E0.20271
G1 X16.160 Y197.368 E15.31647
G1 X13.902 Y197.562 E0.20795
G1 X11.716 Y196.966 E0.20795
G1 X9.910 Y195.693 E0.20270
G1 X3.616 Y189.400 E0.81658
G1 X2.319 Y187.541 E0.20795
G1 X1.742 Y185.350 E0.20795
G1 X1.942 Y183.149 E0.20271
G1 X45.147 Y21.901 E15.31650
G1 X45.410 Y21.340 E0.05679
G1 X46.100 Y21.589 F9000.000
G1 X46.783 Y20.170 E0.14456 F1200.000
G1 X48.347 Y18.719 E0.19568
G1 X49.914 Y18.036 E0.15685
G1 X58.511 Y15.732 E0.81658
G1 X59.107 Y15.606 E0.05591
G1 X135.601 Y3.614 E7.10411
G1 X139.489 Y3.234 E0.35846
G1 X143.066 Y3.129 E0.32832
G1 X146.642 Y3.259 E0.32831 F1200.000
G1 X149.830 Y3.573 E0.29390
G1 X153.363 Y4.144 E0.32832
G1 X157.213 Y5.041 E0.36273
G1 X160.633 Y6.092 E0.32831
G1 X163.631 Y7.220 E0.29390
G1 X164.152 Y7.443 E0.05193
G1 X167.232 Y8.852 E0.31081
G1 X170.057 Y10.362 E0.29390
G1 X173.415 Y12.449 E0.36273
G1 X176.316 Y14.544 E0.32831
G1 X179.074 Y16.823 E0.32832
G1 X181.412 Y19.013 E0.29390
G1 X183.867 Y21.616 E0.32831
G1 X186.375 Y24.672 E0.36272
G1 X188.450 Y27.588 E0.32832
G1 X190.141 Y30.308 E0.29389
G1 X191.839 Y33.458 E0.32831
G1 X193.327 Y36.713 E0.32832
G1 X194.599 Y40.057 E0.32831
G1 X195.746 Y43.840 E0.36273
G1 X196.547 Y47.328 E0.32832
G1 X197.069 Y50.489 E0.29389
G1 X197.456 Y54.423 E0.36273
G1 X197.561 Y57.624 E0.29390
G1 X197.456 Y61.201 E0.32832
G1 X197.069 Y65.136 E0.36272
G1 X196.534 Y68.370 E0.30080
G1 X183.683 Y140.323 E6.70614
G1 X183.577 Y140.798 E0.04472
G1 X181.274 Y149.395 E0.81660
G1 X180.348 Y151.317 E0.19568
G1 X178.785 Y152.767 E0.19568
G1 X177.218 Y153.451 E0.15685
G1 X15.970 Y196.657 E15.31647
G1 X13.843 Y196.817 E0.19568
G1 X11.805 Y196.188 E0.19568
G1 X10.430 Y195.173 E0.15685
G1 X4.137 Y188.880 E0.81658
G1 X2.935 Y187.118 E0.19568
G1 X2.461 Y185.038 E0.19568
G1 X2.652 Y183.340 E0.15685
G1 X45.858 Y22.091 E15.31650
G1 X46.067 Y21.657 E0.04423
G1 E-3.50000 F2400.00000
G1 X140.693 Y99.626 F9000.000
G1 E3.50000 F2400.00000
G1 X145.064 Y99.626 E0.40106 F900.000
G1 X145.064 Y103.998 E0.40106
G1 X140.693 Y103.998 E0.40106
G1 X140.693 Y99.701 E0.39418
G1 X141.428 Y100.362 F9000.000
G1 X144.328 Y100.362 E0.26608 F900.000
G1 X144.328 Y103.262 E0.26608
G1 X141.428 Y103.262 E0.26608
G1 X141.428 Y100.437 E0.25920
G1 X141.428 Y99.862 F9000.000
G1 X184.693 Y59.998 F9000.000
G1 X184.693 Y55.626 E0.40106 F900.000
G1 X189.064 Y55.626 E0.40106
G1 X189.064 Y59.998 E0.40106
G1 X184.768 Y59.998 E0.39418
G1 X185.428 Y59.262 F9000.000
G1 X185.428 Y56.362 E0.26608 F900.000
G1 X188.328 Y56.362 E0.26608
G1 X188.328 Y59.262 E0.26608
G1 X185.503 Y59.262 E0.25920
G1 X184.928 Y59.262 F9000.000
G1 X184.828 Y59.862 F9000.000
G1 X150.296 Y85.762 F9000.000
G1 X142.950 Y83.562 F9000.000
G1 X129.886 Y84.620 F9000.000
G1 X127.771 Y80.082 F9000.000
G1 X126.001 Y76.959 F9000.000
G1 X125.246 Y75.464 F9000.000
G1 X125.218 Y75.408 F9000.000
G1 X124.235 Y74.325 F9000.000
G1 X124.645 Y74.889 F9000.000
G1 X125.544 Y82.469 E0.70033 F900.000
G1 X118.429 Y81.149 E0.66392
G1 X117.309 Y89.249 E0.75023
G1 X111.394 Y86.159 E0.61222
G1 X108.735 Y79.603 E0.64913
G1 X117.947 Y80.298 E0.84760
G1 X117.140 Y73.497 E0.62836
G1 X124.571 Y74.876 E0.69344
G1 X120.917 Y72.283 F9000.000
G1 X118.145 Y74.569 F9000.000
G1 X114.084 Y76.596 F9000.000
G1 X117.637 Y80.001 F9000.000
G1 X117.551 Y81.141 F9000.000
G1 X117.705 Y81.017 F9000.000
G1 X116.723 Y88.113 E0.65724 F900.000
G1 X111.974 Y85.632 E0.49157
G1 X109.862 Y80.426 E0.51550
G1 X117.630 Y81.011 E0.71471
G1 X116.869 Y81.692 F9000.000
G1 X116.138 Y86.977 E0.48955 F900.000
G1 X112.555 Y85.105 E0.37091
G1 X110.990 Y81.248 E0.38187
G1 X116.794 Y81.686 E0.53405
G1 X117.366 Y81.750 F9000.000
G1 X118.706 Y80.452 F9000.000
G1 X117.989 Y74.402 E0.55896 F900.000
G1 X123.978 Y75.514 E0.55896
G1 X124.696 Y81.564 E0.55896
G1 X118.780 Y80.466 E0.55208
G1 X119.373 Y79.828 F9000.000
G1 X118.837 Y75.308 E0.41760 F900.000
G1 X123.312 Y76.138 E0.41759
G1 X123.848 Y80.658 E0.41760
G1 X119.446 Y79.841 E0.41071
G1 X118.873 Y79.836 F9000.000
G1 E-3.50000 F2400.00000
G1 X123.855 Y75.629 F9000.000
G1 X124.165 Y74.284 F9000.000
G1 X124.235 Y74.325 F9000.000
G1 X124.235 Y74.325 F9000.000
G1 X125.063 Y74.498 F9000.000
G1 E3.50000 F2400.00000
G1 X124.549 Y73.950 E0.06894 F900.000
G1 X123.503 Y72.679 E0.15099
G1 X122.547 Y71.340 E0.15099
G1 X121.728 Y70.023 E0.14226
G1 X120.974 Y68.612 E0.14680
G1 X120.298 Y67.113 E0.15083
G1 X119.752 Y65.662 E0.14226
G1 X119.288 Y64.131 E0.14680
G1 X118.918 Y62.530 E0.15083
G1 X118.665 Y61.000 E0.14226
G1 X118.508 Y59.409 E0.14663
G1 X118.456 Y57.812 E0.14663
G1 X118.508 Y56.215 E0.14663
G1 X118.665 Y54.624 E0.14663
G1 X118.925 Y53.047 E0.14663
G1 X119.288 Y51.491 E0.14663
G1 X119.752 Y49.962 E0.14663
G1 X120.315 Y48.466 E0.14663
G1 X120.975 Y47.010 E0.14663
G1 X121.728 Y45.601 E0.14663
G1 X122.572 Y44.244 E0.14663
G1 X123.503 Y42.945 E0.14663
G1 X124.517 Y41.709 E0.14663
G1 X125.609 Y40.543 E0.14663
G1 X126.776 Y39.450 E0.14663
G1 X128.011 Y38.437 E0.14663
G1 X129.310 Y37.506 E0.14663
G1 X130.667 Y36.662 E0.14663
G1 X132.077 Y35.908 E0.14663
G1 X133.532 Y35.249 E0.14663
G1 X135.028 Y34.686 E0.14663
G1 X136.558 Y34.222 E0.14663
G1 X138.114 Y33.859 E0.14663
G1 X139.693 Y33.598 E0.14680
G1 X141.329 Y33.440 E0.15082
G1 X142.879 Y33.390 E0.14226 F900.000
G1 X144.476 Y33.442 E0.14663
G1 X146.066 Y33.599 E0.14663
G1 X147.643 Y33.859 E0.14663
G1 X149.199 Y34.222 E0.14663
G1 X150.729 Y34.686 E0.14663
G1 X152.225 Y35.249 E0.14663
G1 X153.680 Y35.908 E0.14663
G1 X155.090 Y36.662 E0.14663
G1 X156.447 Y37.506 E0.14663
G1 X157.746 Y38.437 E0.14663
G1 X158.983 Y39.452 E0.14680
G1 X160.180 Y40.578 E0.15083
G1 X161.240 Y41.709 E0.14226
G1 X162.254 Y42.945 E0.14663
G1 X163.185 Y44.244 E0.14663
G1 X164.029 Y45.601 E0.14663
G1 X164.782 Y47.010 E0.14663
G1 X165.442 Y48.466 E0.14663
G1 X166.005 Y49.962 E0.14663
G1 X166.469 Y51.491 E0.14663
G1 X166.831 Y53.048 E0.14663
G1 X167.092 Y54.624 E0.14663
G1 X167.248 Y56.215 E0.14663
G1 X167.301 Y57.812 E0.14663
G1 X167.248 Y59.409 E0.14663
G1 X167.092 Y61.000 E0.14663
G1 X166.831 Y62.577 E0.14663
G1 X166.469 Y64.133 E0.14663
G1 X166.005 Y65.662 E0.14663
G1 X165.442 Y67.158 E0.14663
G1 X164.782 Y68.614 E0.14663
G1 X164.028 Y70.025 E0.14680
G1 X163.157 Y71.419 E0.15083
G1 X162.254 Y72.679 E0.14226
G1 X161.240 Y73.915 E0.14663
G1 X160.148 Y75.081 E0.14663
G1 X158.981 Y76.174 E0.14663
G1 X157.744 Y77.189 E0.14680
G1 X156.406 Y78.144 E0.15082
G1 X155.090 Y78.962 E0.14226
G1 X153.680 Y79.716 E0.14663
G1 X152.224 Y80.375 E0.14663
G1 X150.729 Y80.938 E0.14663
G1 X149.199 Y81.402 E0.14663
G1 X147.643 Y81.765 E0.14663
G1 X146.113 Y82.018 E0.14226
G1 X144.478 Y82.182 E0.15083
G1 X142.878 Y82.234 E0.14680
G1 X141.281 Y82.182 E0.14663
G1 X139.691 Y82.025 E0.14663
G1 X138.114 Y81.765 E0.14663
G1 X136.558 Y81.402 E0.14663
G1 X135.028 Y80.938 E0.14663
G1 X133.532 Y80.375 E0.14663
G1 X132.077 Y79.716 E0.14663
G1 X130.666 Y78.961 E0.14680
G1 X129.271 Y78.091 E0.15082
G1 X128.011 Y77.188 E0.14226
G1 X126.776 Y76.174 E0.14663
G1 X125.609 Y75.081 E0.14663
G1 X125.114 Y74.553 E0.06644
G1 X125.600 Y73.995 F9000.000
G1 X125.102 Y73.464 E0.06680 F900.000
G1 X124.087 Y72.231 E0.14651
G1 X123.159 Y70.932 E0.14651
G1 X122.366 Y69.655 E0.13791
G1 X121.634 Y68.287 E0.14231
G1 X120.979 Y66.832 E0.14641
G1 X120.449 Y65.426 E0.13791
G1 X119.999 Y63.941 E0.14231
G1 X119.640 Y62.387 E0.14641
G1 X119.395 Y60.904 E0.13791
G1 X119.243 Y59.361 E0.14221
G1 X119.192 Y57.812 E0.14221
G1 X119.243 Y56.263 E0.14221
G1 X119.395 Y54.720 E0.14221
G1 X119.647 Y53.191 E0.14221
G1 X119.999 Y51.682 E0.14221
G1 X120.449 Y50.198 E0.14221
G1 X120.995 Y48.748 E0.14221
G1 X121.635 Y47.336 E0.14221
G1 X122.366 Y45.969 E0.14221
G1 X123.184 Y44.653 E0.14221
G1 X124.087 Y43.393 E0.14221
G1 X125.070 Y42.195 E0.14221
G1 X126.130 Y41.063 E0.14221
G1 X127.261 Y40.004 E0.14221
G1 X128.459 Y39.020 E0.14221
G1 X129.719 Y38.118 E0.14221
G1 X131.035 Y37.299 E0.14221
G1 X132.402 Y36.568 E0.14221
G1 X133.814 Y35.929 E0.14221
G1 X135.265 Y35.383 E0.14221
G1 X136.748 Y34.933 E0.14221
G1 X138.258 Y34.581 E0.14221
G1 X139.788 Y34.328 E0.14231
G1 X141.376 Y34.175 E0.14641
G1 X142.878 Y34.126 E0.13791 F900.000
G1 X144.428 Y34.176 E0.14221
G1 X145.970 Y34.328 E0.14221
G1 X147.499 Y34.581 E0.14221
G1 X149.009 Y34.933 E0.14221
G1 X150.492 Y35.383 E0.14221
G1 X151.943 Y35.929 E0.14221
G1 X153.355 Y36.568 E0.14221
G1 X154.722 Y37.299 E0.14221
G1 X156.038 Y38.118 E0.14221
G1 X157.298 Y39.021 E0.14221
G1 X158.497 Y40.005 E0.14231
G1 X159.659 Y41.098 E0.14641
G1 X160.687 Y42.195 E0.13791
G1 X161.670 Y43.393 E0.14221
G1 X162.573 Y44.653 E0.14221
G1 X163.391 Y45.969 E0.14221
G1 X164.122 Y47.336 E0.14221
G1 X164.762 Y48.748 E0.14221
G1 X165.308 Y50.198 E0.14221
G1 X165.758 Y51.682 E0.14221
G1 X166.110 Y53.191 E0.14221
G1 X166.362 Y54.720 E0.14221
G1 X166.514 Y56.263 E0.14221
G1 X166.565 Y57.812 E0.14221
G1 X166.514 Y59.361 E0.14221
G1 X166.362 Y60.904 E0.14221
G1 X166.110 Y62.433 E0.14221
G1 X165.758 Y63.943 E0.14221
G1 X165.308 Y65.426 E0.14221
G1 X164.762 Y66.876 E0.14221
G1 X164.122 Y68.288 E0.14221
G1 X163.391 Y69.656 E0.14231
G1 X162.546 Y71.010 E0.14641
G1 X161.670 Y72.231 E0.13791
G1 X160.687 Y73.429 E0.14221
G1 X159.627 Y74.561 E0.14221
G1 X158.496 Y75.620 E0.14221
G1 X157.297 Y76.604 E0.14231
G1 X155.998 Y77.531 E0.14641
G1 X154.722 Y78.325 E0.13791
G1 X153.355 Y79.056 E0.14221
G1 X151.943 Y79.695 E0.14221
G1 X150.492 Y80.241 E0.14221
G1 X149.009 Y80.691 E0.14221
G1 X147.499 Y81.043 E0.14221
G1 X146.016 Y81.288 E0.13791
G1 X144.429 Y81.448 E0.14641
G1 X142.878 Y81.498 E0.14232
G1 X141.329 Y81.448 E0.14221
G1 X139.787 Y81.296 E0.14221
G1 X138.257 Y81.043 E0.14221
G1 X136.748 Y80.691 E0.14221
G1 X135.265 Y80.241 E0.14221
G1 X133.814 Y79.695 E0.14221
G1 X132.402 Y79.056 E0.14221
G1 X131.034 Y78.324 E0.14231
G1 X129.681 Y77.479 E0.14641
G1 X128.459 Y76.604 E0.13791
G1 X127.261 Y75.620 E0.14221
G1 X126.130 Y74.561 E0.14221
G1 X125.651 Y74.050 E0.06423
G1 X126.137 Y73.492 F9000.000
G1 X125.655 Y72.978 E0.06465 F900.000
G1 X124.671 Y71.783 E0.14202
G1 X123.772 Y70.523 E0.14202
G1 X123.003 Y69.287 E0.13355
G1 X122.295 Y67.962 E0.13783
G1 X121.659 Y66.551 E0.14199
G1 X121.146 Y65.189 E0.13355
G1 X120.710 Y63.752 E0.13783
G1 X120.362 Y62.244 E0.14199
G1 X120.125 Y60.808 E0.13355
G1 X119.977 Y59.313 E0.13779
G1 X119.928 Y57.812 E0.13779
G1 X119.977 Y56.311 E0.13779
G1 X120.125 Y54.816 E0.13779
G1 X120.369 Y53.335 E0.13779
G1 X120.710 Y51.872 E0.13779
G1 X121.146 Y50.435 E0.13779
G1 X121.675 Y49.029 E0.13779
G1 X122.295 Y47.661 E0.13779
G1 X123.003 Y46.337 E0.13779
G1 X123.796 Y45.062 E0.13779
G1 X124.671 Y43.841 E0.13779
G1 X125.624 Y42.680 E0.13779
G1 X126.650 Y41.584 E0.13779
G1 X127.746 Y40.557 E0.13779
G1 X128.907 Y39.604 E0.13779
G1 X130.128 Y38.730 E0.13779
G1 X131.403 Y37.937 E0.13779
G1 X132.728 Y37.229 E0.13779
G1 X134.096 Y36.609 E0.13779
G1 X135.501 Y36.080 E0.13779
G1 X136.939 Y35.644 E0.13779
G1 X138.401 Y35.303 E0.13779
G1 X139.883 Y35.058 E0.13783
G1 X141.424 Y34.909 E0.14199
G1 X142.878 Y34.862 E0.13355 F900.000
G1 X144.380 Y34.911 E0.13779
G1 X145.874 Y35.058 E0.13779
G1 X147.356 Y35.303 E0.13779
G1 X148.818 Y35.644 E0.13779
G1 X150.256 Y36.080 E0.13779
G1 X151.661 Y36.609 E0.13779
G1 X153.029 Y37.229 E0.13779
G1 X154.354 Y37.937 E0.13779
G1 X155.629 Y38.730 E0.13779
G1 X156.850 Y39.604 E0.13779
G1 X158.011 Y40.557 E0.13783
G1 X159.138 Y41.618 E0.14199
G1 X160.133 Y42.680 E0.13355
G1 X161.086 Y43.841 E0.13779
G1 X161.961 Y45.062 E0.13779
G1 X162.754 Y46.337 E0.13779
G1 X163.462 Y47.661 E0.13779
G1 X164.082 Y49.029 E0.13779
G1 X164.611 Y50.435 E0.13779
G1 X165.047 Y51.872 E0.13779
G1 X165.388 Y53.335 E0.13779
G1 X165.632 Y54.816 E0.13779
G1 X165.780 Y56.311 E0.13779
G1 X165.829 Y57.812 E0.13779
G1 X165.780 Y59.313 E0.13779
G1 X165.632 Y60.808 E0.13779
G1 X165.388 Y62.289 E0.13779
G1 X165.047 Y63.752 E0.13779
G1 X164.611 Y65.189 E0.13779
G1 X164.082 Y66.595 E0.13779
G1 X163.462 Y67.963 E0.13779
G1 X162.754 Y69.288 E0.13783
G1 X161.934 Y70.600 E0.14199
G1 X161.086 Y71.783 E0.13355
G1 X160.133 Y72.944 E0.13779
G1 X159.107 Y74.040 E0.13779
G1 X158.011 Y75.067 E0.13779
G1 X156.849 Y76.020 E0.13783
G1 X155.590 Y76.919 E0.14199
G1 X154.354 Y77.688 E0.13355
G1 X153.029 Y78.395 E0.13779
G1 X151.661 Y79.015 E0.13779
G1 X150.256 Y79.544 E0.13779
G1 X148.818 Y79.980 E0.13779
G1 X147.356 Y80.321 E0.13779
G1 X145.920 Y80.558 E0.13355
G1 X144.380 Y80.713 E0.14199
G1 X142.878 Y80.762 E0.13783
G1 X141.377 Y80.713 E0.13779
G1 X139.883 Y80.566 E0.13779
G1 X138.401 Y80.321 E0.13779
G1 X136.938 Y79.980 E0.13779
G1 X135.501 Y79.544 E0.13779
G1 X134.096 Y79.015 E0.13779
G1 X132.728 Y78.395 E0.13779
G1 X131.403 Y77.687 E0.13783
G1 X130.090 Y76.868 E0.14199
G1 X128.907 Y76.020 E0.13355
G1 X127.746 Y75.067 E0.13779
G1 X126.650 Y74.040 E0.13779
G1 X126.188 Y73.547 E0.06202
G1 X125.650 Y73.606 F9000.000
G1 X139.222 Y84.155 F9000.000
G1 X146.535 Y84.155 E0.67104 F900.000
G1 X146.535 Y91.469 E0.67104
G1 X139.222 Y91.469 E0.67104
G1 X139.222 Y84.230 E0.66416
G1 X139.957 Y84.891 F9000.000
G1 X145.800 Y84.891 E0.53605 F900.000
G1 X145.800 Y90.733 E0.53605
G1 X139.957 Y90.733 E0.53605
G1 X139.957 Y84.966 E0.52917
G1 X140.693 Y85.626 F9000.000
G1 X145.064 Y85.626 E0.40106 F900.000
G1 X145.064 Y89.998 E0.40106
G1 X140.693 Y89.998 E0.40106
G1 X140.693 Y85.701 E0.39418
G1 X141.428 Y86.362 F9000.000
G1 X144.328 Y86.362 E0.26608 F900.000
G1 X144.328 Y89.262 E0.26608
G1 X141.428 Y89.262 E0.26608
G1 X141.428 Y86.437 E0.25920
G1 X141.428 Y85.862 F9000.000
G1 X140.828 Y85.762 F9000.000
G1 X124.111 Y74.253 F9000.000
G1 X115.278 Y69.024 F9000.000
G1 X114.928 Y65.229 F9000.000
G1 X116.394 Y62.966 F9000.000
G1 X116.439 Y62.879 F9000.000
G1 X117.023 Y61.300 F9000.000
G1 X116.535 Y61.469 F9000.000
G1 X109.222 Y61.469 E0.67104 F900.000
G1 X109.222 Y54.155 E0.67104
G1 X116.535 Y54.155 E0.67104
G1 X116.535 Y61.394 E0.66416
G1 X115.800 Y60.733 F9000.000
G1 X109.957 Y60.733 E0.53605 F900.000
G1 X109.957 Y54.891 E0.53605
G1 X115.800 Y54.891 E0.53605
G1 X115.800 Y60.658 E0.52917
G1 X115.064 Y59.998 F9000.000
G1 X110.693 Y59.998 E0.40106 F900.000
