; generated by Slic3r 1.2.9 on 2017-09-11 at 12:24:31

; external perimeters extrusion width = 0.50mm
; perimeters extrusion width = 0.50mm
; infill extrusion width = 0.50mm
; solid infill extrusion width = 0.50mm
; top infill extrusion width = 0.50mm

M107
M190 S57 ; set bed temperature
G28 ; home all axes
M83;
G10 P0 S195 R160                       ; Set tool 0 operating and standby temperatures
T0

G21 ; set units to millimeters
G90 ; use absolute coordinates
M83 ; use relative distances for extrusion
G1 E-3.50000 F2400.00000
G1 Z0.300 F9000.000
G1 X78.555 Y45.354 F9000.000
G1 E3.50000 F2400.00000
G1 X95.565 Y15.891 E3.12141 F600.000
G1 X96.742 Y14.641 E0.15755
G1 X98.800 Y14.023 E0.19713
G1 X101.200 Y14.023 E0.22020
G1 X102.871 Y14.418 E0.15755 F600.000
G1 X104.435 Y15.891 E0.19713
G1 X198.189 Y178.276 E17.20382
G1 X198.682 Y179.921 E0.15755
G1 X198.189 Y182.012 E0.19713
G1 X196.989 Y184.091 E0.22020
G1 X195.811 Y185.340 E0.15755
G1 X193.753 Y185.958 E0.19713
G1 X6.247 Y185.959 E17.20385
G1 X4.575 Y185.564 E0.15755
G1 X3.011 Y184.091 E0.19713
G1 X1.811 Y182.012 E0.22022
G1 X1.318 Y180.367 E0.15755
G1 X1.811 Y178.277 E0.19712
G1 X78.517 Y45.419 E14.07556
G1 E-3.50000 F2400.00000
G1 X96.328 Y113.006 F9000.000
G1 E3.50000 F2400.00000
G1 X97.232 Y112.795 E0.08517 F450.000
G1 X98.148 Y112.644 E0.08517
G1 X99.072 Y112.553 E0.08517
G1 X99.896 Y112.526 E0.07566 F450.000
G1 X100.924 Y112.552 E0.09431
G1 X101.852 Y112.644 E0.08553
G1 X102.768 Y112.795 E0.08517
G1 X103.672 Y113.006 E0.08517
G1 X104.461 Y113.245 E0.07566
G1 X105.425 Y113.601 E0.09431
G1 X106.274 Y113.985 E0.08553
G1 X107.093 Y114.423 E0.08518
G1 X107.881 Y114.913 E0.08517
G1 X108.636 Y115.454 E0.08517
G1 X109.354 Y116.043 E0.08517
G1 X110.031 Y116.677 E0.08517
G1 X110.666 Y117.355 E0.08517
G1 X111.189 Y117.992 E0.07566
G1 X111.793 Y118.824 E0.09431
G1 X112.286 Y119.616 E0.08553
G1 X112.723 Y120.434 E0.08517
G1 X113.106 Y121.280 E0.08517
G1 X113.433 Y122.149 E0.08517
G1 X113.703 Y123.037 E0.08517
G1 X113.914 Y123.941 E0.08517
G1 X114.065 Y124.857 E0.08517
G1 X114.156 Y125.781 E0.08517
G1 X114.186 Y126.709 E0.08518
G1 X114.156 Y127.636 E0.08517
G1 X114.075 Y128.457 E0.07566
G1 X113.915 Y129.472 E0.09431
G1 X113.703 Y130.380 E0.08553
G1 X113.464 Y131.169 E0.07566
G1 X113.108 Y132.134 E0.09431
G1 X112.723 Y132.983 E0.08553
G1 X112.286 Y133.802 E0.08518
G1 X111.795 Y134.590 E0.08517
G1 X111.255 Y135.345 E0.08517
G1 X110.666 Y136.062 E0.08517
G1 X110.031 Y136.740 E0.08517
G1 X109.354 Y137.374 E0.08517
G1 X108.636 Y137.963 E0.08517
G1 X107.882 Y138.504 E0.08517
G1 X107.093 Y138.994 E0.08517
G1 X106.274 Y139.432 E0.08517
G1 X105.429 Y139.815 E0.08517
G1 X104.560 Y140.142 E0.08517
G1 X103.672 Y140.412 E0.08517
G1 X102.768 Y140.622 E0.08518
G1 X101.852 Y140.774 E0.08517
G1 X100.928 Y140.865 E0.08517
G1 X100.000 Y140.895 E0.08517
G1 X99.072 Y140.865 E0.08518
G1 X98.148 Y140.774 E0.08517
G1 X97.232 Y140.622 E0.08517
G1 X96.328 Y140.412 E0.08517
G1 X95.539 Y140.172 E0.07566
G1 X94.575 Y139.817 E0.09431
G1 X93.726 Y139.432 E0.08553
G1 X92.907 Y138.994 E0.08517
G1 X92.119 Y138.504 E0.08517
G1 X91.364 Y137.963 E0.08517
G1 X90.646 Y137.374 E0.08517
G1 X89.969 Y136.740 E0.08517
G1 X89.334 Y136.062 E0.08517
G1 X88.745 Y135.345 E0.08518
G1 X88.205 Y134.590 E0.08517
G1 X87.714 Y133.802 E0.08517
G1 X87.277 Y132.983 E0.08517
G1 X86.894 Y132.137 E0.08517
G1 X86.567 Y131.269 E0.08517
G1 X86.297 Y130.380 E0.08517
G1 X86.086 Y129.476 E0.08518
G1 X85.935 Y128.560 E0.08517
G1 X85.844 Y127.636 E0.08517
G1 X85.814 Y126.709 E0.08517
G1 X85.844 Y125.781 E0.08517
G1 X85.925 Y124.960 E0.07566
G1 X86.085 Y123.945 E0.09431
G1 X86.297 Y123.037 E0.08553
G1 X86.567 Y122.149 E0.08517
G1 X86.894 Y121.280 E0.08517
G1 X87.277 Y120.434 E0.08517
G1 X87.714 Y119.616 E0.08517
G1 X88.205 Y118.827 E0.08517
G1 X88.745 Y118.073 E0.08517
G1 X89.334 Y117.355 E0.08517
G1 X89.969 Y116.677 E0.08517
G1 X90.646 Y116.043 E0.08517
G1 X91.364 Y115.454 E0.08517
G1 X92.119 Y114.913 E0.08517
G1 X92.907 Y114.423 E0.08517
G1 X93.726 Y113.985 E0.08517
G1 X94.571 Y113.602 E0.08517
G1 X95.440 Y113.275 E0.08517
G1 X96.257 Y113.028 E0.07829
G1 X96.519 Y113.717 F9000.000
G1 X97.376 Y113.517 E0.08076 F450.000
G1 X98.244 Y113.373 E0.08076
G1 X99.120 Y113.287 E0.08075
G1 X99.899 Y113.262 E0.07147 F450.000
G1 X100.878 Y113.287 E0.08989
G1 X101.756 Y113.373 E0.08088
G1 X102.624 Y113.517 E0.08075
G1 X103.481 Y113.717 E0.08075
G1 X104.227 Y113.943 E0.07147
G1 X105.146 Y114.282 E0.08989
G1 X105.949 Y114.646 E0.08088
G1 X106.725 Y115.060 E0.08076
G1 X107.473 Y115.525 E0.08075
G1 X108.188 Y116.038 E0.08076
G1 X108.868 Y116.596 E0.08075
G1 X109.511 Y117.198 E0.08075
G1 X110.112 Y117.840 E0.08076
G1 X110.607 Y118.442 E0.07147
G1 X111.183 Y119.235 E0.08989
G1 X111.648 Y119.984 E0.08088
G1 X112.063 Y120.760 E0.08076
G1 X112.426 Y121.561 E0.08075
G1 X112.736 Y122.385 E0.08076
G1 X112.992 Y123.227 E0.08075
G1 X113.192 Y124.085 E0.08076
G1 X113.335 Y124.953 E0.08075
G1 X113.421 Y125.829 E0.08075
G1 X113.450 Y126.709 E0.08076
G1 X113.421 Y127.588 E0.08075
G1 X113.345 Y128.364 E0.07147
G1 X113.192 Y129.331 E0.08989
G1 X112.992 Y130.190 E0.08088
G1 X112.766 Y130.935 E0.07147
G1 X112.427 Y131.855 E0.08989
G1 X112.063 Y132.658 E0.08088
G1 X111.648 Y133.434 E0.08076
G1 X111.184 Y134.181 E0.08075
G1 X110.671 Y134.897 E0.08076
G1 X110.112 Y135.577 E0.08076
G1 X109.511 Y136.219 E0.08076
G1 X108.868 Y136.821 E0.08076
G1 X108.188 Y137.379 E0.08075
G1 X107.473 Y137.892 E0.08076
G1 X106.725 Y138.357 E0.08075
G1 X105.949 Y138.772 E0.08076
G1 X105.147 Y139.135 E0.08075
G1 X104.323 Y139.445 E0.08075
G1 X103.481 Y139.701 E0.08075
G1 X102.624 Y139.900 E0.08076
G1 X101.756 Y140.044 E0.08075
G1 X100.880 Y140.130 E0.08076
G1 X100.000 Y140.159 E0.08075
G1 X99.120 Y140.130 E0.08076
G1 X98.244 Y140.044 E0.08076
G1 X97.376 Y139.900 E0.08076
G1 X96.519 Y139.701 E0.08075
G1 X95.773 Y139.474 E0.07147
G1 X94.854 Y139.136 E0.08989
G1 X94.051 Y138.772 E0.08088
G1 X93.275 Y138.357 E0.08076
G1 X92.527 Y137.892 E0.08076
G1 X91.812 Y137.379 E0.08075
G1 X91.132 Y136.821 E0.08076
G1 X90.489 Y136.219 E0.08076
G1 X89.888 Y135.577 E0.08076
G1 X89.329 Y134.897 E0.08076
G1 X88.817 Y134.181 E0.08076
G1 X88.352 Y133.434 E0.08075
G1 X87.937 Y132.658 E0.08076
G1 X87.574 Y131.856 E0.08076
G1 X87.264 Y131.032 E0.08075
G1 X87.008 Y130.190 E0.08076
G1 X86.808 Y129.333 E0.08076
G1 X86.665 Y128.464 E0.08075
G1 X86.579 Y127.588 E0.08076
G1 X86.550 Y126.709 E0.08075
G1 X86.579 Y125.829 E0.08075
G1 X86.655 Y125.054 E0.07147
G1 X86.808 Y124.086 E0.08989
G1 X87.008 Y123.227 E0.08088
G1 X87.264 Y122.385 E0.08075
G1 X87.574 Y121.561 E0.08075
G1 X87.937 Y120.760 E0.08076
G1 X88.352 Y119.984 E0.08076
G1 X88.817 Y119.236 E0.08076
G1 X89.329 Y118.521 E0.08075
G1 X89.888 Y117.840 E0.08076
G1 X90.489 Y117.198 E0.08076
G1 X91.132 Y116.596 E0.08075
G1 X91.812 Y116.038 E0.08076
G1 X92.528 Y115.525 E0.08075
G1 X93.275 Y115.060 E0.08076
G1 X94.051 Y114.646 E0.08075
G1 X94.853 Y114.282 E0.08076
G1 X95.677 Y113.972 E0.08075
G1 X96.447 Y113.738 E0.07387
G1 X96.654 Y113.235 F9000.000
G1 X76.937 Y113.393 F9000.000
G1 X76.937 Y108.094 E0.48627 F450.000
G1 X98.686 Y78.093 E3.39974
G1 X98.686 Y48.894 E2.67902
G1 X101.315 Y48.894 E0.24119
G1 X101.315 Y78.093 E2.67902
G1 X123.063 Y108.093 E3.39972
G1 X123.063 Y113.393 E0.48627
G1 X127.653 Y116.043 E0.48627
G1 X142.759 Y149.878 E3.39972
G1 X168.046 Y164.477 E2.67902
G1 X166.732 Y166.754 E0.24119
G1 X141.445 Y152.155 E2.67902
G1 X104.590 Y155.989 E3.39974
G1 X100.000 Y153.339 E0.48627
G1 X95.410 Y155.989 E0.48628
G1 X58.555 Y152.155 E3.39971
G1 X33.268 Y166.754 E2.67902
G1 X31.954 Y164.478 E0.24119
G1 X57.241 Y149.878 E2.67902
G1 X72.347 Y116.043 E3.39971
G1 X76.872 Y113.431 E0.47939
G1 X76.202 Y112.969 F9000.000
G1 X76.202 Y107.855 E0.46920 F450.000
G1 X97.950 Y77.855 E3.39974
G1 X97.950 Y48.159 E2.72462
G1 X99.200 Y48.159 E0.11469
G1 X99.200 Y18.159 E2.75252
G1 X100.800 Y18.159 E0.14680
G1 X100.800 Y48.159 E2.75252
G1 X102.050 Y48.159 E0.11469
G1 X102.050 Y77.855 E2.72462
G1 X123.799 Y107.855 E3.39972
G1 X123.799 Y112.968 E0.46920
G1 X128.227 Y115.525 E0.46920
G1 X143.334 Y149.360 E3.39972
G1 X169.051 Y164.208 E2.72462
G1 X168.426 Y165.291 E0.11469
G1 X194.407 Y180.291 E2.75251
G1 X193.607 Y181.676 E0.14680
G1 X167.626 Y166.676 E2.75252
G1 X167.001 Y167.759 E0.11469
G1 X141.284 Y152.911 E2.72462
G1 X104.429 Y156.746 E3.39974
G1 X100.000 Y154.189 E0.46920
G1 X95.571 Y156.746 E0.46920
G1 X58.716 Y152.911 E3.39971
G1 X32.999 Y167.759 E2.72462
G1 X32.374 Y166.676 E0.11469
G1 X6.393 Y181.676 E2.75251
G1 X5.593 Y180.291 E0.14680
G1 X31.574 Y165.291 E2.75251
G1 X30.949 Y164.208 E0.11469
G1 X56.666 Y149.360 E2.72462
G1 X71.773 Y115.526 E3.39971
G1 X76.137 Y113.006 E0.46232
G1 X76.694 Y112.882 F9000.000
G1 X86.368 Y132.200 F9000.000
G1 X71.990 Y117.822 E1.87039 F450.000
G1 X72.312 Y117.101 E0.07264
G1 X85.857 Y130.646 E1.76213
G1 X85.578 Y129.324 E0.12432
G1 X72.634 Y116.380 E1.68391
G1 X73.264 Y115.967 E0.06929
G1 X85.425 Y128.128 E1.58206
G1 X85.370 Y127.030 E0.10117
G1 X73.925 Y115.585 E1.48883
G1 X74.587 Y115.203 E0.07024
G1 X85.392 Y126.009 E1.40574
G1 X85.479 Y125.053 E0.08832
G1 X75.248 Y114.822 E1.33101
G1 X75.909 Y114.440 E0.07024
G1 X85.621 Y124.152 E1.26342
G1 X85.808 Y123.296 E0.08060
G1 X76.570 Y114.058 E1.20173
G1 X77.232 Y113.676 E0.07024
G1 X86.037 Y122.481 E1.14547
G1 X86.302 Y121.704 E0.07558
G1 X77.386 Y112.788 E1.15987
G1 X77.386 Y111.745 E0.09595
G1 X86.601 Y120.960 E1.19875
G1 X86.930 Y120.246 E0.07230
G1 X77.386 Y110.702 E1.24161
G1 X77.386 Y109.659 E0.09595
G1 X87.294 Y119.566 E1.28888
G1 X87.688 Y118.918 E0.06982
G1 X77.386 Y108.616 E1.34022
G1 X77.622 Y107.809 E0.07737
G1 X88.109 Y118.295 E1.36425
G1 X88.554 Y117.698 E0.06857
G1 X78.060 Y107.204 E1.36515
G1 X78.499 Y106.599 E0.06870
G1 X89.024 Y117.125 E1.36929
G1 X89.528 Y116.585 E0.06788
G1 X78.937 Y105.995 E1.37778
G1 X79.375 Y105.390 E0.06870
G1 X90.055 Y116.070 E1.38934
G1 X90.606 Y115.577 E0.06795
G1 X79.814 Y104.785 E1.40395
G1 X80.252 Y104.181 E0.06870
G1 X91.180 Y115.109 E1.42167
G1 X91.788 Y114.673 E0.06876
G1 X80.691 Y103.576 E1.44369
G1 X81.129 Y102.971 E0.06870
G1 X92.422 Y114.265 E1.46918
G1 X93.083 Y113.882 E0.07021
G1 X81.567 Y102.367 E1.49808
G1 X82.006 Y101.762 E0.06870
G1 X93.771 Y113.527 E1.53056
G1 X94.489 Y113.202 E0.07249
G1 X82.444 Y101.157 E1.56692
G1 X82.882 Y100.553 E0.06870
G1 X95.246 Y112.916 E1.60843
G1 X96.038 Y112.665 E0.07640
G1 X83.321 Y99.948 E1.65438
G1 X83.759 Y99.343 E0.06870
G1 X96.867 Y112.451 E1.70524
G1 X97.739 Y112.280 E0.08172
G1 X84.197 Y98.739 E1.76161
G1 X84.636 Y98.134 E0.06870
G1 X98.659 Y112.157 E1.82426
G1 X99.635 Y112.090 E0.09001
G1 X85.074 Y97.529 E1.89424
G1 X85.512 Y96.925 E0.06870
G1 X100.681 Y112.093 E1.97325
G1 X101.802 Y112.171 E0.10345
G1 X85.951 Y96.320 E2.06216
G1 X86.389 Y95.715 E0.06870
G1 X103.029 Y112.355 E2.16470
G1 X104.429 Y112.712 E0.13287
G1 X86.828 Y95.111 E2.28976
G1 X87.266 Y94.506 E0.06870
G1 X106.077 Y113.317 E2.44713
G1 X108.360 Y114.557 F9000.000
G1 X87.704 Y93.901 E2.68719 F450.000
G1 X88.143 Y93.297 E0.06870
G1 X140.133 Y145.287 E6.76357
G1 X139.292 Y143.403 F9000.000
G1 X88.581 Y92.692 E6.59709 F450.000
G1 X89.019 Y92.087 E0.06870
G1 X138.451 Y141.518 E6.43062
G1 X137.609 Y139.634 F9000.000
G1 X89.458 Y91.483 E6.26415 F450.000
G1 X89.896 Y90.878 E0.06870
G1 X136.768 Y137.750 E6.09767
G1 X135.927 Y135.865 F9000.000
G1 X90.334 Y90.273 E5.93120 F450.000
G1 X90.773 Y89.669 E0.06870
G1 X135.085 Y133.981 E5.76473
G1 X134.244 Y132.097 F9000.000
G1 X91.211 Y89.064 E5.59825 F450.000
G1 X91.649 Y88.459 E0.06870
G1 X133.403 Y130.212 E5.43178
G1 X132.561 Y128.328 F9000.000
G1 X92.088 Y87.854 E5.26530 F450.000
G1 X92.526 Y87.250 E0.06870
G1 X131.720 Y126.444 E5.09883
G1 X130.879 Y124.559 F9000.000
G1 X92.965 Y86.645 E4.93236 F450.000
G1 X93.403 Y86.040 E0.06870
G1 X130.038 Y122.675 E4.76588
G1 X129.196 Y120.791 F9000.000
G1 X93.841 Y85.436 E4.59941 F450.000
G1 X94.280 Y84.831 E0.06870
G1 X122.614 Y113.165 E3.68607
G1 X122.614 Y112.122 E0.09595
G1 X94.718 Y84.226 E3.62905
G1 X95.156 Y83.622 E0.06870
G1 X122.614 Y111.079 E3.57202
G1 X122.614 Y110.036 E0.09595
G1 X95.595 Y83.017 E3.51499
G1 X96.033 Y82.412 E0.06870
G1 X122.614 Y108.993 E3.45797
G1 X121.309 Y106.645 F9000.000
G1 X96.471 Y81.808 E3.23111 F450.000
G1 X96.910 Y81.203 E0.06870
G1 X118.559 Y102.853 E2.81644
G1 X115.810 Y99.060 F9000.000
G1 X97.348 Y80.598 E2.40176 F450.000
G1 X97.786 Y79.994 E0.06870
G1 X113.061 Y95.268 E1.98708
G1 X110.312 Y91.476 F9000.000
G1 X98.225 Y79.389 E1.57240 F450.000
G1 X98.663 Y78.784 E0.06870
G1 X107.562 Y87.684 E1.15773
G1 X104.813 Y83.891 F9000.000
G1 X99.102 Y78.180 E0.74305 F450.000
G1 X99.135 Y77.170 F9000.000
G1 X102.064 Y80.099 E0.38105 F450.000
G1 X100.865 Y77.857 F9000.000
G1 X99.135 Y76.127 E0.22511 F450.000
G1 X99.135 Y75.084 E0.09595
G1 X100.865 Y76.814 E0.22511
G1 X100.865 Y75.771 E0.09595
G1 X99.135 Y74.041 E0.22511
G1 X99.135 Y72.998 E0.09595
G1 X100.865 Y74.728 E0.22511
G1 X100.865 Y73.685 E0.09595
G1 X99.135 Y71.955 E0.22511
G1 X99.135 Y70.912 E0.09595
G1 X100.865 Y72.642 E0.22511
G1 X100.865 Y71.599 E0.09595
G1 X99.135 Y69.869 E0.22511
G1 X99.135 Y68.826 E0.09595
G1 X100.865 Y70.556 E0.22511
G1 X100.865 Y69.513 E0.09595
G1 X99.135 Y67.783 E0.22511
G1 X99.135 Y66.740 E0.09595
G1 X100.865 Y68.470 E0.22510
G1 X100.865 Y67.427 E0.09595
G1 X99.135 Y65.697 E0.22510
G1 X99.135 Y64.654 E0.09595
G1 X100.865 Y66.384 E0.22510
G1 X100.865 Y65.341 E0.09595
G1 X99.135 Y63.611 E0.22510
G1 X99.135 Y62.568 E0.09595
G1 X100.865 Y64.298 E0.22510
G1 X100.865 Y63.255 E0.09595
G1 X99.135 Y61.525 E0.22510
G1 X99.135 Y60.482 E0.09595
G1 X100.865 Y62.212 E0.22510
G1 X100.865 Y61.169 E0.09595
G1 X99.135 Y59.439 E0.22510
G1 X99.135 Y58.396 E0.09595
G1 X100.865 Y60.126 E0.22510
G1 X100.865 Y59.083 E0.09595
G1 X99.135 Y57.353 E0.22510
G1 X99.135 Y56.310 E0.09595
G1 X100.865 Y58.040 E0.22510
G1 X100.865 Y56.997 E0.09595
G1 X99.135 Y55.267 E0.22510
G1 X99.135 Y54.224 E0.09595
G1 X100.865 Y55.954 E0.22510
G1 X100.865 Y54.911 E0.09595
G1 X99.135 Y53.181 E0.22510
G1 X99.135 Y52.138 E0.09595
G1 X100.865 Y53.868 E0.22510
G1 X100.865 Y52.825 E0.09595
G1 X99.135 Y51.094 E0.22510
G1 X99.135 Y50.051 E0.09595
G1 X100.865 Y51.782 E0.22510
G1 X100.865 Y50.739 E0.09595
G1 X99.470 Y49.344 E0.18149
G1 X100.513 Y49.344 E0.09595
G1 X100.865 Y49.696 E0.04581
G1 X101.340 Y99.825 F9000.000
G1 X110.990 Y106.489 F9000.000
G1 X114.434 Y109.845 F9000.000
G1 X115.531 Y111.532 F9000.000
G1 X116.072 Y112.924 F9000.000
G1 X116.212 Y113.315 F9000.000
G1 X123.199 Y113.315 F9000.000
G1 X124.037 Y114.588 F9000.000
G1 X128.355 Y118.906 E0.56177 F450.000
G1 X127.514 Y117.022 F9000.000
G1 X126.505 Y116.013 E0.13128 F450.000
G1 X113.392 Y120.632 F9000.000
G1 X141.816 Y149.056 E3.69771 F450.000
G1 X140.975 Y147.171 F9000.000
G1 X112.151 Y118.348 E3.74965 F450.000
G1 X121.827 Y141.784 F9000.000
G1 X104.400 Y147.602 F9000.000
G1 X97.057 Y147.356 F9000.000
G1 X93.679 Y147.865 F9000.000
G1 X93.135 Y147.755 F9000.000
G1 X91.711 Y147.428 F9000.000
G1 X94.623 Y139.690 F9000.000
G1 X94.506 Y140.338 F9000.000
G1 X109.237 Y155.069 E1.91648 F450.000
G1 X110.182 Y154.971 E0.08737
G1 X96.062 Y140.851 E1.83688
G1 X97.385 Y141.131 E0.12432
G1 X111.127 Y154.873 E1.78775
G1 X112.072 Y154.775 E0.08737
G1 X98.581 Y141.284 E1.75506
G1 X99.679 Y141.339 E0.10117
G1 X113.016 Y154.676 E1.73507
G1 X113.961 Y154.578 E0.08737
G1 X100.700 Y141.316 E1.72522
G1 X101.656 Y141.230 E0.08832
G1 X114.906 Y154.480 E1.72373
G1 X115.851 Y154.381 E0.08737
G1 X102.558 Y141.089 E1.72928
G1 X103.413 Y140.901 E0.08055
G1 X116.795 Y154.283 E1.74092
G1 X117.740 Y154.185 E0.08737
G1 X104.227 Y140.672 E1.75789
G1 X105.005 Y140.407 E0.07558
G1 X118.685 Y154.086 E1.77965
G1 X119.629 Y153.988 E0.08737
G1 X105.749 Y140.108 E1.80574
G1 X106.463 Y139.778 E0.07230
G1 X120.574 Y153.890 E1.83582
G1 X121.519 Y153.792 E0.08737
G1 X107.142 Y139.415 E1.87029
G1 X107.791 Y139.020 E0.06982
G1 X122.464 Y153.693 E1.90885
G1 X123.408 Y153.595 E0.08737
G1 X108.413 Y138.600 E1.95076
G1 X109.011 Y138.155 E0.06857
G1 X124.353 Y153.497 E1.99589
