; generated by Slic3r 1.2.9 on 2017-09-26 at 23:30:55

; external perimeters extrusion width = 0.50mm
; perimeters extrusion width = 0.50mm
; infill extrusion width = 0.50mm
; solid infill extrusion width = 0.50mm
; top infill extrusion width = 0.50mm

M107
M190 S57 ; set bed temperature
G28 ; home all axes
M83;
G10 P0 S195 R160                       ; Set tool 0 operating and standby temperatures
T0

G21 ; set units to millimeters
G90 ; use absolute coordinates
M83 ; use relative distances for extrusion
G1 E-3.50000 F2400.00000
G1 Z0.300 F9000.000
G1 X7.689 Y7.689 F9000.000
G1 E3.50000 F2400.00000
G1 X11.140 Y4.238 E0.44779 F1200.000
G1 X12.999 Y2.941 E0.20795
G1 X15.191 Y2.364 E0.20795
G1 X17.391 Y2.563 E0.20271
G1 X178.639 Y45.769 E15.31650 F1200.000
G1 X180.692 Y46.730 E0.20795
G1 X182.288 Y48.340 E0.20795
G1 X183.215 Y50.345 E0.20271
G1 X185.519 Y58.942 E0.81658
G1 X185.672 Y59.688 E0.06991
G1 X196.583 Y134.939 E6.97650
G1 X196.933 Y138.421 E0.32109
G1 X196.961 Y138.844 E0.03885
G1 X197.065 Y142.469 E0.33274
G1 X196.961 Y145.670 E0.29389
G1 X196.619 Y149.280 E0.33273
G1 X196.533 Y149.888 E0.05634
G1 X195.959 Y153.276 E0.31524
G1 X195.232 Y156.395 E0.29390
G1 X194.192 Y159.870 E0.33273
G1 X192.928 Y163.269 E0.33273
G1 X192.766 Y163.660 E0.03886
G1 X191.257 Y166.957 E0.33272
G1 X189.535 Y170.149 E0.33274
G1 X187.843 Y172.869 E0.29390
G1 X185.742 Y175.825 E0.33273
G1 X185.364 Y176.308 E0.05634
G1 X183.173 Y178.955 E0.31523
G1 X180.984 Y181.293 E0.29390
G1 X178.346 Y183.782 E0.33273
G1 X178.028 Y184.062 E0.03885
G1 X175.216 Y186.351 E0.33273
G1 X172.612 Y188.217 E0.29390
G1 X169.540 Y190.144 E0.33273
G1 X166.348 Y191.866 E0.33273
G1 X165.968 Y192.053 E0.03885
G1 X163.051 Y193.375 E0.29389
G1 X159.662 Y194.665 E0.33273
G1 X159.261 Y194.802 E0.03885
G1 X155.786 Y195.841 E0.33272
G1 X152.667 Y196.568 E0.29391
G1 X149.091 Y197.173 E0.33273
G1 X145.484 Y197.542 E0.33273
G1 X141.859 Y197.675 E0.33274
G1 X141.436 Y197.675 E0.03886
G1 X137.812 Y197.542 E0.33273
G1 X134.212 Y197.174 E0.33200
G1 X60.180 Y185.045 E6.88306
G1 X59.551 Y184.909 E0.05899
G1 X50.955 Y182.606 E0.81658
G1 X49.735 Y182.143 E0.11964
G1 X47.917 Y180.790 E0.20795
G1 X46.379 Y178.030 E0.28993
G1 X3.172 Y16.782 E15.31647
G1 X2.978 Y14.524 E0.20795
G1 X3.575 Y12.337 E0.20795
G1 X4.847 Y10.531 E0.20270
G1 X7.636 Y7.742 E0.36190
G1 X8.209 Y8.209 F9000.000
G1 X11.661 Y4.758 E0.44779 F1200.000
G1 X13.423 Y3.557 E0.19568
G1 X15.502 Y3.082 E0.19568
G1 X17.201 Y3.274 E0.15685
G1 X178.449 Y46.480 E15.31650 F1200.000
G1 X180.371 Y47.405 E0.19568
G1 X181.821 Y48.969 E0.19568
G1 X182.505 Y50.535 E0.15685
G1 X184.808 Y59.132 E0.81658
G1 X184.944 Y59.794 E0.06196
G1 X195.855 Y135.045 E6.97650
G1 X196.225 Y138.868 E0.35241
G1 X196.330 Y142.445 E0.32832
G1 X196.201 Y146.020 E0.32831
G1 X195.887 Y149.208 E0.29390
G1 X195.243 Y153.109 E0.36273
G1 X194.515 Y156.228 E0.29390
G1 X193.488 Y159.656 E0.32832
G1 X192.096 Y163.356 E0.36273
G1 X190.608 Y166.610 E0.32831
G1 X188.910 Y169.761 E0.32832
G1 X187.219 Y172.481 E0.29390
G1 X185.144 Y175.397 E0.32832
G1 X182.636 Y178.453 E0.36273
G1 X180.447 Y180.790 E0.29390
G1 X177.843 Y183.246 E0.32831
G1 X174.787 Y185.754 E0.36273
G1 X172.184 Y187.619 E0.29390
G1 X169.151 Y189.519 E0.32831
G1 X165.665 Y191.383 E0.36273
G1 X162.747 Y192.705 E0.29390
G1 X159.403 Y193.977 E0.32831
G1 X155.619 Y195.125 E0.36272
G1 X152.500 Y195.852 E0.29390
G1 X148.971 Y196.447 E0.32831
G1 X145.037 Y196.834 E0.36273
G1 X141.460 Y196.939 E0.32833
G1 X137.884 Y196.810 E0.32831
G1 X134.331 Y196.448 E0.32767
G1 X60.299 Y184.319 E6.88306
G1 X59.742 Y184.199 E0.05229
G1 X51.145 Y181.895 E0.81658
G1 X50.064 Y181.485 E0.10604
G1 X48.367 Y180.193 E0.19568
G1 X47.089 Y177.840 E0.24575
G1 X3.883 Y16.592 E15.31647
G1 X3.724 Y14.465 E0.19568
G1 X4.352 Y12.427 E0.19568
G1 X5.367 Y11.052 E0.15685
G1 X8.156 Y8.262 E0.36190
G1 E-3.50000 F2400.00000
G1 X71.466 Y70.857 F9000.000
G1 E3.50000 F2400.00000
G1 X72.214 Y70.156 E0.09401 F900.000
G1 X73.006 Y69.506 E0.09401
G1 X73.839 Y68.909 E0.09401
G1 X74.709 Y68.368 E0.09401
G1 X75.612 Y67.885 E0.09401
G1 X76.546 Y67.462 E0.09402
G1 X77.505 Y67.101 E0.09401
G1 X78.485 Y66.804 E0.09401
G1 X79.483 Y66.571 E0.09401
G1 X80.496 Y66.404 E0.09417
G1 X81.533 Y66.303 E0.09558
G1 X82.538 Y66.270 E0.09228 F900.000
G1 X83.562 Y66.304 E0.09401
G1 X84.582 Y66.404 E0.09401
G1 X85.593 Y66.571 E0.09401
G1 X86.591 Y66.804 E0.09401
G1 X87.571 Y67.101 E0.09401
G1 X88.530 Y67.462 E0.09401
G1 X89.463 Y67.885 E0.09401
G1 X90.367 Y68.368 E0.09401
G1 X91.237 Y68.909 E0.09401
G1 X92.070 Y69.506 E0.09401
G1 X92.867 Y70.160 E0.09457
G1 X93.659 Y70.909 E0.10000
G1 X94.310 Y71.604 E0.08745
G1 X94.960 Y72.396 E0.09401
G1 X95.557 Y73.229 E0.09401
G1 X96.098 Y74.099 E0.09401
G1 X96.581 Y75.003 E0.09401
G1 X97.004 Y75.936 E0.09401
G1 X97.365 Y76.895 E0.09401
G1 X97.663 Y77.876 E0.09401
G1 X97.895 Y78.874 E0.09401
G1 X98.062 Y79.885 E0.09401
G1 X98.163 Y80.904 E0.09401
G1 X98.196 Y81.928 E0.09401
G1 X98.163 Y82.953 E0.09401
G1 X98.062 Y83.972 E0.09401
G1 X97.895 Y84.983 E0.09401
G1 X97.663 Y85.981 E0.09401
G1 X97.365 Y86.962 E0.09402
G1 X97.004 Y87.921 E0.09401
G1 X96.581 Y88.854 E0.09401
G1 X96.096 Y89.763 E0.09457
G1 X95.516 Y90.686 E0.10000
G1 X94.960 Y91.461 E0.08745
G1 X94.307 Y92.257 E0.09457
G1 X93.558 Y93.050 E0.10001
G1 X92.862 Y93.701 E0.08745
G1 X92.070 Y94.351 E0.09401
G1 X91.237 Y94.948 E0.09401
G1 X90.367 Y95.489 E0.09401
G1 X89.463 Y95.972 E0.09401
G1 X88.530 Y96.395 E0.09401
G1 X87.571 Y96.756 E0.09401
G1 X86.591 Y97.053 E0.09401
G1 X85.593 Y97.286 E0.09401
G1 X84.582 Y97.453 E0.09401
G1 X83.562 Y97.553 E0.09401
G1 X82.538 Y97.587 E0.09401
G1 X81.514 Y97.553 E0.09401
G1 X80.494 Y97.453 E0.09401
G1 X79.483 Y97.286 E0.09401
G1 X78.485 Y97.053 E0.09401
G1 X77.505 Y96.756 E0.09401
G1 X76.546 Y96.395 E0.09401
G1 X75.612 Y95.972 E0.09401
G1 X74.709 Y95.489 E0.09401
G1 X73.839 Y94.948 E0.09401
G1 X73.006 Y94.351 E0.09401
G1 X72.214 Y93.701 E0.09402
G1 X71.466 Y93.001 E0.09401
G1 X70.765 Y92.253 E0.09401
G1 X70.112 Y91.456 E0.09457
G1 X69.481 Y90.567 E0.10001
G1 X68.977 Y89.758 E0.08745
G1 X68.494 Y88.854 E0.09401
G1 X68.072 Y87.921 E0.09401
G1 X67.711 Y86.962 E0.09401
G1 X67.413 Y85.981 E0.09401
G1 X67.181 Y84.983 E0.09401
G1 X67.014 Y83.972 E0.09401
G1 X66.913 Y82.947 E0.09457
G1 X66.882 Y81.857 E0.10001
G1 X66.913 Y80.904 E0.08745
G1 X67.014 Y79.885 E0.09401
G1 X67.181 Y78.874 E0.09401
G1 X67.413 Y77.876 E0.09401
G1 X67.711 Y76.895 E0.09401
G1 X68.072 Y75.936 E0.09401
G1 X68.494 Y75.003 E0.09401
G1 X68.977 Y74.099 E0.09401
G1 X69.519 Y73.229 E0.09401
G1 X70.115 Y72.396 E0.09401
G1 X70.765 Y71.604 E0.09401
G1 X71.415 Y70.911 E0.08713
G1 X71.986 Y71.377 F9000.000
G1 X72.699 Y70.709 E0.08959 F900.000
G1 X73.454 Y70.090 E0.08959
G1 X74.248 Y69.521 E0.08959
G1 X75.077 Y69.006 E0.08959
G1 X75.938 Y68.545 E0.08959
G1 X76.827 Y68.142 E0.08960
G1 X77.741 Y67.798 E0.08959
G1 X78.676 Y67.515 E0.08959
G1 X79.627 Y67.293 E0.08959
G1 X80.591 Y67.134 E0.08970
G1 X81.580 Y67.038 E0.09116
G1 X82.538 Y67.006 E0.08791 F900.000
G1 X83.514 Y67.038 E0.08960
G1 X84.486 Y67.134 E0.08959
G1 X85.449 Y67.293 E0.08959
G1 X86.400 Y67.515 E0.08959
G1 X87.334 Y67.798 E0.08959
G1 X88.248 Y68.142 E0.08959
G1 X89.138 Y68.545 E0.08959
G1 X89.999 Y69.005 E0.08959
G1 X90.828 Y69.521 E0.08959
G1 X91.622 Y70.090 E0.08959
G1 X92.380 Y70.712 E0.09000
G1 X93.137 Y71.428 E0.09559
G1 X93.757 Y72.090 E0.08319
G1 X94.377 Y72.844 E0.08959
G1 X94.945 Y73.638 E0.08959
G1 X95.461 Y74.467 E0.08959
G1 X95.921 Y75.329 E0.08959
G1 X96.324 Y76.218 E0.08959
G1 X96.668 Y77.132 E0.08959
G1 X96.952 Y78.066 E0.08959
G1 X97.173 Y79.017 E0.08959
G1 X97.333 Y79.981 E0.08959
G1 X97.428 Y80.953 E0.08959
G1 X97.460 Y81.929 E0.08959
G1 X97.428 Y82.904 E0.08959
G1 X97.333 Y83.876 E0.08959
G1 X97.173 Y84.840 E0.08959
G1 X96.952 Y85.791 E0.08959
G1 X96.668 Y86.725 E0.08960
G1 X96.324 Y87.639 E0.08959
G1 X95.921 Y88.528 E0.08959
G1 X95.459 Y89.393 E0.08999
G1 X94.905 Y90.276 E0.09558
G1 X94.377 Y91.013 E0.08319
G1 X93.754 Y91.771 E0.08999
G1 X93.039 Y92.528 E0.09559
G1 X92.377 Y93.148 E0.08319
G1 X91.622 Y93.767 E0.08959
G1 X90.828 Y94.336 E0.08959
G1 X89.999 Y94.852 E0.08959
G1 X89.138 Y95.312 E0.08959
G1 X88.248 Y95.715 E0.08959
G1 X87.335 Y96.059 E0.08959
G1 X86.400 Y96.342 E0.08959
G1 X85.449 Y96.564 E0.08959
G1 X84.486 Y96.723 E0.08959
G1 X83.514 Y96.819 E0.08959
G1 X82.538 Y96.851 E0.08959
G1 X81.562 Y96.819 E0.08959
G1 X80.590 Y96.723 E0.08959
G1 X79.627 Y96.564 E0.08959
G1 X78.676 Y96.342 E0.08959
G1 X77.741 Y96.059 E0.08959
G1 X76.827 Y95.715 E0.08959
G1 X75.938 Y95.312 E0.08959
G1 X75.077 Y94.852 E0.08959
G1 X74.248 Y94.336 E0.08959
G1 X73.454 Y93.767 E0.08959
G1 X72.699 Y93.148 E0.08960
G1 X71.986 Y92.480 E0.08959
G1 X71.319 Y91.767 E0.08959
G1 X70.697 Y91.009 E0.08999
G1 X70.094 Y90.160 E0.09559
G1 X69.615 Y89.390 E0.08319
G1 X69.155 Y88.529 E0.08959
G1 X68.752 Y87.639 E0.08959
G1 X68.408 Y86.725 E0.08959
G1 X68.124 Y85.791 E0.08959
G1 X67.902 Y84.840 E0.08960
G1 X67.743 Y83.876 E0.08959
G1 X67.647 Y82.900 E0.08999
G1 X67.618 Y81.859 E0.09559
G1 X67.648 Y80.953 E0.08319
G1 X67.743 Y79.981 E0.08959
G1 X67.902 Y79.017 E0.08960
G1 X68.124 Y78.066 E0.08959
G1 X68.408 Y77.132 E0.08959
G1 X68.752 Y76.218 E0.08959
G1 X69.155 Y75.329 E0.08959
G1 X69.615 Y74.467 E0.08959
G1 X70.131 Y73.638 E0.08959
G1 X70.699 Y72.844 E0.08959
G1 X71.319 Y72.090 E0.08959
G1 X71.935 Y71.432 E0.08271
G1 X72.507 Y71.897 F9000.000
G1 X73.184 Y71.263 E0.08517 F900.000
G1 X73.902 Y70.674 E0.08518
G1 X74.656 Y70.133 E0.08517
G1 X75.445 Y69.643 E0.08517
G1 X76.263 Y69.205 E0.08517
G1 X77.109 Y68.822 E0.08518
G1 X77.978 Y68.495 E0.08517
G1 X78.866 Y68.226 E0.08517
G1 X79.770 Y68.015 E0.08517
G1 X80.687 Y67.864 E0.08524
G1 X81.628 Y67.772 E0.08674
G1 X82.538 Y67.742 E0.08353 F900.000
G1 X83.466 Y67.773 E0.08518
G1 X84.390 Y67.864 E0.08517
G1 X85.305 Y68.015 E0.08517
G1 X86.210 Y68.226 E0.08517
G1 X87.098 Y68.495 E0.08517
G1 X87.967 Y68.822 E0.08517
G1 X88.812 Y69.205 E0.08517
G1 X89.631 Y69.643 E0.08517
G1 X90.419 Y70.133 E0.08517
G1 X91.174 Y70.674 E0.08517
G1 X91.894 Y71.264 E0.08542
G1 X92.616 Y71.947 E0.09117
G1 X93.204 Y72.575 E0.07893
G1 X93.793 Y73.292 E0.08517
G1 X94.333 Y74.047 E0.08517
G1 X94.824 Y74.835 E0.08517
G1 X95.261 Y75.654 E0.08517
G1 X95.644 Y76.500 E0.08517
G1 X95.971 Y77.369 E0.08517
G1 X96.241 Y78.257 E0.08517
G1 X96.452 Y79.161 E0.08518
G1 X96.603 Y80.077 E0.08517
G1 X96.694 Y81.001 E0.08518
G1 X96.724 Y81.929 E0.08517
G1 X96.694 Y82.856 E0.08517
G1 X96.603 Y83.780 E0.08517
G1 X96.452 Y84.696 E0.08517
G1 X96.241 Y85.600 E0.08517
G1 X95.971 Y86.489 E0.08518
G1 X95.644 Y87.357 E0.08517
G1 X95.261 Y88.203 E0.08517
G1 X94.822 Y89.024 E0.08542
G1 X94.294 Y89.865 E0.09117
G1 X93.793 Y90.565 E0.07893
G1 X93.202 Y91.284 E0.08542
G1 X92.519 Y92.006 E0.09117
G1 X91.892 Y92.594 E0.07893
G1 X91.174 Y93.183 E0.08517
G1 X90.419 Y93.724 E0.08517
G1 X89.631 Y94.214 E0.08517
G1 X88.812 Y94.652 E0.08517
G1 X87.967 Y95.035 E0.08517
G1 X87.098 Y95.362 E0.08517
G1 X86.210 Y95.631 E0.08517
G1 X85.306 Y95.842 E0.08518
G1 X84.390 Y95.993 E0.08517
G1 X83.466 Y96.084 E0.08517
G1 X82.538 Y96.115 E0.08517
G1 X81.610 Y96.084 E0.08517
G1 X80.686 Y95.993 E0.08517
G1 X79.770 Y95.842 E0.08517
G1 X78.866 Y95.631 E0.08517
G1 X77.978 Y95.362 E0.08517
G1 X77.109 Y95.035 E0.08517
G1 X76.264 Y94.652 E0.08517
G1 X75.445 Y94.214 E0.08517
G1 X74.656 Y93.724 E0.08517
G1 X73.902 Y93.183 E0.08517
G1 X73.184 Y92.594 E0.08518
G1 X72.507 Y91.960 E0.08517
G1 X71.872 Y91.282 E0.08517
G1 X71.282 Y90.563 E0.08542
G1 X70.707 Y89.752 E0.09117
G1 X70.252 Y89.022 E0.07893
G1 X69.815 Y88.203 E0.08517
G1 X69.432 Y87.357 E0.08517
G1 X69.105 Y86.489 E0.08517
G1 X68.835 Y85.600 E0.08517
G1 X68.624 Y84.696 E0.08518
G1 X68.473 Y83.780 E0.08517
G1 X68.382 Y82.854 E0.08542
G1 X68.354 Y81.861 E0.09117
G1 X68.382 Y81.001 E0.07893
G1 X68.473 Y80.077 E0.08517
G1 X68.624 Y79.161 E0.08518
G1 X68.835 Y78.257 E0.08517
G1 X69.105 Y77.369 E0.08517
G1 X69.432 Y76.500 E0.08517
G1 X69.815 Y75.654 E0.08517
G1 X70.252 Y74.835 E0.08517
G1 X70.742 Y74.047 E0.08517
G1 X71.283 Y73.293 E0.08517
G1 X71.872 Y72.575 E0.08517
G1 X72.455 Y71.952 E0.07829
G1 X73.027 Y72.418 F9000.000
G1 X73.670 Y71.816 E0.08076 F900.000
G1 X74.350 Y71.258 E0.08076
G1 X75.065 Y70.745 E0.08075
G1 X75.813 Y70.280 E0.08075
G1 X76.589 Y69.865 E0.08075
G1 X77.391 Y69.502 E0.08076
G1 X78.214 Y69.192 E0.08075
G1 X79.057 Y68.937 E0.08075
G1 X79.914 Y68.737 E0.08075
G1 X80.783 Y68.593 E0.08078
G1 X81.676 Y68.507 E0.08232
G1 X82.538 Y68.478 E0.07916 F900.000
G1 X83.418 Y68.507 E0.08076
G1 X84.293 Y68.593 E0.08075
G1 X85.162 Y68.737 E0.08076
G1 X86.019 Y68.937 E0.08075
G1 X86.861 Y69.192 E0.08075
G1 X87.685 Y69.502 E0.08075
G1 X88.487 Y69.865 E0.08076
G1 X89.263 Y70.280 E0.08075
G1 X90.010 Y70.745 E0.08076
G1 X90.726 Y71.258 E0.08075
G1 X91.407 Y71.817 E0.08084
G1 X92.094 Y72.466 E0.08675
G1 X92.650 Y73.060 E0.07467
G1 X93.209 Y73.741 E0.08076
G1 X93.721 Y74.456 E0.08075
G1 X94.186 Y75.203 E0.08076
G1 X94.601 Y75.980 E0.08076
G1 X94.964 Y76.781 E0.08076
G1 X95.274 Y77.605 E0.08075
G1 X95.530 Y78.447 E0.08075
G1 X95.730 Y79.305 E0.08076
G1 X95.873 Y80.173 E0.08075
G1 X95.959 Y81.049 E0.08076
G1 X95.988 Y81.929 E0.08075
G1 X95.959 Y82.808 E0.08076
G1 X95.873 Y83.684 E0.08075
G1 X95.730 Y84.553 E0.08076
G1 X95.530 Y85.410 E0.08075
G1 X95.274 Y86.252 E0.08076
G1 X94.964 Y87.076 E0.08075
G1 X94.601 Y87.877 E0.08076
G1 X94.186 Y88.654 E0.08084
G1 X93.683 Y89.455 E0.08675
G1 X93.209 Y90.117 E0.07467
G1 X92.650 Y90.798 E0.08084
G1 X92.000 Y91.485 E0.08675
G1 X91.406 Y92.041 E0.07467
G1 X90.726 Y92.599 E0.08076
G1 X90.010 Y93.112 E0.08075
G1 X89.263 Y93.577 E0.08076
G1 X88.487 Y93.992 E0.08075
G1 X87.685 Y94.355 E0.08076
G1 X86.861 Y94.665 E0.08076
G1 X86.019 Y94.920 E0.08075
G1 X85.162 Y95.120 E0.08076
G1 X84.294 Y95.264 E0.08075
G1 X83.418 Y95.350 E0.08076
G1 X82.538 Y95.379 E0.08075
G1 X81.658 Y95.350 E0.08075
G1 X80.782 Y95.264 E0.08076
G1 X79.914 Y95.120 E0.08075
G1 X79.057 Y94.920 E0.08076
G1 X78.215 Y94.665 E0.08076
G1 X77.391 Y94.355 E0.08075
G1 X76.589 Y93.992 E0.08075
G1 X75.813 Y93.577 E0.08076
G1 X75.065 Y93.112 E0.08075
G1 X74.350 Y92.599 E0.08075
G1 X73.670 Y92.041 E0.08076
G1 X73.027 Y91.439 E0.08075
G1 X72.426 Y90.797 E0.08075
G1 X71.867 Y90.116 E0.08084
G1 X71.319 Y89.345 E0.08675
G1 X70.890 Y88.654 E0.07467
G1 X70.475 Y87.877 E0.08076
G1 X70.112 Y87.076 E0.08075
G1 X69.802 Y86.252 E0.08076
G1 X69.546 Y85.410 E0.08075
G1 X69.346 Y84.553 E0.08076
G1 X69.203 Y83.684 E0.08075
G1 X69.116 Y82.807 E0.08084
G1 X69.090 Y81.862 E0.08675
G1 X69.117 Y81.049 E0.07467
G1 X69.203 Y80.173 E0.08075
G1 X69.346 Y79.305 E0.08076
G1 X69.546 Y78.447 E0.08075
G1 X69.802 Y77.605 E0.08076
G1 X70.112 Y76.781 E0.08075
G1 X70.475 Y75.980 E0.08076
G1 X70.890 Y75.203 E0.08075
G1 X71.354 Y74.456 E0.08075
G1 X71.867 Y73.741 E0.08076
G1 X72.425 Y73.060 E0.08075
G1 X72.976 Y72.473 E0.07387
G1 X72.903 Y71.933 F9000.000
G1 X16.292 Y18.289 F9000.000
G1 X18.898 Y15.683 E0.33822 F900.000
G1 X49.586 Y46.370 E3.98182
G1 X70.672 Y54.631 E2.07782
G1 X72.927 Y55.561 E0.22384
G1 X75.358 Y56.828 E0.25157
G1 X76.814 Y56.343 E0.14075
G1 X94.025 Y56.343 E1.57919
G1 X98.926 Y57.819 E0.46957
G1 X128.622 Y67.672 E2.87072
G1 X170.775 Y56.377 E4.00392
G1 X171.729 Y59.938 E0.33822
G1 X129.809 Y71.170 E3.98182
G1 X112.112 Y85.301 E2.07778
G1 X110.179 Y86.789 E0.22385
G1 X107.866 Y88.261 E0.25158
G1 X107.558 Y89.764 E0.14075
G1 X98.964 Y104.650 E1.57705
G1 X74.289 Y126.591 E3.02958
G1 X71.821 Y129.044 E0.31921
G1 X60.548 Y171.119 E3.99657
G1 X56.987 Y170.165 E0.33822
G1 X68.219 Y128.245 E3.98182
G1 X64.830 Y105.854 E2.07779
G1 X64.508 Y103.436 E0.22384
G1 X64.390 Y100.697 E0.25157
G1 X63.242 Y99.679 E0.14075
G1 X54.636 Y84.773 E1.57919
G1 X53.464 Y79.791 E0.46956
G1 X47.149 Y49.147 E2.87073
G1 X16.345 Y18.342 E3.99703
G1 X16.070 Y17.471 F9000.000
G1 X18.898 Y14.642 E0.36700 F900.000
G1 X49.997 Y45.741 E4.03521
G1 X70.946 Y53.948 E2.06431
G1 X73.238 Y54.893 E0.22745
G1 X75.422 Y56.031 E0.22596
G1 X76.694 Y55.607 E0.12308
G1 X94.156 Y55.614 E1.60211
