; generated by Slic3r 1.2.9 on 2017-10-13 at 15:16:11

; external perimeters extrusion width = 0.50mm
; perimeters extrusion width = 0.50mm
; infill extrusion width = 0.50mm
; solid infill extrusion width = 0.50mm
; top infill extrusion width = 0.50mm

M107
M190 S57 ; set bed temperature
G28 ; home all axes
M83;
G10 P0 S195 R160                       ; Set tool 0 operating and standby temperatures
T0

G21 ; set units to millimeters
G90 ; use absolute coordinates
M83 ; use relative distances for extrusion
G1 E-3.50000 F2400.00000
G1 Z0.300 F9000.000
G1 X49.812 Y67.303 F9000.000
G1 E3.50000 F2400.00000
G1 X96.223 Y40.489 E4.91784 F1200.000
G1 X98.092 Y39.988 E0.17751
G1 X101.231 Y39.988 E0.28796
G1 X103.088 Y40.482 E0.17634 F1200.000
G1 X149.688 Y67.186 E4.92778
G1 X151.056 Y68.543 E0.17680
G1 X152.638 Y71.250 E0.28770
G1 X153.147 Y73.090 E0.17515
G1 X153.782 Y126.229 E4.87592
G1 X153.280 Y128.146 E0.18179
G1 X151.702 Y130.870 E0.28883
G1 X150.355 Y132.223 E0.17520
G1 X103.692 Y159.501 E4.95922
G1 X101.807 Y160.012 E0.17921
G1 X98.668 Y160.012 E0.28796
G1 X96.822 Y159.524 E0.17524
G1 X49.668 Y132.710 E4.97694
G1 X48.282 Y131.335 E0.17916
G1 X46.710 Y128.602 E0.28924
G1 X46.217 Y126.738 E0.17687
G1 X46.362 Y73.237 E4.90877
G1 X46.865 Y71.375 E0.17695
G1 X48.463 Y68.640 E0.29065
G1 X49.759 Y67.355 E0.16746
G1 E-3.50000 F2400.00000
G1 X80.555 Y144.670 F9000.000
G1 E3.50000 F2400.00000
G1 X52.345 Y128.628 E2.97754 F900.000
G1 X51.089 Y126.447 E0.23095
G1 X51.232 Y73.556 E4.85273
G1 X52.510 Y71.370 E0.23233
G1 X98.397 Y44.859 E4.86229
G1 X99.643 Y44.859 E0.11432
G1 X100.928 Y44.859 E0.11797 F900.000
G1 X147.003 Y71.262 E4.87223
G1 X148.280 Y73.448 E0.23235
G1 X148.908 Y125.975 E4.81972
G1 X147.637 Y128.169 E0.23262
G1 X101.499 Y155.141 E4.90346
G1 X98.968 Y155.141 E0.23218
G1 X80.620 Y144.707 E1.93660
G1 X80.191 Y145.310 F9000.000
G1 X51.807 Y129.169 E2.99592 F900.000
G1 X50.353 Y126.642 E0.26746
G1 X50.497 Y73.356 E4.88903
G1 X51.973 Y70.830 E0.26839
G1 X98.199 Y44.124 E4.89827
G1 X99.643 Y44.124 E0.13242
G1 X101.124 Y44.124 E0.13594 F900.000
G1 X147.539 Y70.721 E4.90821
G1 X149.013 Y73.245 E0.26821
G1 X149.646 Y126.169 E4.85612
G1 X148.176 Y128.706 E0.26903
G1 X101.698 Y155.876 E4.93958
G1 X98.774 Y155.876 E0.26831
G1 X80.257 Y145.347 E1.95445
G1 X80.188 Y144.810 F9000.000
G1 X82.027 Y144.878 F9000.000
G1 X51.571 Y114.422 E3.96202 F900.000
G1 X51.568 Y115.462 E0.09569
G1 X79.609 Y143.503 E3.64783
G1 X77.191 Y142.128 F9000.000
G1 X51.565 Y116.502 E3.33364 F900.000
G1 X51.562 Y117.543 E0.09569
G1 X74.773 Y140.753 E3.01945
G1 X72.355 Y139.378 F9000.000
G1 X51.559 Y118.583 E2.70526 F900.000
G1 X51.557 Y119.623 E0.09569
G1 X69.937 Y138.003 E2.39107
G1 X67.519 Y136.628 F9000.000
G1 X51.554 Y120.663 E2.07688 F900.000
G1 X51.551 Y121.703 E0.09569
G1 X65.101 Y135.253 E1.76269
G1 X62.683 Y133.878 F9000.000
G1 X51.548 Y122.744 E1.44850 F900.000
G1 X51.545 Y123.784 E0.09569
G1 X60.265 Y132.503 E1.13431
G1 X57.847 Y131.128 F9000.000
G1 X51.543 Y124.824 E0.82012 F900.000
G1 X51.540 Y125.864 E0.09569
G1 X55.429 Y129.753 E0.50593
G1 X53.011 Y128.378 F9000.000
G1 X52.591 Y127.959 E0.05456 F900.000
G1 X84.445 Y146.253 F9000.000
G1 X51.573 Y113.382 E4.27620 F900.000
G1 X51.576 Y112.342 E0.09569
G1 X86.863 Y147.628 E4.59039
G1 X89.281 Y149.003 F9000.000
G1 X51.579 Y111.301 E4.90458 F900.000
G1 X51.582 Y110.261 E0.09569
G1 X91.699 Y150.378 E5.21877
G1 X94.117 Y151.753 F9000.000
G1 X51.585 Y109.221 E5.53296 F900.000
G1 X51.588 Y108.181 E0.09569
G1 X96.534 Y153.128 E5.84715
G1 X98.952 Y154.503 F9000.000
G1 X51.590 Y107.141 E6.16134 F900.000
G1 X51.593 Y106.100 E0.09569
G1 X100.184 Y154.692 E6.32123
G1 X101.227 Y154.692 E0.09595
G1 X51.596 Y105.060 E6.45655
G1 X51.599 Y104.020 E0.09569
G1 X101.983 Y154.404 E6.55448
G1 X102.641 Y154.019 E0.07014
G1 X51.602 Y102.980 E6.63974
G1 X51.604 Y101.940 E0.09569
G1 X103.299 Y153.635 E6.72500
G1 X103.958 Y153.250 E0.07014
G1 X51.607 Y100.899 E6.81026
G1 X51.610 Y99.859 E0.09569
G1 X104.616 Y152.865 E6.89553
G1 X105.274 Y152.480 E0.07014
G1 X51.613 Y98.819 E6.98079
G1 X51.616 Y97.779 E0.09569
G1 X105.932 Y152.095 E7.06605
G1 X106.590 Y151.711 E0.07014
G1 X51.618 Y96.739 E7.15131
G1 X51.621 Y95.698 E0.09569
G1 X107.249 Y151.326 E7.23657
G1 X107.907 Y150.941 E0.07014
G1 X51.624 Y94.658 E7.32184
G1 X51.627 Y93.618 E0.09569
G1 X108.565 Y150.556 E7.40710
G1 X109.223 Y150.172 E0.07014
G1 X51.630 Y92.578 E7.49236
G1 X51.633 Y91.538 E0.09569
G1 X109.882 Y149.787 E7.57762
G1 X110.540 Y149.402 E0.07014
G1 X51.635 Y90.497 E7.66289
G1 X51.638 Y89.457 E0.09569
G1 X111.198 Y149.017 E7.74815
G1 X111.856 Y148.632 E0.07014
G1 X51.641 Y88.417 E7.83341
G1 X51.644 Y87.377 E0.09569
G1 X112.514 Y148.248 E7.91867
G1 X113.173 Y147.863 E0.07014
G1 X51.647 Y86.337 E8.00394
G1 X51.649 Y85.296 E0.09569
G1 X113.831 Y147.478 E8.08920
G1 X114.489 Y147.093 E0.07014
G1 X51.652 Y84.256 E8.17446
G1 X51.655 Y83.216 E0.09569
G1 X115.147 Y146.708 E8.25972
G1 X115.806 Y146.324 E0.07014
G1 X51.658 Y82.176 E8.34499
G1 X51.661 Y81.136 E0.09569
G1 X116.464 Y145.939 E8.43025
G1 X117.122 Y145.554 E0.07014
G1 X51.663 Y80.095 E8.51551
G1 X51.666 Y79.055 E0.09569
G1 X117.780 Y145.169 E8.60077
G1 X118.439 Y144.784 E0.07014
G1 X51.669 Y78.015 E8.68604
G1 X51.672 Y76.975 E0.09569
G1 X119.097 Y144.400 E8.77130
G1 X119.755 Y144.015 E0.07014
G1 X51.675 Y75.935 E8.85656
G1 X51.678 Y74.894 E0.09569
G1 X120.413 Y143.630 E8.94182
G1 X121.071 Y143.245 E0.07014
G1 X51.680 Y73.854 E9.02709
G1 X51.959 Y73.090 E0.07485
G1 X121.730 Y142.861 E9.07650
G1 X122.388 Y142.476 E0.07014
G1 X52.343 Y72.431 E9.11209
G1 X52.728 Y71.773 E0.07014
G1 X123.046 Y142.091 E9.14768
G1 X123.704 Y141.706 E0.07014
G1 X53.341 Y71.343 E9.15361
G1 X54.002 Y70.961 E0.07023
G1 X124.363 Y141.321 E9.15323
G1 X125.021 Y140.937 E0.07014
G1 X54.663 Y70.579 E9.15286
G1 X55.324 Y70.197 E0.07023
G1 X125.679 Y140.552 E9.15249
G1 X126.337 Y140.167 E0.07014
G1 X55.985 Y69.815 E9.15212
G1 X56.646 Y69.433 E0.07023
G1 X126.995 Y139.782 E9.15175
G1 X127.654 Y139.397 E0.07014
G1 X57.307 Y69.051 E9.15138
G1 X57.968 Y68.669 E0.07023
G1 X128.312 Y139.013 E9.15100
G1 X128.970 Y138.628 E0.07014
G1 X58.629 Y68.287 E9.15063
G1 X59.290 Y67.905 E0.07023
G1 X129.628 Y138.243 E9.15026
G1 X130.287 Y137.858 E0.07014
G1 X59.951 Y67.523 E9.14989
G1 X60.613 Y67.141 E0.07023
G1 X130.945 Y137.474 E9.14952
G1 X131.603 Y137.089 E0.07014
G1 X61.274 Y66.759 E9.14915
G1 X61.935 Y66.377 E0.07023
G1 X132.261 Y136.704 E9.14878
G1 X132.919 Y136.319 E0.07014
G1 X62.596 Y65.996 E9.14840
G1 X63.257 Y65.614 E0.07023
G1 X133.578 Y135.934 E9.14803
G1 X134.236 Y135.550 E0.07014
G1 X63.918 Y65.232 E9.14766
G1 X64.579 Y64.850 E0.07023
G1 X134.894 Y135.165 E9.14729
G1 X135.552 Y134.780 E0.07014
G1 X65.240 Y64.468 E9.14692
G1 X65.901 Y64.086 E0.07023
G1 X136.211 Y134.395 E9.14655
G1 X136.869 Y134.010 E0.07014
G1 X66.562 Y63.704 E9.14617
G1 X67.223 Y63.322 E0.07023
G1 X137.527 Y133.626 E9.14580
G1 X138.185 Y133.241 E0.07014
G1 X67.884 Y62.940 E9.14543
G1 X68.545 Y62.558 E0.07023
G1 X138.843 Y132.856 E9.14506
G1 X139.502 Y132.471 E0.07014
G1 X69.207 Y62.176 E9.14469
G1 X69.868 Y61.794 E0.07023
G1 X140.160 Y132.087 E9.14432
G1 X140.818 Y131.702 E0.07014
G1 X70.529 Y61.412 E9.14394
G1 X71.190 Y61.030 E0.07023
G1 X141.476 Y131.317 E9.14357
G1 X142.135 Y130.932 E0.07014
G1 X71.851 Y60.648 E9.14320
G1 X72.512 Y60.267 E0.07023
G1 X142.793 Y130.547 E9.14283
G1 X143.451 Y130.163 E0.07014
G1 X73.173 Y59.885 E9.14246
G1 X73.834 Y59.503 E0.07023
G1 X144.109 Y129.778 E9.14209
G1 X144.767 Y129.393 E0.07014
G1 X74.495 Y59.121 E9.14172
G1 X75.156 Y58.739 E0.07023
G1 X145.426 Y129.008 E9.14134
G1 X146.084 Y128.623 E0.07014
G1 X75.817 Y58.357 E9.14097
G1 X76.478 Y57.975 E0.07023
G1 X146.742 Y128.239 E9.14060
G1 X147.375 Y127.829 E0.06938
G1 X77.140 Y57.593 E9.13696
G1 X77.801 Y57.211 E0.07023
G1 X147.762 Y127.172 E9.10122
G1 X148.144 Y126.512 E0.07021
G1 X78.462 Y56.829 E9.06498
G1 X79.123 Y56.447 E0.07023
G1 X148.454 Y125.779 E9.01933
G1 X148.442 Y124.723 E0.09711
G1 X79.784 Y56.065 E8.93169
G1 X80.445 Y55.683 E0.07023
G1 X148.429 Y123.667 E8.84405
G1 X148.416 Y122.612 E0.09711
G1 X81.106 Y55.301 E8.75641
G1 X81.767 Y54.920 E0.07023
G1 X148.404 Y121.556 E8.66877
G1 X148.391 Y120.501 E0.09711
G1 X82.428 Y54.538 E8.58113
G1 X83.089 Y54.156 E0.07023
G1 X148.379 Y119.445 E8.49349
G1 X148.366 Y118.389 E0.09711
G1 X83.750 Y53.774 E8.40585
G1 X84.411 Y53.392 E0.07023
G1 X148.353 Y117.334 E8.31821
G1 X148.341 Y116.278 E0.09711
G1 X85.072 Y53.010 E8.23057
G1 X85.734 Y52.628 E0.07023
G1 X148.328 Y115.222 E8.14293
G1 X148.315 Y114.167 E0.09711
G1 X86.395 Y52.246 E8.05529
G1 X87.056 Y51.864 E0.07023
G1 X148.303 Y113.111 E7.96765
G1 X148.290 Y112.056 E0.09711
G1 X87.717 Y51.482 E7.88001
G1 X88.378 Y51.100 E0.07023
G1 X148.278 Y111.000 E7.79237
G1 X148.265 Y109.944 E0.09711
G1 X89.039 Y50.718 E7.70472
G1 X89.700 Y50.336 E0.07023
G1 X148.252 Y108.889 E7.61708
G1 X148.240 Y107.833 E0.09711
G1 X90.361 Y49.954 E7.52944
G1 X91.022 Y49.572 E0.07023
G1 X148.227 Y106.778 E7.44180
G1 X148.215 Y105.722 E0.09711
G1 X91.683 Y49.191 E7.35416
G1 X92.344 Y48.809 E0.07023
G1 X148.202 Y104.666 E7.26652
G1 X148.189 Y103.611 E0.09711
G1 X93.005 Y48.427 E7.17888
G1 X93.666 Y48.045 E0.07023
G1 X148.177 Y102.555 E7.09124
G1 X148.164 Y101.499 E0.09711
G1 X94.328 Y47.663 E7.00360
G1 X94.989 Y47.281 E0.07023
G1 X148.152 Y100.444 E6.91596
G1 X148.139 Y99.388 E0.09711
G1 X95.650 Y46.899 E6.82832
G1 X96.311 Y46.517 E0.07023
G1 X148.126 Y98.333 E6.74068
G1 X148.114 Y97.277 E0.09711
G1 X96.972 Y46.135 E6.65304
G1 X97.633 Y45.753 E0.07023
G1 X148.101 Y96.221 E6.56540
G1 X148.088 Y95.166 E0.09711
G1 X98.294 Y45.371 E6.47776
G1 X99.274 Y45.308 E0.09035
G1 X148.076 Y94.110 E6.34861
G1 X148.063 Y93.054 E0.09711
G1 X100.317 Y45.308 E6.21128
G1 X102.365 Y46.314 F9000.000
G1 X148.051 Y91.999 E5.94319 F900.000
G1 X148.038 Y90.943 E0.09711
G1 X104.808 Y47.713 E5.62375
G1 X107.251 Y49.113 F9000.000
G1 X148.025 Y89.888 E5.30432 F900.000
G1 X148.013 Y88.832 E0.09711
G1 X109.694 Y50.513 E4.98489
G1 X112.137 Y51.913 F9000.000
G1 X148.000 Y87.776 E4.66546 F900.000
G1 X147.988 Y86.721 E0.09711
G1 X114.580 Y53.313 E4.34602
G1 X117.023 Y54.713 F9000.000
G1 X147.975 Y85.665 E4.02659 F900.000
G1 X147.962 Y84.609 E0.09711
G1 X119.465 Y56.113 E3.70716
G1 X121.908 Y57.512 F9000.000
G1 X147.950 Y83.554 E3.38772 F900.000
G1 X147.937 Y82.498 E0.09711
G1 X124.351 Y58.912 E3.06829
G1 X126.794 Y60.312 F9000.000
G1 X147.925 Y81.443 E2.74886 F900.000
G1 X147.912 Y80.387 E0.09711
G1 X129.237 Y61.712 E2.42942
G1 X131.680 Y63.112 F9000.000
G1 X147.899 Y79.331 E2.10999 F900.000
G1 X147.887 Y78.276 E0.09711
G1 X134.123 Y64.512 E1.79056
G1 X136.566 Y65.912 F9000.000
G1 X147.874 Y77.220 E1.47113 F900.000
G1 X147.861 Y76.164 E0.09711
G1 X139.008 Y67.311 E1.15169
G1 X141.451 Y68.711 F9000.000
G1 X147.849 Y75.109 E0.83226 F900.000
G1 X147.836 Y74.053 E0.09711
G1 X143.894 Y70.111 E0.51283
G1 X146.337 Y71.511 F9000.000
G1 X146.759 Y71.933 E0.05487 F900.000
G1 E-3.50000 F2400.00000
G1 Z0.600 F9000.000
G1 X80.333 Y145.061 F9000.000
G1 E3.50000 F2400.00000
G1 X52.016 Y128.959 E1.76990 F1800.000
G1 X50.639 Y126.566 E0.14999
G1 X50.783 Y73.432 E2.88692
G1 X52.180 Y71.041 E0.15051
G1 X98.276 Y44.409 E2.89247
G1 X98.496 Y44.409 E0.01194
G1 X101.048 Y44.409 E0.13868 F1800.000
G1 X147.331 Y70.931 E2.89827
G1 X148.729 Y73.324 E0.15058
G1 X149.359 Y126.094 E2.86733
G1 X147.967 Y128.498 E0.15094
G1 X101.621 Y155.591 E2.91682
G1 X98.849 Y155.591 E0.15058
G1 X80.398 Y145.098 E1.15328
G1 X80.117 Y145.440 F9000.000
G1 X51.697 Y129.279 E1.77634 F1800.000
G1 X50.203 Y126.682 E0.16279
G1 X50.347 Y73.315 E2.89960
G1 X51.863 Y70.721 E0.16324
G1 X98.159 Y43.974 E2.90504
G1 X98.496 Y43.974 E0.01828
G1 X101.164 Y43.974 E0.14498 F1800.000
G1 X147.648 Y70.611 E2.91089
G1 X149.163 Y73.204 E0.16316
G1 X149.796 Y126.208 E2.88010
G1 X148.286 Y128.816 E0.16371
G1 X101.739 Y156.026 E2.92948
G1 X98.734 Y156.026 E0.16325
G1 X80.183 Y145.477 E1.15954
G1 X80.114 Y144.940 F9000.000
G1 X102.878 Y154.488 F9000.000
G1 X148.892 Y108.475 E3.54985 F1800.000
G1 X148.885 Y107.864 E0.03335
G1 X101.415 Y155.333 E3.66216
G1 X100.797 Y155.333 E0.03374
G1 X148.877 Y107.252 E3.70931
G1 X148.870 Y106.641 E0.03335
G1 X100.178 Y155.333 E3.75647
G1 X99.560 Y155.333 E0.03374
G1 X148.863 Y106.030 E3.80362
G1 X148.855 Y105.419 E0.03335
G1 X98.941 Y155.333 E3.85078
G1 X98.514 Y155.142 E0.02554
G1 X148.848 Y104.807 E3.88319
G1 X148.841 Y104.196 E0.03335
G1 X98.119 Y154.918 E3.91305
G1 X97.725 Y154.693 E0.02475
G1 X148.833 Y103.585 E3.94291
G1 X148.826 Y102.974 E0.03335
G1 X97.331 Y154.469 E3.97276
G1 X96.936 Y154.245 E0.02475
G1 X148.819 Y102.363 E4.00262
G1 X148.812 Y101.751 E0.03335
G1 X96.542 Y154.021 E4.03248
G1 X96.148 Y153.797 E0.02475
G1 X148.804 Y101.140 E4.06233
G1 X148.797 Y100.529 E0.03335
G1 X95.753 Y153.572 E4.09219
G1 X95.359 Y153.348 E0.02475
G1 X148.790 Y99.918 E4.12205
G1 X148.782 Y99.306 E0.03335
G1 X94.965 Y153.124 E4.15191
G1 X94.571 Y152.900 E0.02475
G1 X148.775 Y98.695 E4.18176
G1 X148.768 Y98.084 E0.03335
G1 X94.176 Y152.675 E4.21162
G1 X93.782 Y152.451 E0.02475
G1 X148.760 Y97.473 E4.24148
G1 X148.753 Y96.861 E0.03335
G1 X93.388 Y152.227 E4.27134
G1 X92.993 Y152.003 E0.02475
G1 X148.746 Y96.250 E4.30119
G1 X148.739 Y95.639 E0.03335
G1 X92.599 Y151.778 E4.33105
G1 X92.205 Y151.554 E0.02475
G1 X148.731 Y95.028 E4.36091
G1 X148.724 Y94.416 E0.03335
G1 X91.810 Y151.330 E4.39076
G1 X91.416 Y151.106 E0.02475
G1 X148.717 Y93.805 E4.42062
G1 X148.709 Y93.194 E0.03335
G1 X91.022 Y150.882 E4.45048
G1 X90.627 Y150.657 E0.02475
G1 X148.702 Y92.583 E4.48034
G1 X148.695 Y91.971 E0.03335
G1 X90.233 Y150.433 E4.51019
G1 X89.839 Y150.209 E0.02475
G1 X148.687 Y91.360 E4.54005
G1 X148.680 Y90.749 E0.03335
G1 X89.444 Y149.985 E4.56991
G1 X89.050 Y149.760 E0.02475
G1 X148.673 Y90.138 E4.59977
G1 X148.665 Y89.527 E0.03335
G1 X88.656 Y149.536 E4.62962
G1 X88.261 Y149.312 E0.02475
G1 X148.658 Y88.915 E4.65948
G1 X148.651 Y88.304 E0.03335
G1 X87.867 Y149.088 E4.68934
G1 X87.473 Y148.864 E0.02475
G1 X148.644 Y87.693 E4.71919
G1 X148.636 Y87.082 E0.03335
G1 X87.079 Y148.639 E4.74905
G1 X86.684 Y148.415 E0.02475
G1 X148.629 Y86.470 E4.77891
G1 X148.622 Y85.859 E0.03335
G1 X86.290 Y148.191 E4.80877
G1 X85.896 Y147.967 E0.02475
G1 X148.614 Y85.248 E4.83862
G1 X148.607 Y84.637 E0.03335
G1 X85.501 Y147.742 E4.86848
G1 X85.107 Y147.518 E0.02475
G1 X148.600 Y84.025 E4.89834
G1 X148.592 Y83.414 E0.03335
G1 X84.713 Y147.294 E4.92819
G1 X84.318 Y147.070 E0.02475
G1 X148.585 Y82.803 E4.95805
G1 X148.578 Y82.192 E0.03335
G1 X83.924 Y146.846 E4.98791
G1 X83.530 Y146.621 E0.02475
G1 X148.571 Y81.580 E5.01777
G1 X148.563 Y80.969 E0.03335
G1 X83.135 Y146.397 E5.04762
G1 X82.741 Y146.173 E0.02475
G1 X148.556 Y80.358 E5.07748
G1 X148.549 Y79.747 E0.03335
G1 X82.347 Y145.949 E5.10734
G1 X81.952 Y145.724 E0.02475
G1 X148.541 Y79.135 E5.13720
G1 X148.534 Y78.524 E0.03335
G1 X81.558 Y145.500 E5.16705
G1 X81.164 Y145.276 E0.02475
G1 X148.527 Y77.913 E5.19691
G1 X148.519 Y77.302 E0.03335
G1 X80.769 Y145.052 E5.22677
G1 X80.375 Y144.828 E0.02475
G1 X148.512 Y76.691 E5.25662
G1 X148.505 Y76.079 E0.03335
G1 X79.981 Y144.603 E5.28648
G1 X79.587 Y144.379 E0.02475
G1 X148.498 Y75.468 E5.31634
G1 X148.490 Y74.857 E0.03335
G1 X79.192 Y144.155 E5.34620
G1 X78.798 Y143.931 E0.02475
G1 X148.483 Y74.246 E5.37605
G1 X148.476 Y73.634 E0.03335
G1 X78.404 Y143.706 E5.40591
G1 X78.009 Y143.482 E0.02475
G1 X148.358 Y73.133 E5.42727
G1 X148.130 Y72.743 E0.02467
G1 X77.615 Y143.258 E5.44009
G1 X77.221 Y143.034 E0.02475
G1 X147.902 Y72.352 E5.45291
G1 X147.674 Y71.962 E0.02467
G1 X76.826 Y142.809 E5.46574
G1 X76.432 Y142.585 E0.02475
G1 X147.446 Y71.572 E5.47856
G1 X147.218 Y71.181 E0.02467
G1 X76.038 Y142.361 E5.49139
G1 X75.643 Y142.137 E0.02475
G1 X146.860 Y70.920 E5.49425
G1 X146.467 Y70.694 E0.02472
G1 X75.249 Y141.913 E5.49434
G1 X74.855 Y141.688 E0.02475
G1 X146.074 Y70.469 E5.49442
G1 X145.681 Y70.244 E0.02472
G1 X74.460 Y141.464 E5.49451
G1 X74.066 Y141.240 E0.02475
G1 X145.288 Y70.018 E5.49459
G1 X144.894 Y69.793 E0.02472
