; generated by Slic3r 1.2.9 on 2017-10-23 at 12:54:36

; external perimeters extrusion width = 0.50mm
; perimeters extrusion width = 0.50mm
; infill extrusion width = 0.50mm
; solid infill extrusion width = 0.50mm
; top infill extrusion width = 0.50mm

M107
M190 S57 ; set bed temperature
G28 ; home all axes
M83;
G10 P0 S195 R160                       ; Set tool 0 operating and standby temperatures
T0

G21 ; set units to millimeters
G90 ; use absolute coordinates
M83 ; use relative distances for extrusion
G1 E-3.50000 F2400.00000
G1 Z0.300 F9000.000
G1 X45.003 Y45.003 F9000.000
G1 E3.50000 F2400.00000
G1 X45.253 Y44.753 E0.03244 F1200.000
G1 X47.249 Y42.944 E0.24712
G1 X47.795 Y42.495 E0.06489
G1 X49.959 Y40.891 E0.24713
G1 X50.547 Y40.498 E0.06489
G1 X52.602 Y39.266 E0.21986
G1 X53.481 Y38.780 E0.09213
G1 X55.916 Y37.628 E0.24712
G1 X56.569 Y37.358 E0.06489
G1 X59.105 Y36.450 E0.24713
G1 X59.782 Y36.245 E0.06489
G1 X62.394 Y35.590 E0.24712
G1 X63.088 Y35.452 E0.06489
G1 X65.752 Y35.057 E0.24713
G1 X66.456 Y34.988 E0.06489
G1 X69.500 Y34.847 E0.27957
G1 X130.854 Y34.856 E5.62922
G1 X133.544 Y34.988 E0.24713 F1200.000
G1 X134.248 Y35.057 E0.06489
G1 X136.912 Y35.452 E0.24712
G1 X137.606 Y35.590 E0.06489
G1 X140.218 Y36.245 E0.24712
G1 X140.895 Y36.450 E0.06489
G1 X143.431 Y37.358 E0.24713
G1 X144.084 Y37.628 E0.06489
G1 X146.519 Y38.780 E0.24712
G1 X147.143 Y39.113 E0.06489
G1 X149.453 Y40.498 E0.24712
G1 X150.041 Y40.891 E0.06489
G1 X152.205 Y42.495 E0.24712
G1 X152.751 Y42.944 E0.06489
G1 X154.747 Y44.753 E0.24713
G1 X155.247 Y45.253 E0.06489
G1 X157.056 Y47.249 E0.24713
G1 X157.505 Y47.795 E0.06489
G1 X159.109 Y49.959 E0.24713
G1 X159.502 Y50.547 E0.06489
G1 X160.887 Y52.857 E0.24713
G1 X161.220 Y53.481 E0.06489
G1 X162.372 Y55.916 E0.24712
G1 X162.642 Y56.569 E0.06489
G1 X163.550 Y59.105 E0.24713
G1 X163.755 Y59.782 E0.06489
G1 X164.410 Y62.394 E0.24712
G1 X164.548 Y63.088 E0.06489
G1 X164.943 Y65.752 E0.24712
G1 X165.012 Y66.456 E0.06489
G1 X165.144 Y69.147 E0.24713
G1 X165.153 Y130.500 E5.62921
G1 X165.012 Y133.544 E0.27957
G1 X164.943 Y134.248 E0.06489
G1 X164.548 Y136.912 E0.24713
G1 X164.410 Y137.606 E0.06488
G1 X163.755 Y140.218 E0.24712
G1 X163.550 Y140.895 E0.06489
G1 X162.642 Y143.431 E0.24713
G1 X162.372 Y144.084 E0.06488
G1 X161.220 Y146.519 E0.24713
G1 X160.887 Y147.143 E0.06489
G1 X159.502 Y149.453 E0.24712
G1 X159.109 Y150.041 E0.06489
G1 X157.505 Y152.205 E0.24713
G1 X157.056 Y152.751 E0.06489
G1 X155.247 Y154.747 E0.24712
G1 X154.747 Y155.247 E0.06489
G1 X152.751 Y157.056 E0.24712
G1 X152.205 Y157.505 E0.06489
G1 X150.041 Y159.109 E0.24712
G1 X149.453 Y159.502 E0.06489
G1 X147.143 Y160.887 E0.24713
G1 X146.519 Y161.220 E0.06489
G1 X144.084 Y162.372 E0.24713
G1 X143.431 Y162.642 E0.06488
G1 X140.895 Y163.550 E0.24712
G1 X140.218 Y163.755 E0.06489
G1 X137.605 Y164.410 E0.24713
G1 X136.912 Y164.548 E0.06488
G1 X134.248 Y164.943 E0.24712
G1 X133.544 Y165.012 E0.06490
G1 X130.500 Y165.153 E0.27957
G1 X69.500 Y165.153 E5.59677
G1 X66.456 Y165.012 E0.27957
G1 X65.752 Y164.943 E0.06489
G1 X63.088 Y164.548 E0.24713
G1 X62.394 Y164.410 E0.06488
G1 X59.782 Y163.755 E0.24713
G1 X59.105 Y163.550 E0.06488
G1 X56.569 Y162.642 E0.24713
G1 X55.916 Y162.372 E0.06489
G1 X53.481 Y161.220 E0.24713
G1 X52.857 Y160.887 E0.06489
G1 X50.547 Y159.502 E0.24712
G1 X49.959 Y159.109 E0.06489
G1 X47.795 Y157.505 E0.24713
G1 X47.249 Y157.056 E0.06488
G1 X45.253 Y155.247 E0.24712
G1 X44.753 Y154.747 E0.06489
G1 X42.944 Y152.751 E0.24713
G1 X42.495 Y152.205 E0.06489
G1 X40.891 Y150.041 E0.24712
G1 X40.498 Y149.453 E0.06489
G1 X39.113 Y147.143 E0.24712
G1 X38.780 Y146.519 E0.06489
G1 X37.628 Y144.084 E0.24712
G1 X37.358 Y143.431 E0.06489
G1 X36.450 Y140.895 E0.24712
G1 X36.245 Y140.218 E0.06489
G1 X35.590 Y137.606 E0.24712
G1 X35.452 Y136.912 E0.06489
G1 X35.101 Y134.542 E0.21986
G1 X34.988 Y133.544 E0.09213
G1 X34.847 Y130.500 E0.27957
G1 X34.847 Y69.500 E5.59677
G1 X34.988 Y66.456 E0.27957
G1 X35.057 Y65.752 E0.06489
G1 X35.452 Y63.088 E0.24713
G1 X35.590 Y62.394 E0.06489
G1 X36.245 Y59.782 E0.24712
G1 X36.450 Y59.105 E0.06489
G1 X37.358 Y56.569 E0.24712
G1 X37.628 Y55.916 E0.06489
G1 X38.780 Y53.481 E0.24713
G1 X39.113 Y52.857 E0.06489
G1 X40.498 Y50.547 E0.24712
G1 X40.891 Y49.959 E0.06489
G1 X42.495 Y47.795 E0.24713
G1 X42.944 Y47.249 E0.06489
G1 X44.950 Y45.056 E0.27266
G1 X45.522 Y45.522 F9000.000
G1 X45.747 Y45.298 E0.02913 F1200.000
G1 X47.743 Y43.489 E0.24712
G1 X48.233 Y43.086 E0.05827
G1 X50.397 Y41.482 E0.24713
G1 X50.925 Y41.129 E0.05827
G1 X52.980 Y39.897 E0.21986
G1 X53.795 Y39.445 E0.08551
G1 X56.230 Y38.293 E0.24712
G1 X56.817 Y38.050 E0.05827
G1 X59.353 Y37.143 E0.24713
G1 X59.960 Y36.958 E0.05826
G1 X62.573 Y36.304 E0.24712
G1 X63.196 Y36.180 E0.05827
G1 X65.860 Y35.785 E0.24713
G1 X66.492 Y35.723 E0.05826
G1 X69.500 Y35.583 E0.27626
G1 X130.817 Y35.590 E5.62590
G1 X133.508 Y35.723 E0.24713 F1200.000
G1 X134.140 Y35.785 E0.05826
G1 X136.804 Y36.180 E0.24712
G1 X137.427 Y36.304 E0.05827
G1 X140.040 Y36.958 E0.24712
G1 X140.647 Y37.143 E0.05827
G1 X143.183 Y38.050 E0.24713
G1 X143.770 Y38.293 E0.05826
G1 X146.205 Y39.445 E0.24712
G1 X146.765 Y39.744 E0.05827
G1 X149.075 Y41.129 E0.24712
G1 X149.603 Y41.482 E0.05827
G1 X151.767 Y43.086 E0.24712
G1 X152.257 Y43.489 E0.05827
G1 X154.253 Y45.298 E0.24713
G1 X154.702 Y45.747 E0.05827
G1 X156.511 Y47.743 E0.24713
G1 X156.914 Y48.233 E0.05826
G1 X158.518 Y50.397 E0.24713
G1 X158.871 Y50.925 E0.05826
G1 X160.256 Y53.235 E0.24713
G1 X160.555 Y53.795 E0.05827
G1 X161.707 Y56.230 E0.24712
G1 X161.950 Y56.817 E0.05826
G1 X162.857 Y59.353 E0.24713
G1 X163.042 Y59.960 E0.05827
G1 X163.696 Y62.573 E0.24712
G1 X163.820 Y63.196 E0.05827
G1 X164.215 Y65.860 E0.24712
G1 X164.277 Y66.492 E0.05827
G1 X164.410 Y69.183 E0.24713
G1 X164.417 Y130.500 E5.62590
G1 X164.277 Y133.508 E0.27626
G1 X164.215 Y134.140 E0.05827
G1 X163.820 Y136.804 E0.24713
G1 X163.696 Y137.427 E0.05826
G1 X163.042 Y140.040 E0.24712
G1 X162.857 Y140.647 E0.05827
G1 X161.950 Y143.183 E0.24713
G1 X161.707 Y143.770 E0.05826
G1 X160.555 Y146.205 E0.24713
G1 X160.256 Y146.765 E0.05826
G1 X158.871 Y149.075 E0.24712
G1 X158.518 Y149.603 E0.05827
G1 X156.914 Y151.767 E0.24713
G1 X156.511 Y152.257 E0.05827
G1 X154.702 Y154.253 E0.24712
G1 X154.253 Y154.702 E0.05827
G1 X152.257 Y156.511 E0.24712
G1 X151.767 Y156.914 E0.05827
G1 X149.603 Y158.518 E0.24712
G1 X149.075 Y158.871 E0.05827
G1 X146.765 Y160.256 E0.24713
G1 X146.205 Y160.555 E0.05826
G1 X143.770 Y161.707 E0.24713
G1 X143.183 Y161.950 E0.05826
G1 X140.647 Y162.857 E0.24712
G1 X140.040 Y163.042 E0.05827
G1 X137.427 Y163.696 E0.24713
G1 X136.804 Y163.820 E0.05826
G1 X134.140 Y164.215 E0.24712
G1 X133.508 Y164.277 E0.05827
G1 X130.500 Y164.417 E0.27625
G1 X69.500 Y164.417 E5.59677
G1 X66.492 Y164.277 E0.27626
G1 X65.860 Y164.215 E0.05827
G1 X63.196 Y163.820 E0.24713
G1 X62.573 Y163.696 E0.05826
G1 X59.960 Y163.042 E0.24713
G1 X59.353 Y162.857 E0.05826
G1 X56.817 Y161.950 E0.24713
G1 X56.230 Y161.707 E0.05826
G1 X53.795 Y160.555 E0.24713
G1 X53.235 Y160.256 E0.05827
G1 X50.925 Y158.871 E0.24712
G1 X50.397 Y158.518 E0.05827
G1 X48.233 Y156.914 E0.24713
G1 X47.743 Y156.511 E0.05826
G1 X45.747 Y154.702 E0.24712
G1 X45.298 Y154.253 E0.05827
G1 X43.489 Y152.257 E0.24713
G1 X43.086 Y151.767 E0.05826
G1 X41.482 Y149.603 E0.24712
G1 X41.129 Y149.075 E0.05827
G1 X39.744 Y146.765 E0.24712
G1 X39.445 Y146.205 E0.05827
G1 X38.293 Y143.770 E0.24712
G1 X38.050 Y143.183 E0.05827
G1 X37.143 Y140.647 E0.24712
G1 X36.958 Y140.040 E0.05827
G1 X36.304 Y137.427 E0.24712
G1 X36.180 Y136.804 E0.05827
G1 X35.828 Y134.434 E0.21986
G1 X35.723 Y133.508 E0.08551
G1 X35.583 Y130.500 E0.27626
G1 X35.583 Y69.500 E5.59677
G1 X35.723 Y66.492 E0.27626
G1 X35.785 Y65.860 E0.05827
G1 X36.180 Y63.196 E0.24713
G1 X36.304 Y62.573 E0.05827
G1 X36.958 Y59.960 E0.24712
G1 X37.143 Y59.353 E0.05827
G1 X38.050 Y56.817 E0.24712
G1 X38.293 Y56.230 E0.05827
G1 X39.445 Y53.795 E0.24713
G1 X39.744 Y53.235 E0.05827
G1 X41.129 Y50.925 E0.24712
G1 X41.482 Y50.397 E0.05827
G1 X43.086 Y48.233 E0.24713
G1 X43.489 Y47.743 E0.05826
G1 X45.469 Y45.575 E0.26935
G1 X46.042 Y46.042 F9000.000
G1 X46.241 Y45.843 E0.02582 F1200.000
G1 X48.237 Y44.034 E0.24712
G1 X48.672 Y43.677 E0.05164
G1 X50.835 Y42.072 E0.24713
G1 X51.303 Y41.760 E0.05164
G1 X53.358 Y40.528 E0.21986
G1 X54.110 Y40.110 E0.07889
G1 X56.545 Y38.958 E0.24712
G1 X57.065 Y38.743 E0.05164
G1 X59.601 Y37.835 E0.24713
G1 X60.139 Y37.672 E0.05164
G1 X62.752 Y37.018 E0.24712
G1 X63.304 Y36.908 E0.05164
G1 X65.968 Y36.512 E0.24713
G1 X66.528 Y36.457 E0.05164
G1 X69.500 Y36.318 E0.27295
G1 X130.781 Y36.325 E5.62259
G1 X133.472 Y36.457 E0.24713 F1200.000
G1 X134.032 Y36.512 E0.05164
G1 X136.696 Y36.908 E0.24712
G1 X137.248 Y37.018 E0.05164
G1 X139.861 Y37.672 E0.24712
G1 X140.399 Y37.835 E0.05164
G1 X142.935 Y38.743 E0.24713
G1 X143.455 Y38.958 E0.05164
G1 X145.890 Y40.110 E0.24712
G1 X146.387 Y40.375 E0.05164
G1 X148.697 Y41.760 E0.24712
G1 X149.165 Y42.072 E0.05164
G1 X151.328 Y43.677 E0.24712
G1 X151.763 Y44.034 E0.05164
G1 X153.759 Y45.843 E0.24713
G1 X154.157 Y46.241 E0.05164
G1 X155.966 Y48.237 E0.24713
G1 X156.323 Y48.672 E0.05164
G1 X157.928 Y50.835 E0.24713
G1 X158.240 Y51.303 E0.05164
G1 X159.625 Y53.613 E0.24713
G1 X159.890 Y54.110 E0.05164
G1 X161.042 Y56.545 E0.24712
G1 X161.257 Y57.065 E0.05164
G1 X162.165 Y59.601 E0.24713
G1 X162.328 Y60.139 E0.05164
G1 X162.982 Y62.752 E0.24712
G1 X163.092 Y63.304 E0.05164
G1 X163.488 Y65.968 E0.24712
G1 X163.543 Y66.528 E0.05164
G1 X163.675 Y69.219 E0.24713
G1 X163.682 Y130.500 E5.62259
G1 X163.543 Y133.472 E0.27295
G1 X163.488 Y134.032 E0.05164
G1 X163.092 Y136.696 E0.24713
G1 X162.982 Y137.248 E0.05164
G1 X162.328 Y139.861 E0.24712
G1 X162.165 Y140.399 E0.05165
G1 X161.257 Y142.935 E0.24713
G1 X161.042 Y143.455 E0.05164
G1 X160.017 Y145.622 E0.21986
G1 X159.625 Y146.387 E0.07889
G1 X158.240 Y148.697 E0.24712
G1 X157.928 Y149.165 E0.05164
G1 X156.500 Y151.090 E0.21986
G1 X155.966 Y151.763 E0.07889
G1 X154.157 Y153.759 E0.24712
G1 X153.759 Y154.157 E0.05164
G1 X151.763 Y155.966 E0.24712
G1 X151.328 Y156.323 E0.05164
G1 X149.165 Y157.928 E0.24712
G1 X148.697 Y158.240 E0.05164
G1 X146.387 Y159.625 E0.24713
G1 X145.890 Y159.890 E0.05164
G1 X143.455 Y161.042 E0.24713
G1 X142.935 Y161.257 E0.05164
G1 X140.399 Y162.165 E0.24712
G1 X139.861 Y162.328 E0.05164
G1 X137.248 Y162.983 E0.24713
G1 X136.696 Y163.092 E0.05164
G1 X134.032 Y163.488 E0.24712
G1 X133.472 Y163.543 E0.05165
G1 X130.500 Y163.682 E0.27294
G1 X69.500 Y163.682 E5.59677
G1 X66.528 Y163.543 E0.27295
G1 X65.968 Y163.488 E0.05164
G1 X63.304 Y163.092 E0.24713
G1 X62.752 Y162.982 E0.05164
G1 X60.139 Y162.328 E0.24713
G1 X59.601 Y162.165 E0.05164
G1 X57.065 Y161.257 E0.24713
G1 X56.545 Y161.042 E0.05164
G1 X54.110 Y159.890 E0.24713
G1 X53.613 Y159.625 E0.05164
G1 X51.303 Y158.240 E0.24712
G1 X50.835 Y157.928 E0.05164
G1 X48.672 Y156.323 E0.24713
G1 X48.237 Y155.966 E0.05164
G1 X46.241 Y154.157 E0.24712
G1 X45.843 Y153.759 E0.05164
G1 X44.034 Y151.763 E0.24713
G1 X43.677 Y151.328 E0.05164
G1 X42.072 Y149.165 E0.24712
G1 X41.760 Y148.697 E0.05164
G1 X40.375 Y146.387 E0.24712
G1 X40.110 Y145.890 E0.05164
G1 X38.958 Y143.455 E0.24712
G1 X38.743 Y142.935 E0.05164
G1 X37.835 Y140.399 E0.24712
G1 X37.672 Y139.861 E0.05164
G1 X37.018 Y137.248 E0.24712
G1 X36.908 Y136.696 E0.05164
G1 X36.556 Y134.326 E0.21986
G1 X36.457 Y133.472 E0.07889
G1 X36.318 Y130.500 E0.27295
G1 X36.318 Y69.500 E5.59677
G1 X36.457 Y66.528 E0.27295
G1 X36.512 Y65.968 E0.05164
G1 X36.908 Y63.304 E0.24713
G1 X37.018 Y62.752 E0.05164
G1 X37.672 Y60.139 E0.24712
G1 X37.835 Y59.601 E0.05164
G1 X38.743 Y57.065 E0.24712
G1 X38.958 Y56.545 E0.05164
G1 X40.110 Y54.110 E0.24713
G1 X40.375 Y53.613 E0.05164
G1 X41.760 Y51.303 E0.24712
G1 X42.072 Y50.835 E0.05164
G1 X43.677 Y48.672 E0.24713
G1 X44.034 Y48.237 E0.05164
G1 X45.989 Y46.095 E0.26604
G1 E-3.50000 F2400.00000
G1 X87.494 Y148.494 F9000.000
G1 E3.50000 F2400.00000
G1 X85.643 Y150.171 E0.22912 F900.000
G1 X83.638 Y151.658 E0.22912
G1 X81.496 Y152.942 E0.22912
G1 X79.238 Y154.010 E0.22912
G1 X76.887 Y154.851 E0.22912
G1 X74.464 Y155.458 E0.22912
G1 X71.994 Y155.824 E0.22912
G1 X69.500 Y155.947 E0.22912
G1 X67.006 Y155.824 E0.22912
G1 X64.536 Y155.458 E0.22912
G1 X62.113 Y154.851 E0.22912
G1 X59.762 Y154.010 E0.22912
G1 X57.505 Y152.942 E0.22912
G1 X55.363 Y151.658 E0.22912
G1 X53.357 Y150.171 E0.22912
G1 X51.506 Y148.494 E0.22912
G1 X49.829 Y146.643 E0.22912
G1 X48.342 Y144.637 E0.22912
G1 X47.058 Y142.495 E0.22912
G1 X45.990 Y140.238 E0.22912
G1 X45.149 Y137.887 E0.22912
G1 X44.542 Y135.464 E0.22912
G1 X44.176 Y132.994 E0.22912
G1 X44.053 Y130.500 E0.22912
G1 X44.176 Y128.006 E0.22912
G1 X44.542 Y125.535 E0.22912
G1 X45.149 Y123.113 E0.22912
G1 X45.990 Y120.762 E0.22912
G1 X47.058 Y118.504 E0.22912
G1 X48.342 Y116.362 E0.22912
G1 X49.829 Y114.357 E0.22912
G1 X51.506 Y112.506 E0.22912
G1 X53.357 Y110.829 E0.22912
G1 X55.363 Y109.342 E0.22912
G1 X57.505 Y108.058 E0.22912
G1 X59.762 Y106.990 E0.22912
G1 X62.113 Y106.149 E0.22912
G1 X64.536 Y105.542 E0.22912
G1 X67.006 Y105.176 E0.22912 F900.000
G1 X69.179 Y105.069 E0.19960
G1 X69.500 Y105.053 E0.02952
G1 X71.994 Y105.176 E0.22912
G1 X74.464 Y105.542 E0.22912
G1 X76.887 Y106.149 E0.22912
G1 X79.238 Y106.990 E0.22912
G1 X81.496 Y108.058 E0.22912
G1 X83.638 Y109.342 E0.22912
G1 X85.643 Y110.829 E0.22912
G1 X87.494 Y112.506 E0.22912
G1 X89.171 Y114.357 E0.22912
G1 X90.658 Y116.362 E0.22912
G1 X91.942 Y118.504 E0.22912
G1 X93.010 Y120.762 E0.22912
G1 X93.851 Y123.113 E0.22912
G1 X94.458 Y125.535 E0.22912
G1 X94.824 Y128.006 E0.22912
G1 X94.947 Y130.500 E0.22912
G1 X94.824 Y132.994 E0.22912
G1 X94.458 Y135.464 E0.22912
G1 X93.851 Y137.887 E0.22912
G1 X93.010 Y140.238 E0.22912
G1 X91.942 Y142.495 E0.22912
G1 X90.658 Y144.637 E0.22912
G1 X89.171 Y146.643 E0.22912
G1 X87.544 Y148.438 E0.22224
G1 X87.615 Y148.979 F9000.000
G1 X88.566 Y149.677 F9000.000
G1 X86.658 Y151.407 E0.23632 F900.000
G1 X84.526 Y152.988 E0.24352
G1 X82.249 Y154.352 E0.24352
G1 X79.850 Y155.487 E0.24352
G1 X77.351 Y156.381 E0.24352
G1 X74.776 Y157.026 E0.24352
G1 X72.151 Y157.415 E0.24352
G1 X69.500 Y157.546 E0.24352
G1 X66.849 Y157.415 E0.24352
G1 X64.224 Y157.026 E0.24352
G1 X61.649 Y156.381 E0.24352
G1 X59.150 Y155.487 E0.24352
G1 X56.751 Y154.352 E0.24352
G1 X54.474 Y152.988 E0.24352
G1 X52.342 Y151.407 E0.24352
G1 X50.376 Y149.624 E0.24352
G1 X48.593 Y147.658 E0.24352
G1 X47.012 Y145.526 E0.24352
G1 X45.648 Y143.249 E0.24352
G1 X44.513 Y140.850 E0.24352
G1 X43.619 Y138.351 E0.24352
G1 X42.974 Y135.776 E0.24352
G1 X42.585 Y133.151 E0.24352
G1 X42.454 Y130.500 E0.24352
G1 X42.585 Y127.849 E0.24352
G1 X42.974 Y125.224 E0.24352
G1 X43.619 Y122.649 E0.24352
G1 X44.513 Y120.150 E0.24352
G1 X45.648 Y117.751 E0.24352
G1 X47.012 Y115.474 E0.24352
G1 X48.593 Y113.342 E0.24352
G1 X50.376 Y111.376 E0.24352
G1 X52.342 Y109.593 E0.24352
G1 X54.474 Y108.012 E0.24352
G1 X56.751 Y106.648 E0.24352
G1 X59.150 Y105.513 E0.24352
G1 X61.649 Y104.619 E0.24352
G1 X64.224 Y103.974 E0.24352
G1 X66.849 Y103.584 E0.24352
G1 X69.500 Y103.454 E0.24352
G1 X71.874 Y103.571 E0.21806
G1 X72.151 Y103.584 E0.02546 F900.000
G1 X74.776 Y103.974 E0.24352
G1 X77.351 Y104.619 E0.24352
G1 X79.850 Y105.513 E0.24352
G1 X82.249 Y106.648 E0.24352
G1 X84.526 Y108.012 E0.24352
G1 X86.658 Y109.593 E0.24352
G1 X88.624 Y111.376 E0.24352
G1 X90.407 Y113.342 E0.24352
G1 X91.988 Y115.474 E0.24352
G1 X93.352 Y117.751 E0.24352
G1 X94.487 Y120.150 E0.24352
G1 X95.381 Y122.649 E0.24352
G1 X96.026 Y125.224 E0.24352
G1 X96.416 Y127.849 E0.24352
G1 X96.546 Y130.500 E0.24352
G1 X96.416 Y133.151 E0.24352
G1 X96.026 Y135.776 E0.24352
G1 X95.381 Y138.351 E0.24352
G1 X94.487 Y140.850 E0.24352
G1 X93.352 Y143.249 E0.24352
G1 X91.988 Y145.526 E0.24352
G1 X90.407 Y147.658 E0.24352
G1 X88.622 Y149.626 E0.24383
G1 X88.085 Y149.539 F9000.000
G1 X88.030 Y149.085 F9000.000
G1 X86.150 Y150.788 E0.48581 F600.000
G1 X84.099 Y152.310 E0.48927
G1 X81.872 Y153.647 E0.49736
G1 X79.544 Y154.748 E0.49332
