; generated by Slic3r 1.2.9 on 2017-09-25 at 11:59:44

; external perimeters extrusion width = 0.50mm
; perimeters extrusion width = 0.50mm
; infill extrusion width = 0.50mm
; solid infill extrusion width = 0.50mm
; top infill extrusion width = 0.50mm

M107
M190 S57 ; set bed temperature
G28 ; home all axes
M83;
G10 P0 S195 R160                       ; Set tool 0 operating and standby temperatures
T0

G21 ; set units to millimeters
G90 ; use absolute coordinates
M83 ; use relative distances for extrusion
G1 E-3.50000 F2400.00000
G1 Z0.300 F9000.000
G1 X78.272 Y67.318 F9000.000
G1 E3.50000 F2400.00000
G1 X79.822 Y66.469 E0.16214 F1200.000
G1 X104.258 Y59.922 E2.32106
G1 X105.974 Y59.871 E0.15755
G1 X108.130 Y61.182 E0.23156
G1 X140.800 Y101.614 E4.76925 F1200.000
G1 X141.543 Y103.162 E0.15755
G1 X141.502 Y104.928 E0.16214
G1 X134.955 Y129.364 E2.32106
G1 X134.141 Y130.876 E0.15755
G1 X131.927 Y132.087 E0.23157
G1 X80.578 Y140.163 E4.76924
G1 X78.866 Y140.033 E0.15755
G1 X77.356 Y139.115 E0.16214
G1 X59.468 Y121.227 E2.32106
G1 X58.565 Y119.766 E0.15755
G1 X58.623 Y117.243 E0.23157
G1 X77.303 Y68.735 E4.76918
G1 X78.230 Y67.379 E0.15067
G1 E-3.50000 F2400.00000
G1 X79.388 Y124.675 F9000.000
G1 E3.50000 F2400.00000
G1 X74.663 Y123.354 E0.45015 F900.000
G1 X73.181 Y118.564 E0.46005
G1 X76.411 Y114.922 E0.44662
G1 X81.136 Y116.243 E0.45015
G1 X82.618 Y121.033 E0.46005
G1 X79.438 Y124.619 E0.43974
G1 X79.143 Y123.843 F9000.000
G1 X75.248 Y122.754 E0.37115 F900.000
G1 X74.006 Y118.742 E0.38526
G1 X76.656 Y115.755 E0.36640
G1 X80.552 Y116.844 E0.37115
G1 X81.793 Y120.855 E0.38526
G1 X79.193 Y123.787 E0.35952
G1 X78.938 Y124.299 F9000.000
G1 X86.658 Y116.409 F9000.000
G1 X85.840 Y115.536 E0.10973 F900.000
G1 X85.083 Y114.613 E0.10956
G1 X84.387 Y113.643 E0.10956
G1 X83.756 Y112.629 E0.10957
G1 X83.194 Y111.575 E0.10956
G1 X82.701 Y110.488 E0.10956
G1 X82.280 Y109.370 E0.10956
G1 X81.933 Y108.227 E0.10957
G1 X81.662 Y107.064 E0.10956
G1 X81.468 Y105.886 E0.10956
G1 X81.351 Y104.698 E0.10957
G1 X81.312 Y103.504 E0.10956
G1 X81.351 Y102.311 E0.10956
G1 X81.462 Y101.181 E0.10413
G1 X81.662 Y99.946 E0.11483
G1 X81.933 Y98.781 E0.10973
G1 X82.280 Y97.638 E0.10956
G1 X82.701 Y96.521 E0.10957
G1 X83.194 Y95.433 E0.10956
G1 X83.756 Y94.380 E0.10956
G1 X84.387 Y93.366 E0.10957
G1 X85.083 Y92.395 E0.10957
G1 X85.840 Y91.472 E0.10956
G1 X86.656 Y90.600 E0.10956
G1 X87.528 Y89.784 E0.10957
G1 X88.451 Y89.027 E0.10957
G1 X89.422 Y88.331 E0.10957
G1 X90.436 Y87.700 E0.10956
G1 X91.437 Y87.165 E0.10413
G1 X92.575 Y86.645 E0.11483
G1 X93.694 Y86.224 E0.10973
G1 X94.837 Y85.877 E0.10956
G1 X96.000 Y85.606 E0.10957
G1 X97.178 Y85.412 E0.10957
G1 X98.367 Y85.295 E0.10956
G1 X99.501 Y85.257 E0.10413 F900.000
G1 X100.752 Y85.294 E0.11483
G1 X101.942 Y85.412 E0.10973
G1 X103.120 Y85.606 E0.10957
G1 X104.283 Y85.877 E0.10957
G1 X105.426 Y86.224 E0.10956
G1 X106.544 Y86.645 E0.10957
G1 X107.631 Y87.137 E0.10956
G1 X108.685 Y87.700 E0.10957
G1 X109.699 Y88.331 E0.10956
G1 X110.669 Y89.026 E0.10956
G1 X111.592 Y89.784 E0.10956
G1 X112.464 Y90.600 E0.10956
G1 X113.280 Y91.472 E0.10956
G1 X114.038 Y92.395 E0.10956
G1 X114.733 Y93.366 E0.10956
G1 X115.364 Y94.380 E0.10956
G1 X115.927 Y95.433 E0.10957
G1 X116.420 Y96.521 E0.10956
G1 X116.840 Y97.638 E0.10957
G1 X117.187 Y98.781 E0.10956
G1 X117.458 Y99.944 E0.10956
G1 X117.653 Y101.122 E0.10957
G1 X117.770 Y102.311 E0.10956
G1 X117.809 Y103.504 E0.10956
G1 X117.770 Y104.698 E0.10956
G1 X117.659 Y105.827 E0.10413
G1 X117.459 Y107.062 E0.11483
G1 X117.187 Y108.227 E0.10973
G1 X116.840 Y109.370 E0.10956
G1 X116.420 Y110.488 E0.10957
G1 X115.927 Y111.575 E0.10956
G1 X115.364 Y112.628 E0.10956
G1 X114.733 Y113.643 E0.10957
G1 X114.038 Y114.613 E0.10956
G1 X113.280 Y115.536 E0.10956
G1 X112.464 Y116.408 E0.10957
G1 X111.592 Y117.224 E0.10956
G1 X110.669 Y117.982 E0.10956
G1 X109.699 Y118.677 E0.10957
G1 X108.685 Y119.308 E0.10956
G1 X107.631 Y119.871 E0.10957
G1 X106.544 Y120.364 E0.10956
G1 X105.426 Y120.784 E0.10956
G1 X104.283 Y121.131 E0.10956
G1 X103.120 Y121.402 E0.10956
G1 X101.942 Y121.597 E0.10957
G1 X100.754 Y121.714 E0.10956
G1 X99.560 Y121.753 E0.10956
G1 X98.367 Y121.714 E0.10957
G1 X97.178 Y121.597 E0.10956
G1 X96.000 Y121.402 E0.10956
G1 X94.837 Y121.131 E0.10956
G1 X93.751 Y120.802 E0.10412
G1 X92.578 Y120.364 E0.11483
G1 X91.489 Y119.871 E0.10973
G1 X90.488 Y119.336 E0.10412
G1 X89.423 Y118.678 E0.11483
G1 X88.451 Y117.982 E0.10973
G1 X87.574 Y117.262 E0.10413
G1 X86.713 Y116.460 E0.10794
G1 X87.177 Y115.888 F9000.000
G1 X86.394 Y115.051 E0.10520 F900.000
G1 X85.667 Y114.165 E0.10515
G1 X84.999 Y113.234 E0.10515
G1 X84.394 Y112.261 E0.10515
G1 X83.854 Y111.250 E0.10515
G1 X83.381 Y110.206 E0.10515
G1 X82.977 Y109.133 E0.10515
G1 X82.644 Y108.037 E0.10515
G1 X82.384 Y106.921 E0.10515
G1 X82.197 Y105.790 E0.10515
G1 X82.085 Y104.650 E0.10515
G1 X82.048 Y103.504 E0.10514
G1 X82.085 Y102.359 E0.10515
G1 X82.192 Y101.276 E0.09982
G1 X82.384 Y100.088 E0.11041
G1 X82.644 Y98.972 E0.10521
G1 X82.977 Y97.875 E0.10515
G1 X83.381 Y96.802 E0.10515
G1 X83.854 Y95.759 E0.10515
G1 X84.394 Y94.748 E0.10514
G1 X84.999 Y93.775 E0.10515
G1 X85.666 Y92.843 E0.10515
G1 X86.394 Y91.957 E0.10515
G1 X87.177 Y91.121 E0.10515
G1 X88.013 Y90.337 E0.10515
G1 X88.899 Y89.610 E0.10515
G1 X89.831 Y88.943 E0.10515
G1 X90.804 Y88.338 E0.10515
G1 X91.763 Y87.825 E0.09982
G1 X92.858 Y87.325 E0.11041
G1 X93.931 Y86.921 E0.10520
G1 X95.028 Y86.588 E0.10515
G1 X96.144 Y86.328 E0.10515
G1 X97.274 Y86.141 E0.10515
G1 X98.415 Y86.029 E0.10515
G1 X99.502 Y85.993 E0.09982 F900.000
G1 X100.705 Y86.029 E0.11041
G1 X101.846 Y86.141 E0.10520
G1 X102.977 Y86.328 E0.10515
G1 X104.093 Y86.588 E0.10515
G1 X105.189 Y86.921 E0.10515
G1 X106.262 Y87.325 E0.10515
G1 X107.306 Y87.798 E0.10515
G1 X108.317 Y88.338 E0.10515
G1 X109.290 Y88.943 E0.10515
G1 X110.221 Y89.610 E0.10515
G1 X111.107 Y90.337 E0.10515
G1 X111.944 Y91.121 E0.10515
G1 X112.727 Y91.957 E0.10515
G1 X113.454 Y92.843 E0.10515
G1 X114.121 Y93.775 E0.10515
G1 X114.727 Y94.748 E0.10515
G1 X115.267 Y95.758 E0.10515
G1 X115.740 Y96.802 E0.10515
G1 X116.144 Y97.875 E0.10515
G1 X116.476 Y98.972 E0.10515
G1 X116.736 Y100.088 E0.10515
G1 X116.923 Y101.218 E0.10515
G1 X117.035 Y102.359 E0.10515
G1 X117.073 Y103.504 E0.10515
G1 X117.035 Y104.650 E0.10515
G1 X116.929 Y105.732 E0.09981
G1 X116.737 Y106.920 E0.11041
G1 X116.476 Y108.037 E0.10520
G1 X116.144 Y109.133 E0.10515
G1 X115.740 Y110.206 E0.10515
G1 X115.267 Y111.250 E0.10515
G1 X114.727 Y112.260 E0.10515
G1 X114.121 Y113.234 E0.10515
G1 X113.454 Y114.165 E0.10514
G1 X112.727 Y115.051 E0.10515
G1 X111.944 Y115.887 E0.10515
G1 X111.107 Y116.671 E0.10514
G1 X110.221 Y117.398 E0.10515
G1 X109.290 Y118.065 E0.10515
G1 X108.317 Y118.671 E0.10514
G1 X107.306 Y119.211 E0.10515
G1 X106.262 Y119.684 E0.10514
G1 X105.190 Y120.087 E0.10515
G1 X104.093 Y120.420 E0.10515
G1 X102.977 Y120.680 E0.10515
G1 X101.846 Y120.867 E0.10515
G1 X100.706 Y120.979 E0.10514
G1 X99.560 Y121.017 E0.10515
G1 X98.415 Y120.979 E0.10515
G1 X97.274 Y120.867 E0.10515
G1 X96.144 Y120.680 E0.10514
G1 X95.028 Y120.420 E0.10515
G1 X93.987 Y120.104 E0.09981
G1 X92.859 Y119.684 E0.11041
G1 X91.815 Y119.211 E0.10520
G1 X90.855 Y118.698 E0.09981
G1 X89.831 Y118.066 E0.11041
G1 X88.899 Y117.398 E0.10520
G1 X88.058 Y116.708 E0.09982
G1 X87.232 Y115.939 E0.10353
G1 X86.693 Y116.013 F9000.000
G1 E-3.50000 F2400.00000
G1 X85.190 Y92.478 F9000.000
G1 X83.380 Y84.722 F9000.000
G1 X85.466 Y81.961 F9000.000
G1 X85.626 Y77.434 F9000.000
G1 X91.467 Y75.487 F9000.000
G1 X91.311 Y75.449 F9000.000
G1 E3.50000 F2400.00000
G1 X94.818 Y72.018 E0.45015 F900.000
G1 X99.707 Y73.129 E0.46005
G1 X101.246 Y77.747 E0.44662
G1 X97.740 Y81.179 E0.45015
G1 X92.851 Y80.067 E0.46005
G1 X91.335 Y75.520 E0.43974
G1 X92.155 Y75.653 F9000.000
G1 X95.046 Y72.824 E0.37114 F900.000
G1 X99.140 Y73.755 E0.38526
G1 X100.403 Y77.543 E0.36641
G1 X97.512 Y80.373 E0.37114
G1 X93.418 Y79.442 E0.38526
G1 X92.178 Y75.724 E0.35952
G1 X91.863 Y75.247 F9000.000
G1 E-3.50000 F2400.00000
G1 X101.091 Y77.710 F9000.000
G1 X110.206 Y81.444 F9000.000
G1 X110.677 Y83.963 F9000.000
G1 X110.921 Y85.077 F9000.000
G1 X111.201 Y86.128 F9000.000
G1 X113.672 Y87.449 F9000.000
G1 X113.675 Y87.156 F9000.000
G1 E3.50000 F2400.00000
G1 X113.933 Y86.672 E0.05034 F900.000
G1 X114.454 Y86.037 E0.07539
G1 X115.090 Y85.515 E0.07539
G1 X115.814 Y85.128 E0.07539
G1 X116.600 Y84.890 E0.07539
G1 X117.378 Y84.813 E0.07168 F900.000
G1 X118.230 Y84.888 E0.07848
G1 X119.022 Y85.128 E0.07594
G1 X119.747 Y85.515 E0.07539
G1 X120.382 Y86.037 E0.07539
G1 X120.903 Y86.672 E0.07539
G1 X121.290 Y87.396 E0.07539
G1 X121.529 Y88.183 E0.07539
G1 X121.610 Y89.000 E0.07539
G1 X121.529 Y89.818 E0.07539
G1 X121.290 Y90.604 E0.07539
G1 X120.903 Y91.329 E0.07539
G1 X120.382 Y91.964 E0.07539
G1 X119.747 Y92.485 E0.07539
G1 X119.022 Y92.873 E0.07539
G1 X118.236 Y93.111 E0.07539
G1 X117.418 Y93.192 E0.07539
G1 X116.600 Y93.111 E0.07539
G1 X115.814 Y92.873 E0.07539
G1 X115.090 Y92.485 E0.07539
G1 X114.454 Y91.964 E0.07539
G1 X113.933 Y91.329 E0.07539
G1 X113.546 Y90.604 E0.07539
G1 X113.307 Y89.818 E0.07539
G1 X113.227 Y89.000 E0.07539
G1 X113.307 Y88.183 E0.07539
G1 X113.546 Y87.396 E0.07539
G1 X113.639 Y87.222 E0.01816
G1 X114.323 Y87.503 F9000.000
G1 X114.548 Y87.082 E0.04370 F900.000
G1 X114.977 Y86.559 E0.06209
G1 X115.500 Y86.130 E0.06209
G1 X116.097 Y85.811 E0.06209
G1 X116.745 Y85.615 E0.06209
G1 X117.382 Y85.552 E0.05875 F900.000
G1 X118.090 Y85.614 E0.06518
G1 X118.739 Y85.811 E0.06229
G1 X119.336 Y86.130 E0.06209
G1 X119.859 Y86.559 E0.06209
G1 X120.289 Y87.082 E0.06209
G1 X120.608 Y87.679 E0.06209
G1 X120.804 Y88.327 E0.06209
G1 X120.870 Y89.000 E0.06209
G1 X120.804 Y89.674 E0.06209
G1 X120.608 Y90.322 E0.06209
G1 X120.289 Y90.918 E0.06209
G1 X119.859 Y91.441 E0.06209
G1 X119.336 Y91.871 E0.06209
G1 X118.739 Y92.190 E0.06209
G1 X118.092 Y92.386 E0.06209
G1 X117.418 Y92.453 E0.06209
G1 X116.745 Y92.386 E0.06209
G1 X116.097 Y92.190 E0.06209
G1 X115.500 Y91.871 E0.06209
G1 X114.977 Y91.441 E0.06209
G1 X114.548 Y90.918 E0.06209
G1 X114.229 Y90.322 E0.06209
G1 X114.032 Y89.674 E0.06209
G1 X113.966 Y89.000 E0.06209
G1 X114.032 Y88.327 E0.06209
G1 X114.229 Y87.679 E0.06209
G1 X114.288 Y87.569 E0.01151
G1 X114.072 Y87.098 F9000.000
G1 E-3.50000 F2400.00000
G1 X118.970 Y92.747 F9000.000
G1 X123.916 Y98.882 F9000.000
G1 X125.265 Y102.070 F9000.000
G1 X129.105 Y104.472 F9000.000
G1 X127.871 Y110.504 F9000.000
G1 X127.981 Y110.388 F9000.000
G1 E3.50000 F2400.00000
G1 X129.200 Y115.140 E0.45016 F900.000
G1 X125.792 Y118.819 E0.46005
G1 X121.023 Y117.843 E0.44663
G1 X119.805 Y113.091 E0.45016
G1 X123.212 Y109.412 E0.46005
G1 X127.908 Y110.373 E0.43974
G1 X127.383 Y111.016 F9000.000
G1 X128.388 Y114.935 E0.37115 F900.000
G1 X125.534 Y118.015 E0.38526
G1 X121.622 Y117.215 E0.36641
G1 X120.617 Y113.296 E0.37115
G1 X123.470 Y110.216 E0.38526
G1 X127.309 Y111.001 E0.35953
G1 X127.880 Y110.966 F9000.000
G1 X130.441 Y127.390 F9000.000
G1 X80.392 Y135.262 E4.64847 F900.000
G1 X63.434 Y118.304 E2.20030
G1 X81.641 Y71.025 E4.64842
G1 X104.805 Y64.818 E2.20029
G1 X136.648 Y104.226 E4.64849
G1 X130.460 Y127.318 E2.19341
G1 X131.028 Y128.042 F9000.000
G1 X80.136 Y136.046 E4.72670 F900.000
G1 X62.576 Y118.486 E2.27852
G1 X81.089 Y70.411 E4.72665
G1 X105.077 Y63.984 E2.27852
G1 X137.455 Y104.055 E4.72671
G1 X131.047 Y127.970 E2.27164
G1 X130.590 Y127.800 F9000.000
G1 X122.240 Y87.700 F9000.000
G1 X121.919 Y87.101 E0.13013 F600.000
G1 X121.399 Y86.316 E0.18048
G1 X120.799 Y85.586 E0.18099
G1 X120.165 Y84.948 E0.17214
G1 X119.695 Y84.555 E0.11738
G1 X119.297 Y84.431 F9000.000
G1 X101.105 Y66.239 E2.37191 F900.000
G1 X104.865 Y65.817 F9000.000
G1 X104.402 Y65.355 E0.06028 F900.000
G1 X103.578 Y65.576 E0.07868
G1 X109.264 Y71.262 E0.74137
G1 X113.664 Y76.707 F9000.000
G1 X102.753 Y65.797 E1.42246 F900.000
G1 X101.929 Y66.018 E0.07868
G1 X118.063 Y82.152 E2.10354
G1 X118.245 Y84.424 F9000.000
G1 X100.280 Y66.460 E2.34214 F900.000
G1 X99.456 Y66.680 E0.07868
G1 X117.172 Y84.397 E2.30978
G1 X116.286 Y84.556 E0.08299
G1 X98.631 Y66.901 E2.30175
G1 X97.807 Y67.122 E0.07868
G1 X115.522 Y84.837 E2.30965
G1 X114.851 Y85.212 E0.07082
G1 X96.983 Y67.343 E2.32969
G1 X96.158 Y67.564 E0.07868
G1 X114.277 Y85.683 E2.36233
G1 X113.789 Y86.240 E0.06829
G1 X95.334 Y67.785 E2.40611
G1 X94.509 Y68.006 E0.07868
G1 X98.964 Y72.460 E0.58072
G1 X97.611 Y72.152 E0.12790
G1 X93.685 Y68.227 E0.51183
G1 X92.860 Y68.448 E0.07868
G1 X96.258 Y71.845 E0.44293
G1 X94.905 Y71.537 E0.12790
G1 X92.036 Y68.669 E0.37403
G1 X91.212 Y68.889 E0.07868
G1 X94.304 Y71.982 E0.40320
G1 X93.776 Y72.499 E0.06815
G1 X90.387 Y69.110 E0.44181
G1 X89.563 Y69.331 E0.07868
G1 X93.248 Y73.016 E0.48042
G1 X92.719 Y73.533 E0.06815
G1 X88.738 Y69.552 E0.51903
G1 X87.914 Y69.773 E0.07868
G1 X92.191 Y74.050 E0.55763
G1 X91.663 Y74.567 E0.06815
G1 X87.090 Y69.994 E0.59624
G1 X86.265 Y70.215 E0.07868
G1 X91.135 Y75.084 E0.63485
G1 X90.939 Y75.934 F9000.000
G1 X85.441 Y70.436 E0.71680 F900.000
G1 X84.616 Y70.657 E0.07868
G1 X91.461 Y77.502 E0.89244
G1 X91.984 Y79.070 F9000.000
G1 X83.792 Y70.878 E1.06807 F900.000
G1 X82.968 Y71.098 E0.07868
G1 X96.896 Y85.027 E1.81592
G1 X96.001 Y85.177 E0.08367
G1 X82.143 Y71.319 E1.80671
G1 X81.721 Y71.942 E0.06938
G1 X95.153 Y85.375 E1.75128
G1 X94.334 Y85.601 E0.07834
G1 X81.430 Y72.697 E1.68238
G1 X81.139 Y73.452 E0.07456
G1 X93.539 Y85.851 E1.61657
G1 X92.779 Y86.137 E0.07481
G1 X80.849 Y74.206 E1.55544
G1 X80.558 Y74.961 E0.07456
G1 X92.046 Y86.449 E1.49777
G1 X91.329 Y86.777 E0.07272
G1 X80.267 Y75.716 E1.44212
G1 X79.977 Y76.470 E0.07456
G1 X90.647 Y87.141 E1.39116
G1 X89.983 Y87.522 E0.07058
G1 X79.686 Y77.225 E1.34251
G1 X79.396 Y77.980 E0.07456
G1 X89.339 Y87.923 E1.29637
G1 X88.725 Y88.354 E0.06918
G1 X79.105 Y78.734 E1.25417
G1 X78.814 Y79.489 E0.07456
G1 X88.123 Y88.797 E1.21358
G1 X87.548 Y89.268 E0.06847
G1 X78.524 Y80.244 E1.17662
G1 X78.233 Y80.998 E0.07456
G1 X86.993 Y89.758 E1.14208
G1 X86.453 Y90.264 E0.06818
G1 X77.942 Y81.753 E1.10960
G1 X77.652 Y82.508 E0.07456
G1 X85.943 Y90.799 E1.08101
G1 X85.445 Y91.346 E0.06821
G1 X77.361 Y83.262 E1.05390
G1 X77.071 Y84.017 E0.07456
G1 X84.974 Y91.920 E1.03036
G1 X84.521 Y92.513 E0.06876
G1 X76.780 Y84.772 E1.00929
G1 X76.489 Y85.527 E0.07456
G1 X84.085 Y93.122 E0.99029
G1 X83.680 Y93.763 E0.06986
G1 X76.199 Y86.281 E0.97544
G1 X75.908 Y87.036 E0.07456
G1 X83.290 Y94.417 E0.96237
G1 X82.925 Y95.099 E0.07121
G1 X75.617 Y87.791 E0.95279
G1 X75.327 Y88.545 E0.07456
G1 X82.587 Y95.805 E0.94656
G1 X82.266 Y96.529 E0.07302
G1 X75.036 Y89.300 E0.94253
G1 X74.746 Y90.055 E0.07456
G1 X81.980 Y97.289 E0.94316
G1 X81.719 Y98.073 E0.07622
G1 X74.455 Y90.809 E0.94706
G1 X74.164 Y91.564 E0.07456
G1 X81.481 Y98.881 E0.95393
G1 X81.283 Y99.728 E0.08024
G1 X73.874 Y92.319 E0.96606
G1 X73.583 Y93.073 E0.07456
G1 X81.122 Y100.612 E0.98291
G1 X80.991 Y101.527 E0.08515
G1 X73.292 Y93.828 E1.00372
G1 X73.002 Y94.583 E0.07456
G1 X80.901 Y102.482 E1.02982
G1 X80.867 Y103.494 E0.09336
G1 X72.711 Y95.337 E1.06339
G1 X72.421 Y96.092 E0.07456
G1 X80.892 Y104.563 E1.10442
G1 X80.982 Y105.699 E0.10500
G1 X72.130 Y96.847 E1.15406
G1 X71.839 Y97.602 E0.07456
G1 X81.155 Y106.917 E1.21451
G1 X81.435 Y108.243 E0.12492
G1 X71.549 Y98.356 E1.28896
G1 X71.258 Y99.111 E0.07456
G1 X81.860 Y109.713 E1.38229
G1 X82.562 Y111.460 F9000.000
G1 X70.967 Y99.866 E1.51170 F900.000
G1 X70.677 Y100.620 E0.07456
G1 X83.789 Y113.733 E1.70958
G1 X81.926 Y117.095 F9000.000
G1 X97.041 Y132.211 E1.97071 F900.000
G1 X97.944 Y132.069 E0.08430
G1 X69.514 Y103.639 E3.70661
G1 X69.805 Y102.884 E0.07456
G1 X98.847 Y131.927 E3.78648
G1 X99.751 Y131.785 E0.08430
G1 X70.096 Y102.130 E3.86635
G1 X70.386 Y101.375 E0.07456
G1 X100.654 Y131.643 E3.94622
G1 X101.557 Y131.501 E0.08430
G1 X89.328 Y119.271 E1.59447
G1 X91.604 Y120.502 F9000.000
G1 X102.460 Y131.359 E1.41543 F900.000
G1 X103.364 Y131.217 E0.08430
G1 X93.346 Y121.199 E1.30612
G1 X94.822 Y121.629 E0.14175
G1 X104.267 Y131.074 E1.23144
