; generated by Slic3r 1.2.9 on 2017-10-25 at 00:58:57

; external perimeters extrusion width = 0.50mm
; perimeters extrusion width = 0.50mm
; infill extrusion width = 0.50mm
; solid infill extrusion width = 0.50mm
; top infill extrusion width = 0.50mm

M107
M190 S57 ; set bed temperature
G28 ; home all axes
M83;
G10 P0 S195 R160                       ; Set tool 0 operating and standby temperatures
T0

G21 ; set units to millimeters
G90 ; use absolute coordinates
M83 ; use relative distances for extrusion
G1 E-3.50000 F2400.00000
G1 Z0.300 F9000.000
G1 X8.588 Y8.391 F9000.000
G1 E3.50000 F2400.00000
G1 X9.939 Y7.519 E0.14754 F1200.000
G1 X26.152 Y0.803 E1.61016
G1 X28.002 Y0.465 E0.17255
G1 X30.589 Y1.390 E0.25207
G1 X71.826 Y33.106 E4.77312 F1200.000
G1 X72.495 Y33.740 E0.08462
G1 X198.468 Y180.733 E17.76172
G1 X199.364 Y182.386 E0.17255
G1 X199.525 Y184.060 E0.15428
G1 X198.544 Y194.510 E0.96303
G1 X197.979 Y196.304 E0.17255
G1 X196.725 Y197.706 E0.17255
G1 X194.510 Y198.544 E0.21729
G1 X184.060 Y199.525 E0.96303
G1 X182.192 Y199.303 E0.17255
G1 X180.733 Y198.468 E0.15427
G1 X33.740 Y72.495 E17.76172
G1 X33.106 Y71.826 E0.08462
G1 X1.390 Y30.589 E4.77312
G1 X0.582 Y28.891 E0.17255
G1 X0.803 Y26.152 E0.25207
G1 X7.519 Y9.939 E1.61016
G1 X8.545 Y8.453 E0.16567
G1 X9.199 Y8.832 F9000.000
G1 X10.220 Y8.199 E0.11025 F1200.000
G1 X26.434 Y1.483 E1.61016
G1 X28.129 Y1.208 E0.15755
G1 X30.141 Y1.973 E0.19750
G1 X71.378 Y33.689 E4.77312 F1200.000
G1 X71.937 Y34.219 E0.07070
G1 X197.910 Y181.211 E17.76172
G1 X198.697 Y182.737 E0.15755
G1 X198.792 Y183.991 E0.11540
G1 X197.812 Y194.442 E0.96303
G1 X197.263 Y196.069 E0.15755
G1 X196.044 Y197.278 E0.15755
G1 X194.442 Y197.812 E0.15495
G1 X183.991 Y198.792 E0.96303
G1 X182.291 Y198.556 E0.15755
G1 X181.211 Y197.910 E0.11539
G1 X34.219 Y71.937 E17.76172
G1 X33.689 Y71.378 E0.07070
G1 X1.973 Y30.141 E4.77312
G1 X1.267 Y28.575 E0.15755
G1 X1.483 Y26.434 E0.19750
G1 X8.199 Y10.220 E1.61016
G1 X9.155 Y8.893 E0.15013
G1 E-3.50000 F2400.00000
G1 X117.198 Y117.198 F9000.000
G1 E3.50000 F2400.00000
G1 X117.630 Y116.794 E0.05424 F900.000
G1 X118.087 Y116.419 E0.05423
G1 X118.567 Y116.075 E0.05423
G1 X119.069 Y115.763 E0.05424
G1 X119.590 Y115.484 E0.05423
G1 X120.129 Y115.240 E0.05424
G1 X120.682 Y115.032 E0.05424
G1 X121.248 Y114.860 E0.05423
G1 X121.823 Y114.726 E0.05424
G1 X122.407 Y114.630 E0.05424
G1 X122.995 Y114.572 E0.05423
G1 X123.575 Y114.553 E0.05323 F900.000
G1 X124.320 Y114.576 E0.06838
G1 X125.321 Y114.720 E0.09279
G1 X125.924 Y114.860 E0.05680
G1 X126.478 Y115.029 E0.05320
G1 X127.041 Y115.239 E0.05511
G1 X127.581 Y115.484 E0.05440
G1 X128.092 Y115.757 E0.05320
G1 X128.603 Y116.074 E0.05511
G1 X129.085 Y116.419 E0.05440
G1 X129.542 Y116.794 E0.05423
G1 X129.973 Y117.198 E0.05424
G1 X130.377 Y117.630 E0.05423
G1 X130.745 Y118.078 E0.05320
G1 X131.096 Y118.566 E0.05510
G1 X131.409 Y119.069 E0.05440
G1 X131.687 Y119.590 E0.05424
G1 X131.931 Y120.129 E0.05424
G1 X132.140 Y120.682 E0.05423
G1 X132.311 Y121.248 E0.05424
G1 X132.445 Y121.823 E0.05423
G1 X132.542 Y122.407 E0.05424
G1 X132.600 Y122.995 E0.05424
G1 X132.619 Y123.586 E0.05424
G1 X132.600 Y124.176 E0.05423
G1 X132.543 Y124.753 E0.05320
G1 X132.446 Y125.346 E0.05510
G1 X132.311 Y125.924 E0.05441
G1 X132.140 Y126.489 E0.05423
G1 X131.931 Y127.042 E0.05423
G1 X131.687 Y127.581 E0.05424
G1 X131.409 Y128.102 E0.05424
G1 X131.097 Y128.604 E0.05423
G1 X130.752 Y129.085 E0.05424
G1 X130.377 Y129.542 E0.05424
G1 X129.973 Y129.973 E0.05423
G1 X129.542 Y130.377 E0.05423
G1 X129.094 Y130.745 E0.05320
G1 X128.606 Y131.096 E0.05511
G1 X128.102 Y131.409 E0.05440
G1 X127.581 Y131.687 E0.05424
G1 X127.042 Y131.931 E0.05424
G1 X126.489 Y132.140 E0.05423
G1 X125.924 Y132.311 E0.05423
G1 X125.348 Y132.445 E0.05424
G1 X124.765 Y132.542 E0.05423
G1 X124.176 Y132.600 E0.05424
G1 X123.586 Y132.619 E0.05424
G1 X122.995 Y132.600 E0.05423
G1 X122.418 Y132.543 E0.05320
G1 X121.825 Y132.446 E0.05510
G1 X121.248 Y132.311 E0.05440
G1 X120.693 Y132.143 E0.05320
G1 X120.131 Y131.932 E0.05510
G1 X119.590 Y131.687 E0.05441
G1 X119.069 Y131.409 E0.05424
G1 X118.567 Y131.097 E0.05423
G1 X118.087 Y130.752 E0.05424
G1 X117.630 Y130.377 E0.05423
G1 X117.198 Y129.973 E0.05424
G1 X116.794 Y129.542 E0.05423
G1 X116.426 Y129.094 E0.05320
G1 X116.076 Y128.606 E0.05511
G1 X115.763 Y128.102 E0.05440
G1 X115.484 Y127.581 E0.05423
G1 X115.240 Y127.043 E0.05423
G1 X115.032 Y126.489 E0.05424
G1 X114.860 Y125.924 E0.05423
G1 X114.726 Y125.348 E0.05423
G1 X114.630 Y124.765 E0.05424
G1 X114.572 Y124.176 E0.05423
G1 X114.552 Y123.586 E0.05423
G1 X114.572 Y122.995 E0.05424
G1 X114.629 Y122.418 E0.05319
G1 X114.726 Y121.825 E0.05510
G1 X114.860 Y121.248 E0.05441
G1 X115.032 Y120.682 E0.05423
G1 X115.240 Y120.129 E0.05424
G1 X115.484 Y119.590 E0.05424
G1 X115.757 Y119.079 E0.05320
G1 X116.074 Y118.569 E0.05510
G1 X116.419 Y118.087 E0.05441
G1 X116.794 Y117.630 E0.05423
G1 X117.147 Y117.253 E0.04735
G1 X117.719 Y117.719 F9000.000
G1 X118.115 Y117.347 E0.04982 F900.000
G1 X118.535 Y117.003 E0.04982
G1 X118.976 Y116.687 E0.04981
G1 X119.437 Y116.400 E0.04982
G1 X119.916 Y116.144 E0.04982
G1 X120.410 Y115.920 E0.04982
G1 X120.919 Y115.729 E0.04982
G1 X121.438 Y115.571 E0.04981
G1 X121.967 Y115.448 E0.04982
G1 X122.503 Y115.359 E0.04982
G1 X123.043 Y115.306 E0.04981
G1 X123.575 Y115.289 E0.04885 F900.000
G1 X124.256 Y115.310 E0.06247
G1 X125.185 Y115.443 E0.08612
G1 X125.733 Y115.571 E0.05166
G1 X126.242 Y115.726 E0.04882
G1 X126.760 Y115.919 E0.05069
G1 X127.255 Y116.144 E0.04994
G1 X127.725 Y116.395 E0.04883
G1 X128.194 Y116.686 E0.05069
G1 X128.637 Y117.003 E0.04994
G1 X129.056 Y117.347 E0.04981
G1 X129.453 Y117.719 E0.04982
G1 X129.824 Y118.115 E0.04982
G1 X130.161 Y118.526 E0.04883
G1 X130.484 Y118.975 E0.05068
G1 X130.771 Y119.437 E0.04994
G1 X131.027 Y119.916 E0.04982
G1 X131.251 Y120.410 E0.04982
G1 X131.443 Y120.919 E0.04981
G1 X131.600 Y121.438 E0.04982
G1 X131.723 Y121.967 E0.04981
G1 X131.812 Y122.503 E0.04982
G1 X131.865 Y123.043 E0.04982
G1 X131.883 Y123.586 E0.04982
G1 X131.865 Y124.128 E0.04981
G1 X131.813 Y124.658 E0.04883
G1 X131.724 Y125.203 E0.05068
G1 X131.600 Y125.733 E0.04994
G1 X131.443 Y126.253 E0.04982
G1 X131.251 Y126.761 E0.04981
G1 X131.027 Y127.255 E0.04982
G1 X130.771 Y127.734 E0.04982
G1 X130.485 Y128.195 E0.04981
G1 X130.168 Y128.637 E0.04982
G1 X129.824 Y129.056 E0.04982
G1 X129.453 Y129.453 E0.04981
G1 X129.056 Y129.824 E0.04982
G1 X128.645 Y130.161 E0.04883
G1 X128.196 Y130.484 E0.05069
G1 X127.734 Y130.771 E0.04993
G1 X127.255 Y131.027 E0.04982
G1 X126.761 Y131.251 E0.04982
G1 X126.253 Y131.443 E0.04981
G1 X125.733 Y131.600 E0.04982
G1 X125.204 Y131.723 E0.04982
G1 X124.669 Y131.812 E0.04981
G1 X124.128 Y131.865 E0.04982
G1 X123.586 Y131.883 E0.04982
G1 X123.043 Y131.865 E0.04981
G1 X122.513 Y131.813 E0.04883
G1 X121.968 Y131.724 E0.05068
G1 X121.438 Y131.600 E0.04994
G1 X120.929 Y131.446 E0.04883
G1 X120.412 Y131.252 E0.05068
G1 X119.916 Y131.027 E0.04994
G1 X119.437 Y130.771 E0.04982
G1 X118.976 Y130.485 E0.04981
G1 X118.535 Y130.168 E0.04982
G1 X118.115 Y129.824 E0.04981
G1 X117.719 Y129.453 E0.04982
G1 X117.347 Y129.056 E0.04982
G1 X117.010 Y128.645 E0.04883
G1 X116.687 Y128.196 E0.05069
G1 X116.400 Y127.734 E0.04994
G1 X116.144 Y127.255 E0.04981
G1 X115.920 Y126.761 E0.04982
G1 X115.729 Y126.253 E0.04982
G1 X115.571 Y125.733 E0.04982
G1 X115.448 Y125.204 E0.04982
G1 X115.359 Y124.669 E0.04982
G1 X115.306 Y124.128 E0.04981
G1 X115.288 Y123.586 E0.04981
G1 X115.306 Y123.043 E0.04982
G1 X115.358 Y122.513 E0.04882
G1 X115.448 Y121.968 E0.05068
G1 X115.571 Y121.438 E0.04994
G1 X115.729 Y120.919 E0.04981
G1 X115.920 Y120.410 E0.04982
G1 X116.144 Y119.916 E0.04982
G1 X116.395 Y119.447 E0.04883
G1 X116.686 Y118.977 E0.05068
G1 X117.003 Y118.535 E0.04994
G1 X117.347 Y118.115 E0.04981
G1 X117.667 Y117.773 E0.04293
G1 X118.239 Y118.239 F9000.000
G1 X118.600 Y117.901 E0.04540 F900.000
G1 X118.983 Y117.587 E0.04540
G1 X119.385 Y117.299 E0.04540
G1 X119.805 Y117.037 E0.04540
G1 X120.241 Y116.804 E0.04540
G1 X120.692 Y116.600 E0.04540
G1 X121.155 Y116.426 E0.04540
G1 X121.629 Y116.282 E0.04539
G1 X122.111 Y116.170 E0.04540
G1 X122.599 Y116.089 E0.04540
G1 X123.091 Y116.041 E0.04539
G1 X123.576 Y116.025 E0.04447 F900.000
G1 X124.192 Y116.044 E0.05656
G1 X125.049 Y116.167 E0.07945
G1 X125.543 Y116.282 E0.04652
G1 X126.006 Y116.423 E0.04445
G1 X126.478 Y116.600 E0.04627
G1 X126.930 Y116.804 E0.04547
G1 X127.357 Y117.033 E0.04446
G1 X127.786 Y117.298 E0.04626
G1 X128.189 Y117.587 E0.04547
G1 X128.571 Y117.901 E0.04539
G1 X128.932 Y118.239 E0.04540
G1 X129.270 Y118.600 E0.04540
G1 X129.578 Y118.975 E0.04446
G1 X129.872 Y119.384 E0.04626
G1 X130.134 Y119.805 E0.04547
G1 X130.367 Y120.241 E0.04540
G1 X130.571 Y120.692 E0.04540
G1 X130.746 Y121.155 E0.04539
G1 X130.889 Y121.629 E0.04540
G1 X131.002 Y122.111 E0.04540
G1 X131.082 Y122.599 E0.04540
G1 X131.131 Y123.091 E0.04540
G1 X131.147 Y123.586 E0.04540
G1 X131.131 Y124.080 E0.04539
G1 X131.083 Y124.562 E0.04446
G1 X131.002 Y125.060 E0.04626
G1 X130.889 Y125.543 E0.04547
G1 X130.746 Y126.016 E0.04540
G1 X130.571 Y126.479 E0.04539
G1 X130.367 Y126.930 E0.04540
G1 X130.134 Y127.366 E0.04540
G1 X129.873 Y127.786 E0.04539
G1 X129.584 Y128.189 E0.04540
G1 X129.270 Y128.571 E0.04540
G1 X128.932 Y128.932 E0.04540
G1 X128.571 Y129.270 E0.04540
G1 X128.197 Y129.578 E0.04446
G1 X127.787 Y129.872 E0.04627
G1 X127.366 Y130.134 E0.04547
G1 X126.930 Y130.367 E0.04540
G1 X126.479 Y130.571 E0.04540
G1 X126.016 Y130.746 E0.04539
G1 X125.543 Y130.889 E0.04540
G1 X125.061 Y131.002 E0.04540
G1 X124.573 Y131.082 E0.04540
G1 X124.080 Y131.131 E0.04540
G1 X123.586 Y131.147 E0.04540
G1 X123.091 Y131.131 E0.04540
G1 X122.609 Y131.083 E0.04446
G1 X122.111 Y131.002 E0.04626
G1 X121.629 Y130.889 E0.04547
G1 X121.165 Y130.749 E0.04445
G1 X120.693 Y130.572 E0.04626
G1 X120.241 Y130.367 E0.04547
G1 X119.805 Y130.134 E0.04540
G1 X119.385 Y129.873 E0.04540
G1 X118.983 Y129.584 E0.04540
G1 X118.600 Y129.271 E0.04540
G1 X118.239 Y128.932 E0.04540
G1 X117.901 Y128.571 E0.04540
G1 X117.593 Y128.197 E0.04446
G1 X117.299 Y127.787 E0.04627
G1 X117.037 Y127.366 E0.04547
G1 X116.804 Y126.930 E0.04539
G1 X116.600 Y126.479 E0.04540
G1 X116.426 Y126.016 E0.04540
G1 X116.282 Y125.543 E0.04540
G1 X116.170 Y125.061 E0.04540
G1 X116.089 Y124.573 E0.04540
G1 X116.041 Y124.080 E0.04540
G1 X116.024 Y123.586 E0.04540
G1 X116.041 Y123.091 E0.04540
G1 X116.088 Y122.609 E0.04445
G1 X116.170 Y122.111 E0.04626
G1 X116.282 Y121.629 E0.04547
G1 X116.426 Y121.155 E0.04540
G1 X116.600 Y120.692 E0.04540
G1 X116.804 Y120.241 E0.04540
G1 X117.033 Y119.814 E0.04446
G1 X117.298 Y119.386 E0.04626
G1 X117.587 Y118.983 E0.04547
G1 X117.901 Y118.600 E0.04540
G1 X118.188 Y118.294 E0.03851
G1 X118.760 Y118.760 F9000.000
G1 X119.085 Y118.454 E0.04098 F900.000
G1 X119.431 Y118.171 E0.04098
G1 X119.794 Y117.911 E0.04098
G1 X120.173 Y117.675 E0.04098
G1 X120.567 Y117.464 E0.04098
G1 X120.974 Y117.280 E0.04098
G1 X121.392 Y117.123 E0.04098
G1 X121.819 Y116.993 E0.04098
G1 X122.254 Y116.892 E0.04098
G1 X122.695 Y116.819 E0.04098
G1 X123.139 Y116.775 E0.04098
G1 X123.576 Y116.761 E0.04009 F900.000
G1 X124.128 Y116.778 E0.05065
G1 X124.913 Y116.891 E0.07278
G1 X125.352 Y116.993 E0.04137
G1 X125.770 Y117.120 E0.04008
G1 X126.197 Y117.280 E0.04185
G1 X126.604 Y117.464 E0.04100
G1 X126.990 Y117.670 E0.04009
G1 X127.377 Y117.911 E0.04184
G1 X127.741 Y118.171 E0.04100
G1 X128.086 Y118.454 E0.04098
G1 X128.412 Y118.760 E0.04098
G1 X128.717 Y119.085 E0.04098
G1 X128.994 Y119.423 E0.04009
G1 X129.260 Y119.794 E0.04184
G1 X129.496 Y120.173 E0.04100
G1 X129.707 Y120.567 E0.04098
G1 X129.891 Y120.974 E0.04098
G1 X130.049 Y121.392 E0.04098
G1 X130.178 Y121.819 E0.04098
G1 X130.280 Y122.254 E0.04098
G1 X130.353 Y122.695 E0.04098
G1 X130.396 Y123.139 E0.04098
G1 X130.411 Y123.586 E0.04098
G1 X130.396 Y124.032 E0.04098
G1 X130.353 Y124.467 E0.04009
G1 X130.280 Y124.917 E0.04184
G1 X130.178 Y125.352 E0.04101
G1 X130.049 Y125.780 E0.04098
G1 X129.891 Y126.198 E0.04098
G1 X129.707 Y126.604 E0.04098
G1 X129.496 Y126.998 E0.04098
G1 X129.261 Y127.378 E0.04098
G1 X129.000 Y127.741 E0.04098
G1 X128.717 Y128.086 E0.04098
G1 X128.412 Y128.412 E0.04098
G1 X128.086 Y128.717 E0.04098
G1 X127.748 Y128.994 E0.04008
G1 X127.378 Y129.260 E0.04185
G1 X126.998 Y129.496 E0.04100
G1 X126.604 Y129.707 E0.04098
G1 X126.198 Y129.891 E0.04098
G1 X125.780 Y130.049 E0.04098
G1 X125.352 Y130.178 E0.04098
G1 X124.917 Y130.280 E0.04098
G1 X124.477 Y130.353 E0.04098
G1 X124.032 Y130.396 E0.04098
G1 X123.586 Y130.411 E0.04098
G1 X123.139 Y130.396 E0.04098
G1 X122.704 Y130.353 E0.04009
G1 X122.254 Y130.280 E0.04184
G1 X121.819 Y130.178 E0.04101
G1 X121.401 Y130.052 E0.04008
G1 X120.974 Y129.891 E0.04184
G1 X120.567 Y129.707 E0.04100
G1 X120.173 Y129.496 E0.04098
G1 X119.794 Y129.261 E0.04098
G1 X119.431 Y129.000 E0.04098
G1 X119.086 Y128.717 E0.04098
G1 X118.760 Y128.412 E0.04098
G1 X118.454 Y128.086 E0.04098
G1 X118.177 Y127.748 E0.04008
G1 X117.911 Y127.378 E0.04185
G1 X117.675 Y126.998 E0.04100
G1 X117.464 Y126.604 E0.04098
G1 X117.280 Y126.198 E0.04098
G1 X117.123 Y125.780 E0.04098
G1 X116.993 Y125.352 E0.04098
G1 X116.892 Y124.917 E0.04098
G1 X116.819 Y124.477 E0.04098
G1 X116.775 Y124.032 E0.04098
G1 X116.760 Y123.586 E0.04098
G1 X116.775 Y123.139 E0.04098
G1 X116.818 Y122.705 E0.04008
G1 X116.892 Y122.254 E0.04184
G1 X116.993 Y121.819 E0.04101
G1 X117.123 Y121.392 E0.04098
G1 X117.280 Y120.974 E0.04098
G1 X117.464 Y120.567 E0.04098
G1 X117.670 Y120.182 E0.04008
G1 X117.911 Y119.794 E0.04184
G1 X118.171 Y119.431 E0.04101
G1 X118.454 Y119.085 E0.04098
G1 X118.708 Y118.814 E0.03409
G1 X118.649 Y118.327 F9000.000
G1 X64.123 Y64.123 F9000.000
G1 X63.558 Y64.662 E0.07164 F900.000
G1 X62.967 Y65.172 E0.07164
G1 X62.351 Y65.652 E0.07164
G1 X61.713 Y66.102 E0.07164
G1 X61.053 Y66.519 E0.07164
G1 X60.374 Y66.904 E0.07164
G1 X59.676 Y67.255 E0.07164
G1 X58.962 Y67.572 E0.07164
G1 X58.234 Y67.853 E0.07164
G1 X57.493 Y68.098 E0.07164
G1 X56.740 Y68.306 E0.07164
G1 X55.978 Y68.477 E0.07164
G1 X55.209 Y68.610 E0.07164
G1 X54.434 Y68.706 E0.07164
G1 X53.655 Y68.763 E0.07164
G1 X52.875 Y68.783 E0.07162
G1 X52.094 Y68.763 E0.07164
G1 X51.316 Y68.706 E0.07164
G1 X50.541 Y68.610 E0.07164
G1 X49.772 Y68.477 E0.07164
G1 X49.010 Y68.306 E0.07164
G1 X48.257 Y68.098 E0.07164
G1 X47.516 Y67.853 E0.07164
G1 X46.787 Y67.572 E0.07164
G1 X46.074 Y67.255 E0.07164
G1 X45.376 Y66.904 E0.07164
G1 X44.697 Y66.519 E0.07164
G1 X44.037 Y66.102 E0.07164
G1 X43.399 Y65.652 E0.07164
G1 X42.783 Y65.172 E0.07164
G1 X42.192 Y64.662 E0.07164
G1 X41.627 Y64.123 E0.07164
G1 X41.088 Y63.558 E0.07164
G1 X40.578 Y62.967 E0.07164
G1 X40.098 Y62.351 E0.07164
G1 X39.648 Y61.713 E0.07164
G1 X39.231 Y61.053 E0.07164
G1 X38.846 Y60.374 E0.07164
G1 X38.495 Y59.676 E0.07164
G1 X38.178 Y58.963 E0.07164
G1 X37.897 Y58.234 E0.07164
G1 X37.652 Y57.493 E0.07164
G1 X37.444 Y56.740 E0.07164
G1 X37.273 Y55.978 E0.07164
G1 X37.140 Y55.209 E0.07164
G1 X37.044 Y54.434 E0.07164
G1 X36.987 Y53.656 E0.07164
G1 X36.967 Y52.875 E0.07164
G1 X36.987 Y52.094 E0.07164
G1 X37.044 Y51.316 E0.07164
G1 X37.140 Y50.541 E0.07164
G1 X37.273 Y49.772 E0.07164
G1 X37.444 Y49.010 E0.07164
G1 X37.652 Y48.257 E0.07164
G1 X37.897 Y47.516 E0.07164
G1 X38.178 Y46.787 E0.07164
G1 X38.495 Y46.074 E0.07164
G1 X38.846 Y45.376 E0.07164
G1 X39.231 Y44.697 E0.07164
G1 X39.648 Y44.037 E0.07164
G1 X40.098 Y43.399 E0.07164
G1 X40.578 Y42.783 E0.07164
G1 X41.088 Y42.192 E0.07164
G1 X41.627 Y41.627 E0.07164
G1 X42.192 Y41.088 E0.07164
G1 X42.783 Y40.578 E0.07164
G1 X43.399 Y40.098 E0.07164
G1 X44.037 Y39.648 E0.07164
G1 X44.697 Y39.231 E0.07164
G1 X45.376 Y38.846 E0.07164
G1 X46.074 Y38.495 E0.07164
G1 X46.787 Y38.178 E0.07164
G1 X47.516 Y37.897 E0.07164
G1 X48.257 Y37.652 E0.07164
G1 X49.010 Y37.444 E0.07164
G1 X49.772 Y37.273 E0.07164
G1 X50.541 Y37.140 E0.07164
G1 X51.316 Y37.044 E0.07164
G1 X52.094 Y36.987 E0.07156
G1 X52.839 Y36.968 E0.06838 F900.000
G1 X53.653 Y36.986 E0.07475
