; generated by Slic3r 1.2.9 on 2017-09-25 at 21:09:02

; external perimeters extrusion width = 0.50mm
; perimeters extrusion width = 0.50mm
; infill extrusion width = 0.50mm
; solid infill extrusion width = 0.50mm
; top infill extrusion width = 0.50mm

M107
M190 S57 ; set bed temperature
G28 ; home all axes
M83;
G10 P0 S195 R160                       ; Set tool 0 operating and standby temperatures
T0

G21 ; set units to millimeters
G90 ; use absolute coordinates
M83 ; use relative distances for extrusion
G1 E-3.50000 F2400.00000
G1 Z0.300 F9000.000
G1 X40.125 Y90.758 F9000.000
G1 E3.50000 F2400.00000
G1 X40.973 Y90.407 E0.08418 F1200.000
G1 X42.468 Y89.909 E0.14457
G1 X42.944 Y89.770 E0.04557
G1 X45.242 Y89.203 E0.21711
G1 X48.055 Y88.649 E0.26309
G1 X149.065 Y73.662 E9.36917
G1 X151.331 Y73.727 E0.20795
G1 X152.909 Y74.275 E0.15328 F1200.000
G1 X162.782 Y79.212 E1.01273
G1 X164.600 Y80.565 E0.20795
G1 X165.840 Y82.462 E0.20795
G1 X166.359 Y85.000 E0.23768
G1 X166.359 Y115.000 E2.75257
G1 X165.962 Y117.232 E0.20795
G1 X164.820 Y119.190 E0.20795
G1 X162.782 Y120.788 E0.23768
G1 X152.909 Y125.725 E1.01273
G1 X150.736 Y126.368 E0.20795
G1 X149.065 Y126.338 E0.15328
G1 X48.055 Y111.351 E9.36917
G1 X44.941 Y110.729 E0.29133
G1 X42.944 Y110.230 E0.18886
G1 X42.468 Y110.091 E0.04557
G1 X40.973 Y109.593 E0.14457
G1 X40.125 Y109.242 E0.08418
G1 X39.136 Y108.747 E0.10151
G1 X37.454 Y107.535 E0.19016
G1 X36.463 Y106.544 E0.12861
G1 X35.654 Y105.558 E0.11701
G1 X34.666 Y104.074 E0.16356
G1 X33.758 Y101.998 E0.20795
G1 X33.579 Y100.485 E0.13977
G1 X33.579 Y99.515 E0.08897
G1 X33.976 Y97.284 E0.20795
G1 X34.665 Y95.926 E0.13974
G1 X35.654 Y94.442 E0.16358
G1 X36.463 Y93.456 E0.11701
G1 X37.454 Y92.465 E0.12856
G1 X39.136 Y91.253 E0.19021
G1 X40.058 Y90.792 E0.09463
G1 X40.454 Y91.416 F9000.000
G1 X41.205 Y91.105 E0.07461 F1200.000
G1 X42.700 Y90.607 E0.14457
G1 X43.123 Y90.484 E0.04039
G1 X45.386 Y89.925 E0.21390
G1 X48.163 Y89.376 E0.25971
G1 X149.173 Y74.390 E9.36917
G1 X151.304 Y74.475 E0.19568
G1 X152.580 Y74.933 E0.12439 F1200.000
G1 X162.453 Y79.870 E1.01273
G1 X164.150 Y81.161 E0.19568
G1 X165.257 Y82.984 E0.19568
G1 X165.623 Y85.000 E0.18797
G1 X165.623 Y115.000 E2.75257
G1 X165.227 Y117.096 E0.19568
G1 X164.092 Y118.902 E0.19568
G1 X162.453 Y120.130 E0.18797
G1 X152.580 Y125.067 E1.01273
G1 X150.528 Y125.649 E0.19568
G1 X149.173 Y125.610 E0.12439
G1 X48.163 Y110.624 E9.36917
G1 X45.120 Y110.016 E0.28474
G1 X43.123 Y109.516 E0.18886
G1 X42.700 Y109.393 E0.04039
G1 X41.205 Y108.895 E0.14457
G1 X40.454 Y108.584 E0.07461
G1 X39.465 Y108.089 E0.10151
G1 X37.974 Y107.015 E0.16854
G1 X36.983 Y106.024 E0.12860
G1 X36.267 Y105.150 E0.10371
G1 X35.278 Y103.666 E0.16356
G1 X34.445 Y101.703 E0.19568
G1 X34.314 Y100.485 E0.11240
G1 X34.314 Y99.515 E0.08897
G1 X34.711 Y97.420 E0.19568
G1 X35.278 Y96.334 E0.11238
G1 X36.267 Y94.850 E0.16358
G1 X36.983 Y93.976 E0.10371
G1 X37.974 Y92.985 E0.12856
G1 X39.465 Y91.911 E0.16859
G1 X40.387 Y91.450 E0.09463
G1 E-3.50000 F2400.00000
G1 X125.704 Y100.000 F9000.000
G1 E3.50000 F2400.00000
G1 X155.704 Y115.000 E3.07736 F900.000
G1 X150.015 Y117.845 E0.58353
G1 X120.431 Y103.052 E3.03475
G1 X119.376 Y103.079 E0.09681
G1 X49.190 Y103.079 E6.43958
G1 X46.922 Y102.625 E0.21227
G1 X45.038 Y102.154 E0.17818
G1 X43.741 Y101.722 E0.12540
G1 X43.130 Y101.413 E0.06280
G1 X42.493 Y100.776 E0.08266
G1 X41.976 Y100.000 E0.08558
G1 X42.493 Y99.224 E0.08557
G1 X43.138 Y98.579 E0.08370
G1 X43.737 Y98.279 E0.06145
G1 X45.038 Y97.846 E0.12577
G1 X46.922 Y97.375 E0.17818
G1 X49.190 Y96.921 E0.21227
G1 X119.376 Y96.921 E6.43958
G1 X120.431 Y96.948 E0.09681
G1 X150.015 Y82.155 E3.03475
G1 X155.704 Y85.000 E0.58353
G1 X125.771 Y99.966 E3.07048
G1 X127.349 Y100.000 F9000.000
G1 X157.348 Y115.000 E3.07736 F900.000
G1 X150.015 Y118.667 E0.75226
G1 X120.266 Y103.792 E3.05168
G1 X119.385 Y103.814 E0.08083
G1 X49.117 Y103.814 E6.44711
G1 X46.760 Y103.343 E0.22056
G1 X44.832 Y102.861 E0.18238
G1 X43.457 Y102.403 E0.13293
G1 X42.693 Y102.017 E0.07855
G1 X41.921 Y101.245 E0.10015
G1 X41.186 Y100.141 E0.12170
G1 X41.186 Y99.859 E0.02588
G1 X41.921 Y98.755 E0.12170
G1 X42.702 Y97.974 E0.10133
G1 X43.455 Y97.598 E0.07720
G1 X44.832 Y97.139 E0.13316
G1 X46.760 Y96.657 E0.18238
G1 X49.117 Y96.186 E0.22056
G1 X119.385 Y96.186 E6.44711
G1 X120.266 Y96.208 E0.08083
G1 X150.015 Y81.333 E3.05167
G1 X157.348 Y85.000 E0.75226
G1 X127.416 Y99.966 E3.07048
G1 X128.994 Y100.000 F9000.000
G1 X158.993 Y115.000 E3.07736 F900.000
G1 X150.015 Y119.489 E0.92099
G1 X120.101 Y104.532 E3.06860
G1 X119.394 Y104.550 E0.06484
G1 X49.045 Y104.550 E6.45463
G1 X46.599 Y104.061 E0.22885
G1 X44.626 Y103.568 E0.18658
G1 X43.173 Y103.084 E0.14047
G1 X42.256 Y102.620 E0.09430
G1 X41.350 Y101.713 E0.11763
G1 X40.450 Y100.364 E0.14882
G1 X40.450 Y99.636 E0.06675
G1 X41.350 Y98.287 E0.14882
G1 X42.267 Y97.370 E0.11897
G1 X43.173 Y96.917 E0.09295
G1 X44.626 Y96.432 E0.14055
G1 X46.599 Y95.939 E0.18658
G1 X49.045 Y95.450 E0.22885
G1 X119.394 Y95.450 E6.45463
G1 X120.101 Y95.468 E0.06484
G1 X150.015 Y80.511 E3.06860
G1 X158.993 Y85.000 E0.92099
G1 X129.061 Y99.966 E3.07048
G1 X128.680 Y100.389 F9000.000
G1 X128.239 Y101.866 F9000.000
G1 X137.222 Y110.850 E1.17331 F900.000
G1 X135.128 Y109.802 F9000.000
G1 X126.144 Y100.819 E1.17332 F900.000
G1 X125.157 Y99.831 F9000.000
G1 X121.954 Y96.628 E0.41829 F900.000
G1 X122.652 Y96.279 E0.07208
G1 X125.855 Y99.482 E0.41828
G1 X126.553 Y99.133 E0.07208
G1 X123.350 Y95.930 E0.41828
G1 X124.048 Y95.581 E0.07208
G1 X127.251 Y98.784 E0.41828
G1 X127.949 Y98.435 E0.07208
G1 X124.746 Y95.232 E0.41828
G1 X125.445 Y94.883 E0.07208
G1 X128.647 Y98.086 E0.41828
G1 X129.345 Y97.737 E0.07208
G1 X126.143 Y94.534 E0.41828
G1 X126.841 Y94.185 E0.07208
G1 X130.043 Y97.388 E0.41828
G1 X130.741 Y97.039 E0.07208
G1 X127.539 Y93.836 E0.41827
G1 X128.237 Y93.487 E0.07208
G1 X131.440 Y96.690 E0.41827
G1 X132.138 Y96.341 E0.07208
G1 X128.935 Y93.138 E0.41827
G1 X129.633 Y92.789 E0.07208
G1 X132.836 Y95.992 E0.41827
G1 X133.534 Y95.642 E0.07208
G1 X130.331 Y92.440 E0.41827
G1 X131.029 Y92.091 E0.07208
G1 X134.232 Y95.293 E0.41827
G1 X134.930 Y94.944 E0.07208
G1 X131.727 Y91.742 E0.41827
G1 X132.426 Y91.393 E0.07208
G1 X135.628 Y94.595 E0.41826
G1 X136.326 Y94.246 E0.07208
G1 X133.124 Y91.044 E0.41826
G1 X133.822 Y90.695 E0.07208
G1 X137.024 Y93.897 E0.41826
G1 X137.722 Y93.548 E0.07208
G1 X134.520 Y90.346 E0.41826
G1 X135.218 Y89.997 E0.07208
G1 X138.420 Y93.199 E0.41826
G1 X139.118 Y92.850 E0.07208
G1 X135.916 Y89.648 E0.41826
G1 X136.614 Y89.298 E0.07208
G1 X139.817 Y92.501 E0.41826
G1 X140.515 Y92.152 E0.07208
G1 X137.312 Y88.949 E0.41826
G1 X138.010 Y88.600 E0.07208
G1 X141.213 Y91.803 E0.41825
G1 X141.911 Y91.454 E0.07208
G1 X138.708 Y88.251 E0.41825
G1 X139.407 Y87.902 E0.07208
G1 X142.609 Y91.105 E0.41825
G1 X143.307 Y90.756 E0.07208
G1 X140.105 Y87.553 E0.41825
G1 X140.803 Y87.204 E0.07208
G1 X144.005 Y90.407 E0.41825
G1 X144.703 Y90.057 E0.07208
G1 X141.501 Y86.855 E0.41825
G1 X142.199 Y86.506 E0.07208
G1 X145.401 Y89.708 E0.41825
G1 X146.099 Y89.359 E0.07208
G1 X142.897 Y86.157 E0.41824
G1 X143.595 Y85.808 E0.07208
G1 X146.797 Y89.010 E0.41824
G1 X147.496 Y88.661 E0.07208
G1 X144.293 Y85.459 E0.41824
G1 X144.991 Y85.110 E0.07208
G1 X148.194 Y88.312 E0.41824
G1 X148.892 Y87.963 E0.07208
G1 X145.689 Y84.761 E0.41824
G1 X146.388 Y84.412 E0.07208
G1 X149.590 Y87.614 E0.41824
G1 X150.288 Y87.265 E0.07208
G1 X147.086 Y84.063 E0.41824
G1 X147.784 Y83.714 E0.07208
G1 X150.986 Y86.916 E0.41823
G1 X151.684 Y86.567 E0.07208
G1 X148.482 Y83.365 E0.41823
G1 X149.180 Y83.016 E0.07208
G1 X152.382 Y86.218 E0.41823
G1 X153.080 Y85.869 E0.07208
G1 X149.916 Y82.705 E0.41326
G1 X152.010 Y83.752 F9000.000
G1 X153.778 Y85.520 E0.23090 F900.000
G1 X154.105 Y84.799 E0.07307
G1 X154.476 Y85.171 E0.04855
G1 X126.125 Y96.945 F9000.000
G1 X126.125 Y103.055 F9000.000
G1 X150.015 Y115.000 F9000.000
G1 X142.899 Y109.197 F9000.000
G1 X150.741 Y117.039 E1.02422 F900.000
G1 X151.440 Y116.690 E0.07208
G1 X144.994 Y110.244 E0.84186
G1 X147.088 Y111.291 F9000.000
G1 X152.138 Y116.341 E0.65949 F900.000
G1 X152.836 Y115.992 E0.07208
G1 X149.183 Y112.338 E0.47713
G1 X151.277 Y113.386 F9000.000
G1 X153.534 Y115.643 E0.29477 F900.000
G1 X154.232 Y115.293 E0.07208
G1 X153.371 Y114.433 E0.11241
G1 X149.788 Y117.132 F9000.000
G1 X140.805 Y108.149 E1.17324 F900.000
G1 X138.711 Y107.102 F9000.000
G1 X147.694 Y116.085 E1.17325 F900.000
G1 X145.599 Y115.038 F9000.000
G1 X136.616 Y106.055 E1.17326 F900.000
G1 X134.522 Y105.008 F9000.000
G1 X143.505 Y113.991 E1.17327 F900.000
G1 X141.411 Y112.944 F9000.000
G1 X132.427 Y103.960 E1.17329 F900.000
G1 X130.333 Y102.913 F9000.000
G1 X139.317 Y111.897 E1.17330 F900.000
G1 X133.034 Y108.755 F9000.000
G1 X121.256 Y96.978 E1.53824 F900.000
G1 X120.558 Y97.327 E0.07208
G1 X130.939 Y107.708 E1.35589
G1 X128.845 Y106.661 F9000.000
G1 X119.563 Y97.379 E1.21226 F900.000
G1 X118.507 Y97.370 E0.09752
G1 X126.751 Y105.614 E1.07664
G1 X124.657 Y104.567 F9000.000
G1 X117.460 Y97.370 E0.93988 F900.000
G1 X116.413 Y97.370 E0.09671
G1 X122.562 Y103.520 E0.80312
G1 X120.598 Y102.603 F9000.000
G1 X115.366 Y97.370 E0.68338 F900.000
G1 X114.319 Y97.370 E0.09671
G1 X119.577 Y102.628 E0.68672
G1 X118.531 Y102.630 E0.09659
G1 X113.272 Y97.370 E0.68689
G1 X112.225 Y97.370 E0.09671
G1 X117.484 Y102.630 E0.68689
G1 X116.437 Y102.630 E0.09671
G1 X111.177 Y97.370 E0.68689
G1 X110.130 Y97.370 E0.09671
G1 X115.389 Y102.630 E0.68689
G1 X114.342 Y102.630 E0.09671
G1 X109.083 Y97.370 E0.68689
G1 X108.036 Y97.370 E0.09671
G1 X113.295 Y102.630 E0.68689
G1 X112.248 Y102.630 E0.09671
G1 X106.989 Y97.370 E0.68689
G1 X105.942 Y97.370 E0.09671
G1 X111.201 Y102.630 E0.68689
G1 X110.154 Y102.630 E0.09671
G1 X104.895 Y97.370 E0.68689
G1 X103.847 Y97.370 E0.09671
G1 X109.107 Y102.630 E0.68689
G1 X108.059 Y102.630 E0.09671
G1 X102.800 Y97.370 E0.68689
G1 X101.753 Y97.370 E0.09671
G1 X107.012 Y102.630 E0.68689
G1 X105.965 Y102.630 E0.09671
G1 X100.706 Y97.370 E0.68689
G1 X99.659 Y97.370 E0.09671
G1 X104.918 Y102.630 E0.68689
G1 X103.871 Y102.630 E0.09671
G1 X98.612 Y97.370 E0.68689
G1 X97.564 Y97.370 E0.09671
G1 X102.824 Y102.630 E0.68689
G1 X101.777 Y102.630 E0.09671
G1 X96.517 Y97.370 E0.68689
G1 X95.470 Y97.370 E0.09671
G1 X100.729 Y102.630 E0.68689
G1 X99.682 Y102.630 E0.09671
G1 X94.423 Y97.370 E0.68689
G1 X93.376 Y97.370 E0.09671
G1 X98.635 Y102.630 E0.68689
G1 X97.588 Y102.630 E0.09671
G1 X92.329 Y97.370 E0.68689
G1 X91.282 Y97.370 E0.09671
G1 X96.541 Y102.630 E0.68689
G1 X95.494 Y102.630 E0.09671
G1 X90.234 Y97.370 E0.68689
G1 X89.187 Y97.370 E0.09671
G1 X94.447 Y102.630 E0.68689
G1 X93.399 Y102.630 E0.09671
G1 X88.140 Y97.370 E0.68689
G1 X87.093 Y97.370 E0.09671
G1 X92.352 Y102.630 E0.68689
G1 X91.305 Y102.630 E0.09671
G1 X86.046 Y97.370 E0.68689
G1 X84.999 Y97.370 E0.09671
G1 X90.258 Y102.630 E0.68689
G1 X89.211 Y102.630 E0.09671
G1 X83.952 Y97.370 E0.68689
G1 X82.904 Y97.370 E0.09671
G1 X88.164 Y102.630 E0.68689
G1 X87.117 Y102.630 E0.09671
G1 X81.857 Y97.370 E0.68689
G1 X80.810 Y97.370 E0.09671
G1 X86.069 Y102.630 E0.68689
G1 X85.022 Y102.630 E0.09671
G1 X79.763 Y97.370 E0.68689
G1 X78.716 Y97.370 E0.09671
G1 X83.975 Y102.630 E0.68689
G1 X82.928 Y102.630 E0.09671
G1 X77.669 Y97.370 E0.68689
G1 X76.622 Y97.370 E0.09671
G1 X81.881 Y102.630 E0.68689
G1 X80.834 Y102.630 E0.09671
G1 X75.574 Y97.370 E0.68689
G1 X74.527 Y97.370 E0.09671
G1 X79.787 Y102.630 E0.68689
G1 X78.739 Y102.630 E0.09671
G1 X73.480 Y97.370 E0.68689
G1 X72.433 Y97.370 E0.09671
G1 X77.692 Y102.630 E0.68689
G1 X76.645 Y102.630 E0.09671
G1 X71.386 Y97.370 E0.68689
G1 X70.339 Y97.370 E0.09671
G1 X75.598 Y102.630 E0.68689
G1 X74.551 Y102.630 E0.09671
G1 X69.292 Y97.370 E0.68689
G1 X68.244 Y97.370 E0.09671
G1 X73.504 Y102.630 E0.68689
G1 X72.457 Y102.630 E0.09671
G1 X67.197 Y97.370 E0.68689
G1 X66.150 Y97.370 E0.09671
G1 X71.409 Y102.630 E0.68689
G1 X70.362 Y102.630 E0.09671
G1 X65.103 Y97.370 E0.68689
G1 X64.056 Y97.370 E0.09671
G1 X69.315 Y102.630 E0.68689
G1 X68.268 Y102.630 E0.09671
G1 X63.009 Y97.370 E0.68689
G1 X61.962 Y97.370 E0.09671
G1 X67.221 Y102.630 E0.68689
G1 X66.174 Y102.630 E0.09671
G1 X60.914 Y97.370 E0.68689
G1 X59.867 Y97.370 E0.09671
G1 X65.126 Y102.630 E0.68689
G1 X64.079 Y102.630 E0.09671
G1 X58.820 Y97.370 E0.68689
G1 X57.773 Y97.370 E0.09671
G1 X63.032 Y102.630 E0.68689
G1 X61.985 Y102.630 E0.09671
G1 X56.726 Y97.370 E0.68689
G1 X55.679 Y97.370 E0.09671
G1 X60.938 Y102.630 E0.68689
G1 X59.891 Y102.630 E0.09671
G1 X54.632 Y97.370 E0.68689
G1 X53.584 Y97.370 E0.09671
G1 X58.844 Y102.630 E0.68689
G1 X57.796 Y102.630 E0.09671
G1 X52.537 Y97.370 E0.68689
G1 X51.490 Y97.370 E0.09671
G1 X56.749 Y102.630 E0.68689
G1 X55.702 Y102.630 E0.09671
G1 X50.443 Y97.370 E0.68689
G1 X49.396 Y97.370 E0.09671
G1 X54.655 Y102.630 E0.68689
G1 X53.608 Y102.630 E0.09671
G1 X48.473 Y97.495 E0.67066
G1 X47.600 Y97.669 E0.08218
G1 X52.561 Y102.630 E0.64787
G1 X51.514 Y102.630 E0.09671
G1 X46.734 Y97.851 E0.62418
G1 X45.897 Y98.060 E0.07975
G1 X50.466 Y102.630 E0.59683
G1 X49.419 Y102.630 E0.09671
G1 X45.059 Y98.269 E0.56948
G1 X44.273 Y98.531 E0.07648
G1 X48.114 Y102.371 E0.50159
G1 X46.778 Y102.082 E0.12623
G1 X43.524 Y98.829 E0.42495
G1 X42.969 Y99.320 E0.06851
G1 X45.381 Y101.733 E0.31513
G1 X43.703 Y101.102 F9000.000
G1 X42.751 Y100.150 E0.12430 F900.000
G1 E-3.50000 F2400.00000
G1 Z0.600 F9000.000
G1 X127.381 Y100.000 F9000.000
G1 E3.50000 F2400.00000
G1 X157.381 Y115.000 E1.82238 F1800.000
G1 X150.045 Y118.668 E0.44564
G1 X120.263 Y103.777 E1.80916
G1 X118.185 Y103.829 E0.11290
G1 X49.116 Y103.829 E3.75274
G1 X46.757 Y103.357 E0.13071
G1 X44.828 Y102.875 E0.10805
G1 X43.449 Y102.415 E0.07894
G1 X42.694 Y102.037 E0.04590
G1 X41.910 Y101.254 E0.06021
G1 X41.171 Y100.145 E0.07238
G1 X41.171 Y99.855 E0.01580
G1 X41.910 Y98.746 E0.07238
G1 X42.694 Y97.963 E0.06021
G1 X43.449 Y97.585 E0.04590
G1 X44.828 Y97.125 E0.07894
G1 X46.757 Y96.643 E0.10805
G1 X49.116 Y96.171 E0.13071
G1 X118.185 Y96.171 E3.75274
G1 X120.263 Y96.223 E0.11290
G1 X150.045 Y81.332 E1.80916
G1 X157.381 Y85.000 E0.44564
G1 X127.448 Y99.966 E1.81830
G1 X128.355 Y100.000 F9000.000
G1 X158.355 Y115.000 E1.82238 F1800.000
G1 X150.045 Y119.155 E0.50482
G1 X120.165 Y104.215 E1.81509
G1 X118.191 Y104.264 E0.10729
G1 X49.073 Y104.264 E3.75538
G1 X46.661 Y103.782 E0.13361
G1 X44.706 Y103.293 E0.10952
G1 X43.282 Y102.819 E0.08153
G1 X42.436 Y102.395 E0.05142
G1 X41.572 Y101.531 E0.06640
G1 X40.736 Y100.277 E0.08189
G1 X40.736 Y99.723 E0.03013
G1 X41.572 Y98.469 E0.08189
G1 X42.436 Y97.605 E0.06640
G1 X43.282 Y97.181 E0.05142
G1 X44.706 Y96.707 E0.08153
G1 X46.661 Y96.218 E0.10952
G1 X49.073 Y95.736 E0.13361
G1 X118.191 Y95.736 E3.75538
G1 X120.165 Y95.785 E0.10729
G1 X150.045 Y80.845 E1.81509
G1 X158.355 Y85.000 E0.50481
G1 X128.422 Y99.966 E1.81830
G1 X129.329 Y100.000 F9000.000
G1 X159.329 Y115.000 E1.82238 F1800.000
G1 X150.045 Y119.642 E0.56399
G1 X120.067 Y104.653 E1.82103
G1 X118.196 Y104.700 E0.10169
G1 X49.030 Y104.700 E3.75802
G1 X46.566 Y104.207 E0.13652
G1 X44.584 Y103.712 E0.11100
G1 X43.115 Y103.222 E0.08412
G1 X42.178 Y102.754 E0.05694
G1 X41.233 Y101.809 E0.07258
G1 X40.300 Y100.409 E0.09140
G1 X40.300 Y99.591 E0.04447
G1 X41.233 Y98.191 E0.09140
G1 X42.178 Y97.246 E0.07258
G1 X43.115 Y96.778 E0.05694
G1 X44.584 Y96.288 E0.08412
G1 X46.566 Y95.793 E0.11100
G1 X49.030 Y95.300 E0.13652
G1 X118.196 Y95.300 E3.75802
G1 X120.067 Y95.347 E0.10169
G1 X150.045 Y80.358 E1.82103
G1 X159.329 Y85.000 E0.56399
G1 X129.396 Y99.966 E1.81830
G1 X129.016 Y100.389 F9000.000
G1 X128.677 Y99.007 F9000.000
G1 X141.967 Y85.716 E1.02427 F1800.000
G1 X143.203 Y85.098 F9000.000
G1 X129.912 Y98.389 E1.02427 F1800.000
G1 X131.148 Y97.771 F9000.000
G1 X144.439 Y84.480 E1.02427 F1800.000
G1 X145.675 Y83.862 F9000.000
G1 X132.384 Y97.153 E1.02427 F1800.000
G1 X133.620 Y96.535 F9000.000
G1 X146.910 Y83.245 E1.02427 F1800.000
G1 X148.146 Y82.627 F9000.000
G1 X134.855 Y95.917 E1.02427 F1800.000
G1 X136.091 Y95.300 F9000.000
