; generated by Slic3r 1.2.9 on 2017-10-29 at 21:48:41

; external perimeters extrusion width = 0.50mm
; perimeters extrusion width = 0.50mm
; infill extrusion width = 0.50mm
; solid infill extrusion width = 0.50mm
; top infill extrusion width = 0.50mm

M107
M190 S57 ; set bed temperature
G28 ; home all axes
M83;
G10 P0 S195 R160                       ; Set tool 0 operating and standby temperatures
T0

G21 ; set units to millimeters
G90 ; use absolute coordinates
M83 ; use relative distances for extrusion
G1 E-3.50000 F2400.00000
G1 Z0.300 F9000.000
G1 X53.452 Y53.823 F9000.000
G1 E3.50000 F2400.00000
G1 X89.899 Y17.627 E4.71292 F1200.000
G1 X91.483 Y16.612 E0.17255
G1 X93.050 Y16.329 E0.14614
G1 X106.950 Y16.329 E1.27533
G1 X108.789 Y16.724 E0.17255
G1 X110.101 Y17.627 E0.14614 F1200.000
G1 X182.601 Y89.627 E9.37484
G1 X183.627 Y91.204 E0.17255
G1 X183.921 Y92.800 E0.14894
G1 X183.921 Y106.700 E1.27533
G1 X183.526 Y108.539 E0.17255
G1 X182.612 Y109.862 E0.14754
G1 X110.112 Y182.362 E9.40722
G1 X108.532 Y183.382 E0.17255
G1 X106.950 Y183.671 E0.14754
G1 X93.050 Y183.671 E1.27533
G1 X91.211 Y183.276 E0.17255
G1 X89.888 Y182.362 E0.14754
G1 X17.388 Y109.862 E9.40722
G1 X16.368 Y108.282 E0.17255
G1 X16.079 Y106.700 E0.14754
G1 X16.079 Y92.800 E1.27533
G1 X16.474 Y90.961 E0.17255
G1 X17.399 Y89.627 E0.14894
G1 X53.399 Y53.876 E4.65504
G1 X53.970 Y54.345 F9000.000
G1 X90.418 Y18.149 E4.71292 F1200.000
G1 X91.882 Y17.252 E0.15755
G1 X93.050 Y17.064 E0.10858
G1 X106.950 Y17.064 E1.27533
G1 X108.621 Y17.459 E0.15755
G1 X109.582 Y18.149 E0.10858 F1200.000
G1 X182.082 Y90.149 E9.37484
G1 X182.990 Y91.607 E0.15755
G1 X183.186 Y92.800 E0.11092
G1 X183.186 Y106.700 E1.27533
G1 X182.791 Y108.371 E0.15755
G1 X182.091 Y109.341 E0.10975
G1 X109.591 Y181.841 E9.40722
G1 X108.131 Y182.744 E0.15755
G1 X106.950 Y182.936 E0.10975
G1 X93.050 Y182.936 E1.27533
G1 X91.379 Y182.541 E0.15755
G1 X90.409 Y181.841 E0.10975
G1 X17.909 Y109.341 E9.40722
G1 X17.006 Y107.881 E0.15755
G1 X16.814 Y106.700 E0.10975
G1 X16.814 Y92.800 E1.27533
G1 X17.209 Y91.129 E0.15755
G1 X17.918 Y90.149 E0.11092
G1 X53.917 Y54.398 E4.65504
G1 E-3.50000 F2400.00000
G1 X81.421 Y94.671 F9000.000
G1 E3.50000 F2400.00000
G1 X81.421 Y62.671 E2.93602 F900.000
G1 X94.921 Y62.671 E1.23863
G1 X94.921 Y54.579 E0.74248
G1 X79.921 Y54.579 E1.37626
G1 X79.921 Y43.421 E1.02371
G1 X94.921 Y43.421 E1.37626
G1 X94.921 Y26.171 E1.58270
G1 X105.079 Y26.171 E0.93196
G1 X105.079 Y43.421 E1.58270
G1 X120.079 Y43.421 E1.37626
G1 X120.079 Y54.579 E1.02371
G1 X105.079 Y54.579 E1.37626
G1 X105.079 Y62.671 E0.74248
G1 X121.879 Y62.671 E1.54141
G1 X121.879 Y94.671 E2.93602
G1 X145.171 Y94.671 E2.13709
G1 X145.171 Y79.671 E1.37626
G1 X156.329 Y79.671 E1.02371
G1 X156.329 Y94.671 E1.37626
G1 X173.579 Y94.671 E1.58270
G1 X173.579 Y104.829 E0.93196
G1 X156.329 Y104.829 E1.58270
G1 X156.329 Y119.829 E1.37626
G1 X145.171 Y119.829 E1.02371
G1 X145.171 Y104.829 E1.37626
G1 X121.879 Y104.829 E2.13709
G1 X121.879 Y122.829 E1.65151
G1 X105.079 Y122.829 E1.54141
G1 X105.079 Y144.921 E2.02699
G1 X120.079 Y144.921 E1.37626
G1 X120.079 Y156.079 E1.02371
G1 X105.079 Y156.079 E1.37626
G1 X105.079 Y173.829 E1.62857
G1 X94.921 Y173.829 E0.93196
G1 X94.921 Y156.079 E1.62857
G1 X79.921 Y156.079 E1.37626
G1 X79.921 Y144.921 E1.02371
G1 X94.921 Y144.921 E1.37626
G1 X94.921 Y122.829 E2.02699
G1 X81.421 Y122.829 E1.23863
G1 X81.421 Y104.829 E1.65151
G1 X54.829 Y104.829 E2.43987
G1 X54.829 Y119.829 E1.37626
G1 X43.671 Y119.829 E1.02371
G1 X43.671 Y104.829 E1.37626
G1 X26.421 Y104.829 E1.58270
G1 X26.421 Y94.671 E0.93196
G1 X43.671 Y94.671 E1.58270
G1 X43.671 Y79.671 E1.37626
G1 X54.829 Y79.671 E1.02371
G1 X54.829 Y94.671 E1.37626
G1 X81.346 Y94.671 E2.43299
G1 X80.686 Y93.936 F9000.000
G1 X80.686 Y61.936 E2.93602 F900.000
G1 X94.186 Y61.936 E1.23863
G1 X94.186 Y55.314 E0.60750
G1 X79.186 Y55.314 E1.37626
G1 X79.186 Y42.686 E1.15870
G1 X94.186 Y42.686 E1.37626
G1 X94.186 Y25.436 E1.58270
G1 X105.814 Y25.436 E1.06695
G1 X105.814 Y42.686 E1.58270
G1 X120.814 Y42.686 E1.37626
G1 X120.814 Y55.314 E1.15870
G1 X105.814 Y55.314 E1.37626
G1 X105.814 Y61.936 E0.60750
G1 X122.614 Y61.936 E1.54141
G1 X122.614 Y93.936 E2.93602
G1 X144.436 Y93.936 E2.00210
G1 X144.436 Y78.936 E1.37626
G1 X157.064 Y78.936 E1.15870
G1 X157.064 Y93.936 E1.37626
G1 X178.314 Y93.936 E1.94970
G1 X178.314 Y94.564 E0.05769
G1 X174.314 Y94.564 E0.36700
G1 X174.314 Y105.564 E1.00926
G1 X157.064 Y105.564 E1.58270
G1 X157.064 Y120.564 E1.37626
G1 X144.436 Y120.564 E1.15870
G1 X144.436 Y105.564 E1.37626
G1 X122.614 Y105.564 E2.00210
G1 X122.614 Y123.564 E1.65151
G1 X105.814 Y123.564 E1.54141
G1 X105.814 Y144.186 E1.89200
G1 X120.814 Y144.186 E1.37626
G1 X120.814 Y156.814 E1.15870
G1 X105.814 Y156.814 E1.37626
G1 X105.814 Y174.564 E1.62857
G1 X94.186 Y174.564 E1.06695
G1 X94.186 Y156.814 E1.62857
G1 X79.186 Y156.814 E1.37626
G1 X79.186 Y144.186 E1.15870
G1 X94.186 Y144.186 E1.37626
G1 X94.186 Y123.564 E1.89200
G1 X80.686 Y123.564 E1.23863
G1 X80.686 Y105.564 E1.65151
G1 X55.564 Y105.564 E2.30488
G1 X55.564 Y120.564 E1.37626
G1 X42.936 Y120.564 E1.15870
G1 X42.936 Y105.564 E1.37626
G1 X25.686 Y105.564 E1.58270
G1 X25.686 Y94.564 E1.00926
G1 X21.686 Y94.564 E0.36700
G1 X21.686 Y93.936 E0.05769
G1 X42.936 Y93.936 E1.94970
G1 X42.936 Y78.936 E1.37626
G1 X55.564 Y78.936 E1.15870
G1 X55.564 Y93.936 E1.37626
G1 X80.611 Y93.936 E2.29800
G1 X79.950 Y93.200 F9000.000
G1 X79.950 Y61.200 E2.93602 F900.000
G1 X93.450 Y61.200 E1.23863
G1 X93.450 Y56.050 E0.47251
G1 X78.450 Y56.050 E1.37626
G1 X78.450 Y41.950 E1.29369
G1 X93.450 Y41.950 E1.37626
G1 X93.450 Y21.200 E1.90382
G1 X95.050 Y21.200 E0.14681
G1 X95.050 Y24.700 E0.32113
G1 X104.950 Y24.700 E0.90832
G1 X104.950 Y21.200 E0.32113
G1 X106.550 Y21.200 E0.14681
G1 X106.550 Y41.950 E1.90382
G1 X121.550 Y41.950 E1.37626
G1 X121.550 Y56.050 E1.29369
G1 X106.550 Y56.050 E1.37626
G1 X106.550 Y61.200 E0.47251
G1 X123.350 Y61.200 E1.54141
G1 X123.350 Y93.200 E2.93602
G1 X143.700 Y93.200 E1.86712
G1 X143.700 Y78.200 E1.37626
G1 X157.800 Y78.200 E1.29369
G1 X157.800 Y93.200 E1.37626
G1 X179.050 Y93.200 E1.94970
G1 X179.050 Y95.300 E0.19268
G1 X175.050 Y95.300 E0.36700
G1 X175.050 Y104.700 E0.86245
G1 X179.050 Y104.700 E0.36700
G1 X179.050 Y106.300 E0.14681
G1 X157.800 Y106.300 E1.94970
G1 X157.800 Y121.300 E1.37626
G1 X143.700 Y121.300 E1.29369
G1 X143.700 Y106.300 E1.37626
G1 X123.350 Y106.300 E1.86712
G1 X123.350 Y124.300 E1.65151
G1 X106.550 Y124.300 E1.54141
G1 X106.550 Y143.450 E1.75702
G1 X121.550 Y143.450 E1.37626
G1 X121.550 Y157.550 E1.29369
G1 X106.550 Y157.550 E1.37626
G1 X106.550 Y178.800 E1.94970
G1 X104.950 Y178.800 E0.14681
G1 X104.950 Y175.300 E0.32113
G1 X95.050 Y175.300 E0.90832
G1 X95.050 Y178.800 E0.32113
G1 X93.450 Y178.800 E0.14681
G1 X93.450 Y157.550 E1.94970
G1 X78.450 Y157.550 E1.37626
G1 X78.450 Y143.450 E1.29369
G1 X93.450 Y143.450 E1.37626
G1 X93.450 Y124.300 E1.75702
G1 X79.950 Y124.300 E1.23863
G1 X79.950 Y106.300 E1.65151
G1 X56.300 Y106.300 E2.16989
G1 X56.300 Y121.300 E1.37626
G1 X42.200 Y121.300 E1.29369
G1 X42.200 Y106.300 E1.37626
G1 X20.950 Y106.300 E1.94970
G1 X20.950 Y104.700 E0.14681
G1 X24.950 Y104.700 E0.36700
G1 X24.950 Y95.300 E0.86245
G1 X20.950 Y95.300 E0.36700
G1 X20.950 Y93.200 E0.19268
G1 X42.200 Y93.200 E1.94970
G1 X42.200 Y78.200 E1.37626
G1 X56.300 Y78.200 E1.29369
G1 X56.300 Y93.200 E1.37626
G1 X79.875 Y93.200 E2.16301
G1 X80.450 Y93.200 F9000.000
G1 X81.870 Y105.324 F9000.000
G1 X104.630 Y128.083 E2.95894 F900.000
G1 X104.630 Y129.126 E0.09583
G1 X81.870 Y106.366 E2.95894
G1 X81.870 Y107.409 E0.09583
G1 X104.630 Y130.168 E2.95894
G1 X104.630 Y131.210 E0.09583
G1 X81.870 Y108.451 E2.95894
G1 X81.870 Y109.493 E0.09583
G1 X94.757 Y122.380 E1.67534
G1 X95.370 Y122.993 F9000.000
G1 X104.630 Y132.253 E1.20379 F900.000
G1 X104.630 Y133.295 E0.09583
G1 X95.370 Y124.036 E1.20379
G1 X95.370 Y125.078 E0.09583
G1 X104.630 Y134.337 E1.20379
G1 X104.630 Y135.380 E0.09583
G1 X95.370 Y126.121 E1.20379
G1 X95.370 Y127.163 E0.09583
G1 X104.630 Y136.422 E1.20379
G1 X104.630 Y137.465 E0.09583
G1 X95.370 Y128.205 E1.20379
G1 X95.370 Y129.248 E0.09583
G1 X104.630 Y138.507 E1.20379
G1 X104.630 Y139.549 E0.09583
G1 X95.370 Y130.290 E1.20379
G1 X95.370 Y131.332 E0.09583
G1 X104.630 Y140.592 E1.20379
G1 X104.630 Y141.634 E0.09583
G1 X95.370 Y132.375 E1.20379
G1 X95.370 Y133.417 E0.09583
G1 X104.630 Y142.676 E1.20379
G1 X104.630 Y143.719 E0.09583
G1 X95.370 Y134.460 E1.20379
G1 X95.370 Y135.502 E0.09583
G1 X104.630 Y144.761 E1.20379
G1 X105.239 Y145.370 F9000.000
G1 X115.498 Y155.630 E1.33381 F900.000
G1 X116.540 Y155.630 E0.09583
G1 X106.281 Y145.370 E1.33381
G1 X107.324 Y145.370 E0.09583
G1 X117.583 Y155.630 E1.33381
G1 X118.625 Y155.630 E0.09583
G1 X108.366 Y145.370 E1.33381
G1 X109.408 Y145.370 E0.09583
G1 X119.630 Y155.592 E1.32887
G1 X119.630 Y154.549 E0.09583
G1 X110.451 Y145.370 E1.19335
G1 X111.493 Y145.370 E0.09583
G1 X119.630 Y153.507 E1.05783
G1 X119.630 Y152.465 E0.09583
G1 X112.535 Y145.370 E0.92231
G1 X113.578 Y145.370 E0.09583
G1 X119.630 Y151.422 E0.78679
G1 X119.630 Y150.380 E0.09583
G1 X114.620 Y145.370 E0.65127
G1 X115.663 Y145.370 E0.09583
G1 X119.630 Y149.337 E0.51575
G1 X119.630 Y148.295 E0.09583
G1 X116.705 Y145.370 E0.38023
G1 X117.747 Y145.370 E0.09583
G1 X119.630 Y147.253 E0.24471
G1 X119.630 Y146.210 E0.09583
G1 X118.790 Y145.370 E0.10919
G1 X114.456 Y155.630 F9000.000
G1 X95.370 Y136.544 E2.48129 F900.000
G1 X95.370 Y137.587 E0.09583
G1 X113.413 Y155.630 E2.34577
G1 X112.371 Y155.630 E0.09583
G1 X95.370 Y138.629 E2.21025
G1 X95.370 Y139.672 E0.09583
G1 X111.328 Y155.630 E2.07473
G1 X110.286 Y155.630 E0.09583
G1 X95.370 Y140.714 E1.93921
G1 X95.370 Y141.756 E0.09583
G1 X109.244 Y155.630 E1.80368
G1 X108.201 Y155.630 E0.09583
G1 X95.370 Y142.799 E1.66816
G1 X95.370 Y143.841 E0.09583
G1 X107.159 Y155.630 E1.53264
G1 X106.117 Y155.630 E0.09583
G1 X95.370 Y144.883 E1.39712
G1 X94.815 Y145.370 F9000.000
G1 X105.074 Y155.630 E1.33381 F900.000
G1 X104.630 Y156.227 F9000.000
G1 X93.773 Y145.370 E1.41152 F900.000
G1 X92.730 Y145.370 E0.09583
G1 X104.630 Y157.270 E1.54704
G1 X104.630 Y158.312 E0.09583
G1 X91.688 Y145.370 E1.68256
G1 X90.646 Y145.370 E0.09583
G1 X104.630 Y159.354 E1.81808
G1 X104.630 Y160.397 E0.09583
G1 X89.603 Y145.370 E1.95360
G1 X88.561 Y145.370 E0.09583
G1 X104.630 Y161.439 E2.08912
G1 X104.630 Y162.482 E0.09583
G1 X87.518 Y145.370 E2.22464
G1 X86.476 Y145.370 E0.09583
G1 X104.630 Y163.524 E2.36016
G1 X104.630 Y164.566 E0.09583
G1 X85.434 Y145.370 E2.49568
G1 X84.391 Y145.370 E0.09583
G1 X94.650 Y155.630 E1.33381
G1 X95.370 Y156.350 F9000.000
G1 X104.630 Y165.609 E1.20379 F900.000
G1 X104.630 Y166.651 E0.09583
G1 X95.370 Y157.392 E1.20379
G1 X95.370 Y158.434 E0.09583
G1 X104.630 Y167.693 E1.20379
G1 X104.630 Y168.736 E0.09583
G1 X95.370 Y159.477 E1.20379
G1 X95.370 Y160.519 E0.09583
G1 X104.630 Y169.778 E1.20379
G1 X104.630 Y170.821 E0.09583
G1 X95.370 Y161.561 E1.20379
G1 X95.370 Y162.604 E0.09583
G1 X104.630 Y171.863 E1.20379
G1 X104.630 Y172.905 E0.09583
G1 X95.370 Y163.646 E1.20379
G1 X95.370 Y164.689 E0.09583
G1 X104.061 Y173.380 E1.12993
G1 X103.019 Y173.380 E0.09583
G1 X95.370 Y165.731 E0.99441
G1 X95.370 Y166.773 E0.09583
G1 X101.977 Y173.380 E0.85889
G1 X100.934 Y173.380 E0.09583
G1 X95.370 Y167.816 E0.72337
G1 X95.370 Y168.858 E0.09583
G1 X99.892 Y173.380 E0.58785
G1 X98.850 Y173.380 E0.09583
G1 X95.370 Y169.900 E0.45232
G1 X95.370 Y170.943 E0.09583
G1 X97.807 Y173.380 E0.31680
G1 X96.765 Y173.380 E0.09583
G1 X95.370 Y171.985 E0.18128
G1 X95.370 Y173.028 E0.09583
G1 X95.722 Y173.380 E0.04576
G1 X93.608 Y155.630 F9000.000
G1 X83.349 Y145.370 E1.33381 F900.000
G1 X82.307 Y145.370 E0.09583
G1 X92.566 Y155.630 E1.33381
G1 X91.523 Y155.630 E0.09583
G1 X81.264 Y145.370 E1.33381
G1 X80.370 Y145.519 E0.08329
G1 X90.481 Y155.630 E1.31448
G1 X89.439 Y155.630 E0.09583
G1 X80.370 Y146.561 E1.17896
G1 X80.370 Y147.604 E0.09583
G1 X88.396 Y155.630 E1.04344
G1 X87.354 Y155.630 E0.09583
G1 X80.370 Y148.646 E0.90792
G1 X80.370 Y149.689 E0.09583
G1 X86.311 Y155.630 E0.77240
G1 X85.269 Y155.630 E0.09583
G1 X80.370 Y150.731 E0.63688
G1 X80.370 Y151.773 E0.09583
G1 X84.227 Y155.630 E0.50136
G1 X83.184 Y155.630 E0.09583
G1 X80.370 Y152.816 E0.36584
G1 X80.370 Y153.858 E0.09583
G1 X82.142 Y155.630 E0.23032
G1 X81.100 Y155.630 E0.09583
G1 X80.370 Y154.900 E0.09479
G1 X100.000 Y150.500 F9000.000
G1 X100.000 Y123.700 F9000.000
G1 X94.050 Y110.200 F9000.000
G1 X80.550 Y123.700 F9000.000
G1 X82.248 Y122.380 F9000.000
G1 X81.870 Y122.002 E0.04909 F900.000
G1 X81.870 Y120.960 E0.09583
G1 X83.290 Y122.380 E0.18461
G1 X84.333 Y122.380 E0.09583
G1 X81.870 Y119.917 E0.32013
G1 X81.870 Y118.875 E0.09583
G1 X85.375 Y122.380 E0.45565
G1 X86.418 Y122.380 E0.09583
G1 X81.870 Y117.832 E0.59117
G1 X81.870 Y116.790 E0.09583
G1 X87.460 Y122.380 E0.72669
G1 X88.502 Y122.380 E0.09583
G1 X81.870 Y115.748 E0.86221
G1 X81.870 Y114.705 E0.09583
G1 X89.545 Y122.380 E0.99773
G1 X90.587 Y122.380 E0.09583
G1 X81.870 Y113.663 E1.13325
G1 X81.870 Y112.621 E0.09583
G1 X91.629 Y122.380 E1.26877
G1 X92.672 Y122.380 E0.09583
G1 X81.870 Y111.578 E1.40430
G1 X81.870 Y110.536 E0.09583
G1 X93.714 Y122.380 E1.53982
G1 X104.630 Y122.871 F9000.000
G1 X76.879 Y95.120 E3.60792 F900.000
G1 X75.836 Y95.120 E0.09583
G1 X104.630 Y123.914 E3.74344
G1 X104.630 Y124.956 E0.09583
G1 X74.794 Y95.120 E3.87896
G1 X73.752 Y95.120 E0.09583
G1 X104.630 Y125.998 E4.01448
G1 X104.630 Y127.041 E0.09583
G1 X72.709 Y95.120 E4.15000
G1 X71.667 Y95.120 E0.09583
G1 X80.926 Y104.380 E1.20379
G1 X79.884 Y104.380 E0.09583
G1 X70.624 Y95.120 E1.20379
G1 X69.582 Y95.120 E0.09583
G1 X78.841 Y104.380 E1.20379
G1 X77.799 Y104.380 E0.09583
G1 X68.540 Y95.120 E1.20379
G1 X67.497 Y95.120 E0.09583
G1 X76.757 Y104.380 E1.20379
G1 X75.714 Y104.380 E0.09583
G1 X66.455 Y95.120 E1.20379
G1 X65.413 Y95.120 E0.09583
G1 X74.672 Y104.380 E1.20379
G1 X73.629 Y104.380 E0.09583
G1 X64.370 Y95.120 E1.20379
G1 X63.328 Y95.120 E0.09583
G1 X72.587 Y104.380 E1.20379
G1 X71.545 Y104.380 E0.09583
G1 X62.285 Y95.120 E1.20379
G1 X61.243 Y95.120 E0.09583
G1 X70.502 Y104.380 E1.20379
G1 X69.460 Y104.380 E0.09583
G1 X60.201 Y95.120 E1.20379
G1 X59.158 Y95.120 E0.09583
G1 X68.418 Y104.380 E1.20379
G1 X67.375 Y104.380 E0.09583
G1 X58.116 Y95.120 E1.20379
G1 X57.074 Y95.120 E0.09583
G1 X66.333 Y104.380 E1.20379
G1 X65.290 Y104.380 E0.09583
G1 X56.031 Y95.120 E1.20379
G1 X54.989 Y95.120 E0.09583
G1 X64.248 Y104.380 E1.20379
G1 X63.206 Y104.380 E0.09583
G1 X44.120 Y85.294 E2.48129
G1 X44.120 Y84.252 E0.09583
G1 X54.380 Y94.511 E1.33381
G1 X54.380 Y93.469 E0.09583
G1 X44.120 Y83.210 E1.33381
G1 X44.120 Y82.167 E0.09583
G1 X54.380 Y92.426 E1.33381
G1 X54.380 Y91.384 E0.09583
G1 X44.120 Y81.125 E1.33381
G1 X44.158 Y80.120 E0.09241
G1 X54.380 Y90.342 E1.32888
G1 X54.380 Y89.299 E0.09583
G1 X45.201 Y80.120 E1.19335
G1 X46.243 Y80.120 E0.09583
G1 X54.380 Y88.257 E1.05783
G1 X54.380 Y87.215 E0.09583
G1 X47.285 Y80.120 E0.92231
G1 X48.328 Y80.120 E0.09583
G1 X54.380 Y86.172 E0.78679
G1 X54.380 Y85.130 E0.09583
G1 X49.370 Y80.120 E0.65127
G1 X50.413 Y80.120 E0.09583
G1 X54.380 Y84.087 E0.51575
G1 X54.380 Y83.045 E0.09583
G1 X51.455 Y80.120 E0.38023
G1 X52.497 Y80.120 E0.09583
G1 X54.380 Y82.003 E0.24471
G1 X54.380 Y80.960 E0.09583
G1 X53.540 Y80.120 E0.10919
G1 X44.120 Y86.337 F9000.000
G1 X62.163 Y104.380 E2.34577 F900.000
G1 X61.121 Y104.380 E0.09583
G1 X44.120 Y87.379 E2.21025
G1 X44.120 Y88.422 E0.09583
G1 X60.078 Y104.380 E2.07473
G1 X59.036 Y104.380 E0.09583
G1 X44.120 Y89.464 E1.93920
G1 X44.120 Y90.506 E0.09583
G1 X57.994 Y104.380 E1.80368
G1 X56.951 Y104.380 E0.09583
G1 X44.120 Y91.549 E1.66816
G1 X44.120 Y92.591 E0.09583
G1 X55.909 Y104.380 E1.53264
G1 X54.867 Y104.380 E0.09583
G1 X44.120 Y93.633 E1.39712
G1 X44.120 Y94.676 E0.09583
G1 X54.380 Y104.935 E1.33381
G1 X54.380 Y105.977 E0.09583
G1 X43.523 Y95.120 E1.41152
G1 X42.480 Y95.120 E0.09583
G1 X54.380 Y107.020 E1.54704
G1 X54.380 Y108.062 E0.09583
G1 X41.438 Y95.120 E1.68256
G1 X40.396 Y95.120 E0.09583
