; generated by Slic3r 1.2.9 on 2017-10-23 at 23:35:56

; external perimeters extrusion width = 0.50mm
; perimeters extrusion width = 0.50mm
; infill extrusion width = 0.50mm
; solid infill extrusion width = 0.50mm
; top infill extrusion width = 0.50mm

M107
M190 S57 ; set bed temperature
G28 ; home all axes
M83;
G10 P0 S195 R160                       ; Set tool 0 operating and standby temperatures
T0

G21 ; set units to millimeters
G90 ; use absolute coordinates
M83 ; use relative distances for extrusion
G1 E-3.50000 F2400.00000
G1 Z0.300 F9000.000
G1 X12.387 Y18.900 F9000.000
G1 E3.50000 F2400.00000
G1 X14.355 Y17.776 E0.20795 F1200.000
G1 X16.532 Y17.399 E0.20271
G1 X183.468 Y17.398 E15.31650
G1 X185.700 Y17.795 E0.20795
G1 X187.657 Y18.937 E0.20795 F1200.000
G1 X189.073 Y20.634 E0.20271
G1 X193.522 Y28.342 E0.81658
G1 X194.294 Y30.473 E0.20795
G1 X194.284 Y32.739 E0.20795
G1 X193.522 Y34.813 E0.20270
G1 X110.054 Y179.384 E15.31650
G1 X108.595 Y181.118 E0.20795
G1 X106.627 Y182.243 E0.20795
G1 X104.450 Y182.620 E0.20271
G1 X95.550 Y182.620 E0.81658
G1 X93.318 Y182.223 E0.20795
G1 X91.361 Y181.081 E0.20795
G1 X89.946 Y179.384 E0.20271
G1 X6.478 Y34.813 E15.31647
G1 X5.706 Y32.682 E0.20795
G1 X5.716 Y30.416 E0.20795
G1 X6.478 Y28.342 E0.20270
G1 X10.928 Y20.634 E0.81659
G1 X12.339 Y18.958 E0.20107
G1 X12.954 Y19.388 F9000.000
G1 X14.841 Y18.389 E0.19595 F1200.000
G1 X16.532 Y18.134 E0.15685
G1 X183.468 Y18.134 E15.31650
G1 X185.564 Y18.531 E0.19568
G1 X187.370 Y19.665 E0.19568 F1200.000
G1 X188.435 Y21.002 E0.15685
G1 X192.885 Y28.710 E0.81658
G1 X193.590 Y30.723 E0.19568
G1 X193.510 Y32.854 E0.19568
G1 X192.885 Y34.445 E0.15685
G1 X109.417 Y179.016 E15.31650
G1 X108.026 Y180.633 E0.19568
G1 X106.140 Y181.629 E0.19568
G1 X104.450 Y181.884 E0.15685
G1 X95.550 Y181.884 E0.81658
G1 X93.454 Y181.488 E0.19568
G1 X91.649 Y180.353 E0.19568
G1 X90.583 Y179.016 E0.15685
G1 X7.115 Y34.445 E15.31647
G1 X6.410 Y32.432 E0.19568
G1 X6.490 Y30.301 E0.19568
G1 X7.115 Y28.710 E0.15684
G1 X11.565 Y21.002 E0.81658
G1 X12.905 Y19.445 E0.18851
G1 E-3.50000 F2400.00000
G1 X86.419 Y71.034 F9000.000
G1 E3.50000 F2400.00000
G1 X86.617 Y70.599 E0.04382 F900.000
G1 X87.079 Y69.734 E0.08999
G1 X87.633 Y68.852 E0.09559
G1 X88.161 Y68.115 E0.08319
G1 X88.781 Y67.360 E0.08959
G1 X89.448 Y66.647 E0.08959
G1 X90.161 Y65.979 E0.08959
G1 X90.916 Y65.360 E0.08959
G1 X91.710 Y64.791 E0.08959
G1 X92.539 Y64.276 E0.08959
G1 X93.400 Y63.815 E0.08959
G1 X94.289 Y63.412 E0.08959
G1 X95.203 Y63.068 E0.08959
G1 X96.138 Y62.785 E0.08959
G1 X97.089 Y62.563 E0.08959
G1 X98.056 Y62.403 E0.08999
G1 X99.094 Y62.306 E0.09558
G1 X100.000 Y62.276 E0.08319 F900.000
G1 X100.976 Y62.308 E0.08959
G1 X101.948 Y62.404 E0.08959
G1 X102.911 Y62.563 E0.08959
G1 X103.862 Y62.785 E0.08959
G1 X104.797 Y63.068 E0.08959
G1 X105.710 Y63.412 E0.08959
G1 X106.600 Y63.815 E0.08959
G1 X107.461 Y64.276 E0.08959
G1 X108.290 Y64.791 E0.08959
G1 X109.084 Y65.360 E0.08959
G1 X109.842 Y65.982 E0.08999
G1 X110.599 Y66.698 E0.09559
G1 X111.219 Y67.360 E0.08319
G1 X111.839 Y68.115 E0.08959
G1 X112.407 Y68.908 E0.08959
G1 X112.923 Y69.737 E0.08959
G1 X113.383 Y70.599 E0.08959
G1 X113.786 Y71.488 E0.08959
G1 X114.130 Y72.402 E0.08959
G1 X114.414 Y73.336 E0.08959
G1 X114.636 Y74.287 E0.08959
G1 X114.795 Y75.251 E0.08959
G1 X114.890 Y76.223 E0.08959
G1 X114.922 Y77.199 E0.08959
G1 X114.890 Y78.175 E0.08959
G1 X114.795 Y79.146 E0.08959
G1 X114.636 Y80.110 E0.08959
G1 X114.414 Y81.061 E0.08959
G1 X114.130 Y81.995 E0.08959
G1 X113.786 Y82.909 E0.08959
G1 X113.383 Y83.799 E0.08959
G1 X112.923 Y84.660 E0.08960
G1 X112.407 Y85.489 E0.08959
G1 X111.839 Y86.283 E0.08959
G1 X111.219 Y87.038 E0.08960
G1 X110.552 Y87.750 E0.08959
G1 X109.839 Y88.418 E0.08959
G1 X109.084 Y89.037 E0.08959
G1 X108.290 Y89.606 E0.08959
G1 X107.461 Y90.122 E0.08959
G1 X106.600 Y90.582 E0.08959
G1 X105.710 Y90.985 E0.08959
G1 X104.797 Y91.329 E0.08959
G1 X103.861 Y91.613 E0.08974
G1 X102.887 Y91.838 E0.09171
G1 X101.948 Y91.993 E0.08733
G1 X100.976 Y92.089 E0.08959
G1 X100.000 Y92.121 E0.08959
G1 X99.024 Y92.089 E0.08959
G1 X98.052 Y91.993 E0.08959
G1 X97.089 Y91.834 E0.08959
G1 X96.138 Y91.612 E0.08959
G1 X95.203 Y91.329 E0.08959
G1 X94.289 Y90.985 E0.08959
G1 X93.400 Y90.582 E0.08959
G1 X92.539 Y90.122 E0.08959
G1 X91.710 Y89.606 E0.08959
G1 X90.916 Y89.037 E0.08959
G1 X90.161 Y88.418 E0.08959
G1 X89.448 Y87.750 E0.08959
G1 X88.781 Y87.038 E0.08959
G1 X88.161 Y86.283 E0.08959
G1 X87.593 Y85.489 E0.08959
G1 X87.077 Y84.660 E0.08959
G1 X86.617 Y83.799 E0.08960
G1 X86.214 Y82.909 E0.08959
G1 X85.870 Y81.995 E0.08959
G1 X85.586 Y81.061 E0.08959
G1 X85.364 Y80.110 E0.08959
G1 X85.205 Y79.146 E0.08959
G1 X85.109 Y78.170 E0.09000
G1 X85.080 Y77.129 E0.09559
G1 X85.110 Y76.223 E0.08319
G1 X85.205 Y75.251 E0.08959
G1 X85.364 Y74.287 E0.08959
G1 X85.586 Y73.336 E0.08959
G1 X85.871 Y72.398 E0.08999
G1 X86.242 Y71.425 E0.09559
G1 X86.389 Y71.102 E0.03249
G1 X87.090 Y71.337 F9000.000
G1 X87.277 Y70.924 E0.04161 F900.000
G1 X87.716 Y70.103 E0.08542
G1 X88.244 Y69.262 E0.09117
G1 X88.745 Y68.563 E0.07893
G1 X89.334 Y67.845 E0.08517
G1 X89.969 Y67.167 E0.08517
G1 X90.646 Y66.533 E0.08517
G1 X91.364 Y65.944 E0.08518
G1 X92.119 Y65.403 E0.08517
G1 X92.907 Y64.913 E0.08517
G1 X93.726 Y64.475 E0.08518
G1 X94.571 Y64.092 E0.08517
G1 X95.440 Y63.765 E0.08517
G1 X96.328 Y63.496 E0.08517
G1 X97.232 Y63.285 E0.08517
G1 X98.151 Y63.133 E0.08542
G1 X99.140 Y63.041 E0.09116
G1 X100.000 Y63.012 E0.07893 F900.000
G1 X100.928 Y63.043 E0.08517
G1 X101.852 Y63.134 E0.08517
G1 X102.768 Y63.285 E0.08517
G1 X103.672 Y63.496 E0.08517
G1 X104.560 Y63.765 E0.08517
G1 X105.429 Y64.092 E0.08518
G1 X106.274 Y64.475 E0.08518
G1 X107.093 Y64.913 E0.08517
G1 X107.881 Y65.403 E0.08517
G1 X108.636 Y65.944 E0.08517
G1 X109.356 Y66.534 E0.08542
G1 X110.078 Y67.217 E0.09117
G1 X110.666 Y67.845 E0.07893
G1 X111.255 Y68.563 E0.08518
G1 X111.795 Y69.317 E0.08517
G1 X112.286 Y70.105 E0.08517
G1 X112.723 Y70.924 E0.08517
G1 X113.106 Y71.770 E0.08518
G1 X113.433 Y72.639 E0.08517
G1 X113.703 Y73.527 E0.08517
G1 X113.914 Y74.431 E0.08517
G1 X114.065 Y75.347 E0.08517
G1 X114.156 Y76.271 E0.08517
G1 X114.186 Y77.199 E0.08517
G1 X114.156 Y78.126 E0.08517
G1 X114.065 Y79.050 E0.08517
G1 X113.914 Y79.966 E0.08517
G1 X113.703 Y80.870 E0.08517
G1 X113.433 Y81.759 E0.08517
G1 X113.106 Y82.627 E0.08517
G1 X112.723 Y83.473 E0.08517
G1 X112.286 Y84.292 E0.08518
G1 X111.795 Y85.080 E0.08517
G1 X111.255 Y85.835 E0.08517
G1 X110.666 Y86.552 E0.08518
G1 X110.031 Y87.230 E0.08517
G1 X109.354 Y87.864 E0.08517
G1 X108.636 Y88.453 E0.08517
G1 X107.881 Y88.994 E0.08517
G1 X107.093 Y89.484 E0.08517
G1 X106.274 Y89.922 E0.08517
G1 X105.429 Y90.305 E0.08517
G1 X104.560 Y90.632 E0.08517
G1 X103.671 Y90.902 E0.08526
G1 X102.744 Y91.116 E0.08729
G1 X101.852 Y91.264 E0.08296
G1 X100.928 Y91.355 E0.08517
G1 X100.000 Y91.385 E0.08517
G1 X99.072 Y91.355 E0.08517
G1 X98.148 Y91.264 E0.08517
G1 X97.232 Y91.112 E0.08517
G1 X96.328 Y90.902 E0.08517
G1 X95.440 Y90.632 E0.08517
G1 X94.571 Y90.305 E0.08517
G1 X93.726 Y89.922 E0.08517
G1 X92.907 Y89.484 E0.08517
G1 X92.119 Y88.994 E0.08517
G1 X91.364 Y88.453 E0.08517
G1 X90.646 Y87.864 E0.08517
G1 X89.969 Y87.230 E0.08517
G1 X89.334 Y86.552 E0.08517
G1 X88.745 Y85.835 E0.08517
G1 X88.205 Y85.080 E0.08517
G1 X87.714 Y84.292 E0.08517
G1 X87.277 Y83.473 E0.08518
G1 X86.894 Y82.627 E0.08517
G1 X86.567 Y81.759 E0.08517
G1 X86.297 Y80.870 E0.08517
G1 X86.086 Y79.966 E0.08517
G1 X85.935 Y79.050 E0.08517
G1 X85.844 Y78.124 E0.08542
G1 X85.816 Y77.131 E0.09117
G1 X85.844 Y76.271 E0.07893
G1 X85.935 Y75.347 E0.08517
G1 X86.086 Y74.431 E0.08517
G1 X86.297 Y73.527 E0.08517
G1 X86.567 Y72.636 E0.08542
G1 X86.922 Y71.708 E0.09117
G1 X87.059 Y71.406 E0.03044
G1 X87.760 Y71.641 F9000.000
G1 X87.937 Y71.250 E0.03940 F900.000
G1 X88.352 Y70.473 E0.08084
G1 X88.855 Y69.672 E0.08675
G1 X89.329 Y69.011 E0.07467
G1 X89.888 Y68.330 E0.08075
G1 X90.489 Y67.688 E0.08075
G1 X91.132 Y67.086 E0.08076
G1 X91.812 Y66.528 E0.08076
G1 X92.527 Y66.015 E0.08076
G1 X93.275 Y65.550 E0.08075
G1 X94.051 Y65.135 E0.08076
G1 X94.853 Y64.772 E0.08075
G1 X95.677 Y64.462 E0.08076
G1 X96.519 Y64.207 E0.08076
G1 X97.376 Y64.007 E0.08075
G1 X98.245 Y63.863 E0.08084
G1 X99.187 Y63.775 E0.08675
G1 X100.000 Y63.748 E0.07467 F900.000
G1 X100.880 Y63.777 E0.08076
G1 X101.756 Y63.863 E0.08075
G1 X102.624 Y64.007 E0.08076
G1 X103.481 Y64.207 E0.08076
G1 X104.323 Y64.462 E0.08075
G1 X105.147 Y64.772 E0.08076
G1 X105.949 Y65.135 E0.08076
G1 X106.725 Y65.550 E0.08075
G1 X107.473 Y66.015 E0.08076
G1 X108.188 Y66.528 E0.08075
G1 X108.869 Y67.087 E0.08084
G1 X109.556 Y67.736 E0.08675
G1 X110.112 Y68.330 E0.07467
G1 X110.671 Y69.011 E0.08076
G1 X111.183 Y69.726 E0.08076
G1 X111.648 Y70.473 E0.08075
G1 X112.063 Y71.250 E0.08076
G1 X112.426 Y72.051 E0.08076
G1 X112.736 Y72.875 E0.08075
G1 X112.992 Y73.717 E0.08075
G1 X113.192 Y74.575 E0.08076
G1 X113.335 Y75.443 E0.08075
G1 X113.421 Y76.319 E0.08076
G1 X113.450 Y77.199 E0.08075
G1 X113.421 Y78.078 E0.08076
G1 X113.335 Y78.954 E0.08076
G1 X113.192 Y79.823 E0.08076
G1 X112.992 Y80.680 E0.08075
G1 X112.736 Y81.522 E0.08075
G1 X112.426 Y82.346 E0.08076
G1 X112.063 Y83.148 E0.08075
G1 X111.648 Y83.924 E0.08076
G1 X111.183 Y84.671 E0.08076
G1 X110.671 Y85.387 E0.08075
G1 X110.112 Y86.067 E0.08076
G1 X109.511 Y86.709 E0.08076
G1 X108.868 Y87.311 E0.08075
G1 X108.188 Y87.869 E0.08075
G1 X107.473 Y88.382 E0.08076
G1 X106.725 Y88.847 E0.08076
G1 X105.949 Y89.262 E0.08076
G1 X105.147 Y89.625 E0.08075
G1 X104.323 Y89.935 E0.08076
G1 X103.481 Y90.191 E0.08079
G1 X102.601 Y90.394 E0.08287
G1 X101.756 Y90.534 E0.07860
G1 X100.880 Y90.620 E0.08076
G1 X100.000 Y90.649 E0.08076
G1 X99.120 Y90.620 E0.08075
G1 X98.244 Y90.534 E0.08076
G1 X97.376 Y90.390 E0.08076
G1 X96.519 Y90.191 E0.08075
G1 X95.677 Y89.935 E0.08076
G1 X94.853 Y89.625 E0.08075
G1 X94.051 Y89.262 E0.08076
G1 X93.275 Y88.847 E0.08076
G1 X92.527 Y88.382 E0.08075
G1 X91.812 Y87.869 E0.08076
G1 X91.132 Y87.311 E0.08075
G1 X90.489 Y86.709 E0.08076
G1 X89.888 Y86.067 E0.08075
G1 X89.329 Y85.387 E0.08075
G1 X88.817 Y84.671 E0.08076
G1 X88.352 Y83.924 E0.08076
G1 X87.937 Y83.148 E0.08076
G1 X87.574 Y82.346 E0.08075
G1 X87.264 Y81.522 E0.08075
G1 X87.008 Y80.680 E0.08076
G1 X86.808 Y79.823 E0.08075
G1 X86.665 Y78.954 E0.08075
G1 X86.578 Y78.077 E0.08084
G1 X86.552 Y77.132 E0.08675
G1 X86.579 Y76.319 E0.07467
G1 X86.665 Y75.443 E0.08075
G1 X86.808 Y74.575 E0.08076
G1 X87.008 Y73.717 E0.08076
G1 X87.264 Y72.874 E0.08084
G1 X87.601 Y71.991 E0.08675
G1 X87.729 Y71.709 E0.02838
G1 X87.509 Y71.292 F9000.000
G1 X21.133 Y34.643 F9000.000
G1 X23.712 Y30.176 E0.47320 F900.000
G1 X59.202 Y50.666 E3.75996
G1 X81.561 Y53.172 E2.06431
G1 X84.019 Y53.492 E0.22745
G1 X86.424 Y54.026 E0.22596
G1 X87.543 Y53.287 E0.12308
G1 X104.411 Y48.774 E1.60211
G1 X109.622 Y48.934 E0.47834
G1 X140.647 Y50.753 E2.85144
G1 X176.288 Y30.176 E3.77593
G1 X178.867 Y34.642 E0.47321
G1 X143.377 Y55.133 E3.75996
G1 X130.028 Y73.243 E2.06427
G1 X128.521 Y75.212 E0.22746
G1 X126.857 Y77.027 E0.22597
G1 X126.937 Y78.366 E0.12308
G1 X122.427 Y95.199 E1.59891
G1 X104.217 Y122.862 E3.03861
G1 X102.579 Y125.681 E0.29914
G1 X102.579 Y166.777 E3.77063
G1 X97.421 Y166.777 E0.47321
G1 X97.421 Y125.797 E3.75996
G1 X88.411 Y105.181 E2.06428
G1 X87.459 Y102.892 E0.22746
G1 X86.720 Y100.543 E0.22597
G1 X85.520 Y99.943 E0.12308
G1 X73.177 Y87.591 E1.60210
G1 X70.711 Y82.998 E0.47833
G1 X56.774 Y55.220 E2.85145
G1 X21.198 Y34.680 E3.76905
G1 X20.818 Y33.718 F9000.000
G1 X23.443 Y29.171 E0.48169 F900.000
G1 X59.437 Y49.952 E3.81335
G1 X81.650 Y52.441 E2.05081
G1 X84.147 Y52.766 E0.23106
G1 X86.279 Y53.240 E0.20036
G1 X87.237 Y52.607 E0.10541
G1 X104.228 Y48.054 E1.61391
G1 X104.380 Y48.037 E0.01405
G1 X109.655 Y48.199 E0.48421
G1 X140.470 Y50.006 E2.83216
G1 X183.053 Y25.421 E4.51134
G1 X186.367 Y31.162 E0.60819
G1 X185.822 Y31.476 E0.05769
G1 X183.197 Y26.929 E0.48169
G1 X177.247 Y30.365 E0.63044
G1 X179.872 Y34.912 E0.48169
G1 X143.878 Y55.693 E3.81335
G1 X130.616 Y73.685 E2.05077
G1 X129.086 Y75.685 E0.23107
G1 X127.610 Y77.295 E0.20037
G1 X127.679 Y78.442 E0.10541
G1 X123.126 Y95.432 E1.61390
G1 X123.072 Y95.558 E0.01253
G1 X104.843 Y123.249 E3.04181
G1 X103.314 Y125.879 E0.27907
G1 X103.314 Y175.013 E4.50806
G1 X96.686 Y175.013 E0.60819
G1 X96.686 Y174.384 E0.05769
G1 X101.936 Y174.384 E0.48169
G1 X101.936 Y167.513 E0.63044
G1 X96.686 Y167.513 E0.48169
G1 X96.686 Y125.951 E3.81335
G1 X87.735 Y105.470 E2.05078
G1 X86.767 Y103.144 E0.23107
G1 X86.112 Y101.061 E0.20036
G1 X85.084 Y100.548 E0.10541
G1 X72.646 Y88.109 E1.61390
G1 X72.555 Y87.986 E0.01405
G1 X70.058 Y83.337 E0.48420
G1 X56.215 Y55.747 E2.83217
G1 X13.633 Y31.162 E4.51133
G1 X16.947 Y25.421 E0.60819
G1 X17.492 Y25.736 E0.05769
G1 X14.867 Y30.282 E0.48169
G1 X20.753 Y33.680 E0.62356
G1 X20.548 Y32.713 F9000.000
G1 X23.173 Y28.166 E0.48169 F900.000
G1 X59.671 Y49.238 E3.86674
G1 X81.738 Y51.711 E2.03730
G1 X84.274 Y52.041 E0.23468
G1 X86.134 Y52.454 E0.17475
G1 X86.932 Y51.927 E0.08774
G1 X104.090 Y47.330 E1.62982
G1 X104.349 Y47.300 E0.02394
G1 X109.688 Y47.464 E0.49007
G1 X140.293 Y49.259 E2.81288
G1 X183.322 Y24.416 E4.55861
G1 X187.372 Y31.431 E0.74318
G1 X185.553 Y32.481 E0.19268
G1 X182.928 Y27.934 E0.48169
G1 X178.252 Y30.634 E0.49545
G1 X180.877 Y35.181 E0.48169
G1 X144.379 Y56.253 E3.86674
G1 X131.204 Y74.127 E2.03726
G1 X129.650 Y76.158 E0.23469
G1 X128.363 Y77.562 E0.17476
G1 X128.420 Y78.517 E0.08774
G1 X123.822 Y95.675 E1.62981
G1 X123.721 Y95.909 E0.02337
G1 X105.468 Y123.637 E3.04580
G1 X104.050 Y126.077 E0.25900
G1 X104.050 Y175.749 E4.55737
G1 X95.950 Y175.749 E0.74318
G1 X95.950 Y173.649 E0.19268
G1 X101.200 Y173.649 E0.48169
G1 X101.200 Y168.249 E0.49545
G1 X95.950 Y168.249 E0.48169
G1 X95.950 Y126.104 E3.86674
G1 X87.058 Y105.758 E2.03727
G1 X86.075 Y103.397 E0.23468
G1 X85.504 Y101.580 E0.17475
G1 X84.648 Y101.152 E0.08774
G1 X72.087 Y88.591 E1.62982
G1 X71.932 Y88.382 E0.02394
G1 X69.405 Y83.676 E0.49006
G1 X55.657 Y56.274 E2.81289
G1 X12.628 Y31.431 E4.55861
G1 X16.678 Y24.416 E0.74318
G1 X18.497 Y25.466 E0.19267
G1 X15.872 Y30.013 E0.48169
G1 X20.483 Y32.676 E0.48857
G1 X20.981 Y32.963 F9000.000
G1 X20.791 Y34.499 F9000.000
G1 X14.296 Y30.749 E1.43648 F600.000
G1 X22.087 Y33.775 F9000.000
G1 X23.946 Y35.634 E0.24227 F900.000
G1 X26.418 Y37.061 F9000.000
G1 X22.469 Y33.112 E0.51456 F900.000
G1 X22.852 Y32.450 E0.07047
G1 X28.890 Y38.488 E0.78685
G1 X31.362 Y39.915 F9000.000
G1 X23.234 Y31.788 E1.05914 F900.000
G1 X23.617 Y31.125 E0.07047
G1 X33.834 Y41.343 E1.33143
G1 X36.306 Y42.770 F9000.000
G1 X25.211 Y31.674 E1.44586 F900.000
G1 X27.683 Y33.102 F9000.000
G1 X38.778 Y44.197 E1.44586 F900.000
G1 X41.250 Y45.624 F9000.000
G1 X30.154 Y34.529 E1.44586 F900.000
G1 X32.626 Y35.956 F9000.000
G1 X43.722 Y47.051 E1.44586 F900.000
G1 X46.194 Y48.479 F9000.000
G1 X35.098 Y37.383 E1.44586 F900.000
G1 X37.570 Y38.810 F9000.000
G1 X48.666 Y49.906 E1.44586 F900.000
G1 X51.138 Y51.333 F9000.000
G1 X40.042 Y40.238 E1.44587 F900.000
G1 X42.514 Y41.665 F9000.000
G1 X53.610 Y52.760 E1.44587 F900.000
G1 X56.082 Y54.187 F9000.000
G1 X44.986 Y43.092 E1.44587 F900.000
G1 X47.458 Y44.519 F9000.000
G1 X85.553 Y82.614 E4.96416 F900.000
G1 X85.096 Y81.112 E0.14461
G1 X49.930 Y45.946 E4.58253
G1 X52.402 Y47.373 F9000.000
G1 X84.830 Y79.802 E4.22574 F900.000
G1 X84.685 Y78.612 E0.11046
G1 X54.874 Y48.801 E3.88470
G1 X57.346 Y50.228 F9000.000
G1 X84.637 Y77.519 E3.55631 F900.000
G1 X84.656 Y76.493 E0.09451
G1 X59.312 Y51.149 E3.30261
G1 X60.489 Y51.281 E0.10910
G1 X84.741 Y75.533 E3.16029
G1 X84.877 Y74.625 E0.08465
G1 X61.665 Y51.413 E3.02473
G1 X62.842 Y51.545 E0.10910
G1 X85.058 Y73.761 E2.89499
G1 X85.278 Y72.936 E0.07864
G1 X64.019 Y51.677 E2.77037
G1 X65.195 Y51.808 E0.10910
G1 X85.534 Y72.147 E2.65038
G1 X85.823 Y71.391 E0.07458
G1 X66.372 Y51.940 E2.53466
G1 X67.549 Y52.072 E0.10910
G1 X86.147 Y70.670 E2.42351
G1 X86.501 Y69.979 E0.07151
G1 X68.725 Y52.204 E2.31634
G1 X69.902 Y52.336 E0.10910
