; generated by Slic3r 1.2.9 on 2017-11-09 at 11:00:26

; external perimeters extrusion width = 0.50mm
; perimeters extrusion width = 0.50mm
; infill extrusion width = 0.50mm
; solid infill extrusion width = 0.50mm
; top infill extrusion width = 0.50mm

M107
M190 S57 ; set bed temperature
G28 ; home all axes
M83;
G10 P0 S195 R160                       ; Set tool 0 operating and standby temperatures
T0

G21 ; set units to millimeters
G90 ; use absolute coordinates
M83 ; use relative distances for extrusion
G1 E-3.50000 F2400.00000
G1 Z0.300 F9000.000
G1 X57.322 Y58.365 F9000.000
G1 E3.50000 F2400.00000
G1 X58.467 Y57.720 E0.12059 F1200.000
G1 X72.571 Y51.878 E1.40066
G1 X74.761 Y51.462 E0.20449
G1 X120.604 Y52.267 E4.20680
G1 X122.602 Y52.682 E0.18722 F1200.000
G1 X136.706 Y58.524 E1.40066
G1 X139.024 Y60.343 E0.27036
G1 X169.989 Y102.565 E4.80399
G1 X170.632 Y103.707 E0.12023
G1 X176.474 Y117.811 E1.40066
G1 X176.890 Y119.851 E0.19107
G1 X176.474 Y121.998 E0.20065
G1 X170.632 Y136.102 E1.40066
G1 X169.483 Y137.839 E0.19107
G1 X167.671 Y139.063 E0.20065
G1 X153.567 Y144.905 E1.40066
G1 X151.779 Y145.313 E0.16828
G1 X94.274 Y148.530 E5.28438
G1 X93.486 Y148.517 E0.07230
G1 X48.044 Y144.496 E4.18555
G1 X46.433 Y144.101 E0.15224
G1 X32.329 Y138.259 E1.40066
G1 X30.592 Y137.110 E0.19107
G1 X29.368 Y135.298 E0.20065
G1 X23.526 Y121.194 E1.40066
G1 X23.110 Y119.153 E0.19107
G1 X23.526 Y117.007 E0.20065
G1 X29.368 Y102.903 E1.40066
G1 X29.771 Y102.117 E0.08105
G1 X55.909 Y59.895 E4.55610
G1 X57.271 Y58.420 E0.18419
G1 X57.866 Y58.882 F9000.000
G1 X58.749 Y58.400 E0.09232 F1200.000
G1 X72.853 Y52.558 E1.40066
G1 X74.748 Y52.198 E0.17700
G1 X120.591 Y53.002 E4.20680
G1 X122.321 Y53.362 E0.16205 F1200.000
G1 X136.424 Y59.204 E1.40066
G1 X138.431 Y60.778 E0.23401
G1 X169.396 Y103.000 E4.80399
G1 X169.952 Y103.988 E0.10407
G1 X175.794 Y118.092 E1.40066
G1 X176.154 Y119.995 E0.17764
G1 X175.794 Y121.717 E0.16141
G1 X169.952 Y135.821 E1.40066
G1 X168.861 Y137.420 E0.17764
G1 X167.389 Y138.383 E0.16141
G1 X153.285 Y144.226 E1.40066
G1 X151.738 Y144.579 E0.14565
G1 X94.233 Y147.795 E5.28438
G1 X93.551 Y147.784 E0.06258
G1 X48.109 Y143.763 E4.18555
G1 X46.715 Y143.421 E0.13177
G1 X32.611 Y137.579 E1.40066
G1 X31.011 Y136.488 E0.17764
G1 X30.048 Y135.016 E0.16141
G1 X24.206 Y120.912 E1.40066
G1 X23.846 Y119.010 E0.17764
G1 X24.206 Y117.288 E0.16141
G1 X30.048 Y103.184 E1.40066
G1 X30.396 Y102.504 E0.07015
G1 X56.535 Y60.282 E4.55610
G1 X57.814 Y58.936 E0.17038
G1 E-3.50000 F2400.00000
G1 X83.590 Y113.092 F9000.000
G1 E3.50000 F2400.00000
G1 X84.273 Y112.425 E0.08764 F900.000
G1 X84.810 Y111.962 E0.06501
G1 X85.369 Y111.526 E0.06501
G1 X85.948 Y111.118 E0.06501
G1 X86.546 Y110.739 E0.06501
G1 X87.163 Y110.390 E0.06501
G1 X87.796 Y110.071 E0.06501
G1 X88.444 Y109.784 E0.06501
G1 X89.105 Y109.529 E0.06501
G1 X89.778 Y109.307 E0.06501
G1 X90.460 Y109.118 E0.06501
G1 X91.152 Y108.963 E0.06501
G1 X91.850 Y108.842 E0.06501
G1 X92.553 Y108.755 E0.06501
G1 X93.259 Y108.703 E0.06498
G1 X93.942 Y108.686 E0.06265 F900.000
G1 X94.676 Y108.703 E0.06733
G1 X95.383 Y108.755 E0.06508
G1 X96.086 Y108.842 E0.06501
G1 X96.784 Y108.963 E0.06501
G1 X97.476 Y109.118 E0.06501
G1 X98.159 Y109.307 E0.06501
G1 X98.831 Y109.529 E0.06501
G1 X99.492 Y109.784 E0.06501
G1 X100.140 Y110.071 E0.06501
G1 X100.773 Y110.390 E0.06501
G1 X101.390 Y110.739 E0.06501
G1 X101.988 Y111.118 E0.06501
G1 X102.568 Y111.526 E0.06501
G1 X103.126 Y111.962 E0.06501
G1 X103.663 Y112.425 E0.06501
G1 X104.176 Y112.914 E0.06501
G1 X104.664 Y113.427 E0.06501
G1 X105.127 Y113.963 E0.06501
G1 X105.563 Y114.522 E0.06501
G1 X105.971 Y115.101 E0.06501
G1 X106.350 Y115.700 E0.06501
G1 X106.699 Y116.316 E0.06501
G1 X107.018 Y116.949 E0.06501
G1 X107.305 Y117.597 E0.06501
G1 X107.560 Y118.258 E0.06501
G1 X107.782 Y118.931 E0.06501
G1 X107.971 Y119.614 E0.06501
G1 X108.127 Y120.305 E0.06501
G1 X108.248 Y121.003 E0.06501
G1 X108.334 Y121.706 E0.06501
G1 X108.387 Y122.413 E0.06501
G1 X108.404 Y123.121 E0.06501
G1 X108.387 Y123.830 E0.06501
G1 X108.334 Y124.536 E0.06501
G1 X108.248 Y125.240 E0.06501
G1 X108.127 Y125.938 E0.06501
G1 X107.971 Y126.629 E0.06501
G1 X107.782 Y127.312 E0.06501
G1 X107.560 Y127.985 E0.06501
G1 X107.305 Y128.646 E0.06501
G1 X107.018 Y129.294 E0.06501
G1 X106.699 Y129.927 E0.06501
G1 X106.350 Y130.543 E0.06501
G1 X105.971 Y131.142 E0.06501
G1 X105.563 Y131.721 E0.06501
G1 X105.127 Y132.280 E0.06501
G1 X104.664 Y132.816 E0.06501
G1 X104.176 Y133.329 E0.06501
G1 X103.663 Y133.818 E0.06501
G1 X103.126 Y134.281 E0.06501
G1 X102.567 Y134.717 E0.06501
G1 X101.988 Y135.125 E0.06501
G1 X101.389 Y135.504 E0.06501
G1 X100.773 Y135.853 E0.06501
G1 X100.140 Y136.171 E0.06501
G1 X99.492 Y136.459 E0.06501
G1 X98.831 Y136.714 E0.06501
G1 X98.158 Y136.936 E0.06501
G1 X97.476 Y137.125 E0.06501
G1 X96.784 Y137.280 E0.06501
G1 X96.086 Y137.401 E0.06501
G1 X95.383 Y137.488 E0.06501
G1 X94.676 Y137.540 E0.06501
G1 X93.968 Y137.557 E0.06500
G1 X93.260 Y137.540 E0.06501
G1 X92.553 Y137.488 E0.06501
G1 X91.850 Y137.401 E0.06501
G1 X91.152 Y137.280 E0.06501
G1 X90.460 Y137.125 E0.06501
G1 X89.777 Y136.936 E0.06501
G1 X89.105 Y136.713 E0.06501
G1 X88.444 Y136.458 E0.06501
G1 X87.796 Y136.171 E0.06501
G1 X87.163 Y135.853 E0.06501
G1 X86.546 Y135.503 E0.06501
G1 X85.948 Y135.124 E0.06501
G1 X85.369 Y134.716 E0.06501
G1 X84.810 Y134.281 E0.06501
G1 X84.273 Y133.818 E0.06501
G1 X83.760 Y133.329 E0.06501
G1 X83.272 Y132.816 E0.06501
G1 X82.809 Y132.279 E0.06501
G1 X82.373 Y131.721 E0.06501
G1 X81.965 Y131.142 E0.06501
G1 X81.586 Y130.543 E0.06501
G1 X81.237 Y129.926 E0.06501
G1 X80.918 Y129.294 E0.06501
G1 X80.631 Y128.646 E0.06501
G1 X80.376 Y127.985 E0.06501
G1 X80.154 Y127.312 E0.06501
G1 X79.965 Y126.629 E0.06501
G1 X79.809 Y125.938 E0.06501
G1 X79.688 Y125.240 E0.06501
G1 X79.602 Y124.536 E0.06501
G1 X79.549 Y123.830 E0.06501
G1 X79.532 Y123.121 E0.06501
G1 X79.549 Y122.413 E0.06501
G1 X79.602 Y121.706 E0.06501
G1 X79.688 Y121.003 E0.06501
G1 X79.809 Y120.305 E0.06501
G1 X79.965 Y119.614 E0.06501
G1 X80.154 Y118.931 E0.06501
G1 X80.376 Y118.258 E0.06501
G1 X80.631 Y117.597 E0.06501
G1 X80.918 Y116.949 E0.06501
G1 X81.237 Y116.316 E0.06501
G1 X81.586 Y115.700 E0.06501
G1 X81.965 Y115.101 E0.06501
G1 X82.373 Y114.522 E0.06501
G1 X82.809 Y113.963 E0.06501
G1 X83.538 Y113.147 E0.10046
G1 X84.123 Y113.600 F9000.000
G1 X84.768 Y112.970 E0.08267 F900.000
G1 X85.277 Y112.531 E0.06170
G1 X85.807 Y112.117 E0.06170
G1 X86.357 Y111.730 E0.06170
G1 X86.925 Y111.370 E0.06170
G1 X87.510 Y111.039 E0.06170
G1 X88.110 Y110.737 E0.06170
G1 X88.725 Y110.464 E0.06170
G1 X89.353 Y110.222 E0.06170
G1 X89.991 Y110.011 E0.06170
G1 X90.639 Y109.832 E0.06170
G1 X91.295 Y109.684 E0.06170
G1 X91.958 Y109.570 E0.06170
G1 X92.625 Y109.487 E0.06170
G1 X93.296 Y109.438 E0.06169
G1 X93.943 Y109.422 E0.05938 F900.000
G1 X94.640 Y109.438 E0.06400
G1 X95.311 Y109.487 E0.06172
G1 X95.978 Y109.570 E0.06170
G1 X96.641 Y109.684 E0.06170
G1 X97.297 Y109.832 E0.06170
G1 X97.945 Y110.011 E0.06170
G1 X98.583 Y110.222 E0.06170
G1 X99.211 Y110.464 E0.06170
G1 X99.826 Y110.737 E0.06170
G1 X100.426 Y111.039 E0.06170
G1 X101.011 Y111.370 E0.06170
G1 X101.579 Y111.730 E0.06170
G1 X102.129 Y112.117 E0.06170
G1 X102.659 Y112.531 E0.06170
G1 X103.169 Y112.970 E0.06170
G1 X103.656 Y113.434 E0.06170
G1 X104.119 Y113.921 E0.06170
G1 X104.558 Y114.430 E0.06170
G1 X104.972 Y114.960 E0.06170
G1 X105.359 Y115.510 E0.06170
G1 X105.719 Y116.078 E0.06170
G1 X106.050 Y116.663 E0.06170
G1 X106.353 Y117.264 E0.06170
G1 X106.625 Y117.879 E0.06170
G1 X106.867 Y118.506 E0.06170
G1 X107.078 Y119.144 E0.06170
G1 X107.258 Y119.793 E0.06170
G1 X107.405 Y120.449 E0.06170
G1 X107.520 Y121.111 E0.06170
G1 X107.602 Y121.779 E0.06170
G1 X107.652 Y122.449 E0.06170
G1 X107.668 Y123.121 E0.06170
G1 X107.652 Y123.794 E0.06170
G1 X107.602 Y124.464 E0.06170
G1 X107.520 Y125.132 E0.06170
G1 X107.405 Y125.794 E0.06170
G1 X107.258 Y126.450 E0.06170
G1 X107.078 Y127.098 E0.06170
G1 X106.867 Y127.737 E0.06170
G1 X106.625 Y128.364 E0.06170
G1 X106.353 Y128.979 E0.06170
G1 X106.050 Y129.580 E0.06170
G1 X105.719 Y130.165 E0.06170
G1 X105.359 Y130.733 E0.06170
G1 X104.972 Y131.283 E0.06170
G1 X104.558 Y131.813 E0.06170
G1 X104.119 Y132.322 E0.06170
G1 X103.655 Y132.809 E0.06170
G1 X103.168 Y133.273 E0.06170
G1 X102.659 Y133.712 E0.06170
G1 X102.129 Y134.125 E0.06170
G1 X101.579 Y134.513 E0.06170
G1 X101.011 Y134.872 E0.06170
G1 X100.426 Y135.204 E0.06170
G1 X99.825 Y135.506 E0.06170
G1 X99.211 Y135.779 E0.06170
G1 X98.583 Y136.021 E0.06170
G1 X97.945 Y136.232 E0.06169
G1 X97.297 Y136.411 E0.06170
G1 X96.641 Y136.558 E0.06170
G1 X95.978 Y136.673 E0.06170
G1 X95.311 Y136.756 E0.06170
G1 X94.640 Y136.805 E0.06170
G1 X93.968 Y136.821 E0.06168
G1 X93.296 Y136.805 E0.06170
G1 X92.625 Y136.756 E0.06170
G1 X91.958 Y136.673 E0.06170
G1 X91.295 Y136.558 E0.06170
G1 X90.639 Y136.411 E0.06170
G1 X89.991 Y136.232 E0.06170
G1 X89.353 Y136.021 E0.06170
G1 X88.725 Y135.779 E0.06170
G1 X88.110 Y135.506 E0.06170
G1 X87.510 Y135.204 E0.06170
G1 X86.925 Y134.872 E0.06170
G1 X86.357 Y134.513 E0.06170
G1 X85.807 Y134.125 E0.06170
G1 X85.277 Y133.712 E0.06170
G1 X84.768 Y133.272 E0.06170
G1 X84.281 Y132.809 E0.06170
G1 X83.817 Y132.322 E0.06170
G1 X83.378 Y131.813 E0.06170
G1 X82.964 Y131.283 E0.06170
G1 X82.577 Y130.733 E0.06170
G1 X82.217 Y130.165 E0.06170
G1 X81.886 Y129.580 E0.06170
G1 X81.583 Y128.979 E0.06170
G1 X81.311 Y128.364 E0.06170
G1 X81.069 Y127.737 E0.06170
G1 X80.858 Y127.098 E0.06170
G1 X80.678 Y126.450 E0.06170
G1 X80.531 Y125.794 E0.06170
G1 X80.416 Y125.132 E0.06170
G1 X80.334 Y124.464 E0.06170
G1 X80.284 Y123.794 E0.06170
G1 X80.268 Y123.121 E0.06170
G1 X80.284 Y122.449 E0.06170
G1 X80.334 Y121.779 E0.06170
G1 X80.416 Y121.111 E0.06170
G1 X80.531 Y120.449 E0.06170
G1 X80.678 Y119.793 E0.06170
G1 X80.858 Y119.144 E0.06170
G1 X81.069 Y118.506 E0.06170
G1 X81.311 Y117.879 E0.06170
G1 X81.583 Y117.264 E0.06170
G1 X81.886 Y116.663 E0.06170
G1 X82.217 Y116.078 E0.06170
G1 X82.577 Y115.510 E0.06170
G1 X82.964 Y114.960 E0.06170
G1 X83.378 Y114.430 E0.06170
G1 X84.071 Y113.654 E0.09549
G1 X83.989 Y113.118 F9000.000
G1 X79.917 Y111.858 F9000.000
G1 X80.733 Y109.887 E0.19573 F900.000
G1 X93.968 Y104.405 E1.31434
G1 X94.575 Y104.656 E0.06028
G1 X107.203 Y109.887 E1.25406 F900.000
G1 X112.685 Y123.121 E1.31434
G1 X107.203 Y136.356 E1.31434
G1 X93.968 Y141.838 E1.31434
G1 X80.733 Y136.356 E1.31434
G1 X75.251 Y123.121 E1.31434
G1 X79.888 Y111.927 E1.11173
G1 X79.237 Y111.576 F9000.000
G1 X80.170 Y109.324 E0.22368 F900.000
G1 X93.968 Y103.608 E1.37025
G1 X94.856 Y103.976 E0.08823
G1 X107.766 Y109.324 E1.28202 F900.000
G1 X113.481 Y123.121 E1.37025
G1 X107.766 Y136.919 E1.37025
G1 X93.968 Y142.634 E1.37025
G1 X80.170 Y136.919 E1.37025
G1 X74.455 Y123.121 E1.37025
G1 X79.209 Y111.645 E1.13969
G1 X79.733 Y111.511 F9000.000
G1 X76.601 Y125.019 F9000.000
G1 X79.984 Y128.402 E0.43937 F900.000
G1 X79.527 Y126.903 E0.14385
G1 X75.865 Y123.241 E0.47566
G1 X76.008 Y122.343 E0.08350
G1 X79.266 Y125.601 E0.42309
G1 X79.131 Y124.425 E0.10871
G1 X76.313 Y121.607 E0.36599
G1 X76.618 Y120.871 E0.07319
G1 X79.084 Y123.337 E0.32029
G1 X79.116 Y122.328 E0.09272
G1 X76.923 Y120.134 E0.28487
G1 X77.228 Y119.398 E0.07319
G1 X79.208 Y121.377 E0.25710
G1 X79.348 Y120.477 E0.08370
G1 X77.533 Y118.662 E0.23578
G1 X77.838 Y117.925 E0.07319
G1 X79.534 Y119.621 E0.22025
G1 X79.764 Y118.810 E0.07745
G1 X78.143 Y117.189 E0.21051
G1 X78.448 Y116.453 E0.07319
G1 X80.030 Y118.034 E0.20543
G1 X80.329 Y117.292 E0.07348
G1 X78.753 Y115.716 E0.20470
G1 X79.058 Y114.980 E0.07319
G1 X80.660 Y116.582 E0.20805
G1 X81.021 Y115.901 E0.07074
G1 X79.363 Y114.244 E0.21528
G1 X79.668 Y113.507 E0.07319
G1 X81.410 Y115.249 E0.22622
G1 X81.826 Y114.624 E0.06896
G1 X79.973 Y112.771 E0.24071
G1 X80.278 Y112.035 E0.07319
G1 X82.270 Y114.026 E0.25868
G1 X82.739 Y113.454 E0.06795
G1 X80.583 Y111.298 E0.28003
G1 X80.888 Y110.562 E0.07319
G1 X83.234 Y112.908 E0.30473
G1 X83.755 Y112.388 E0.06762
G1 X81.409 Y110.041 E0.30473
G1 X82.145 Y109.736 E0.07319
G1 X84.301 Y111.892 E0.28003
G1 X84.873 Y111.423 E0.06795
G1 X82.881 Y109.431 E0.25868
G1 X83.618 Y109.126 E0.07319
G1 X85.471 Y110.980 E0.24072
G1 X86.096 Y110.563 E0.06896
G1 X84.354 Y108.821 E0.22622
G1 X85.090 Y108.516 E0.07319
G1 X86.748 Y110.174 E0.21528
G1 X87.429 Y109.813 E0.07074
G1 X85.827 Y108.211 E0.20805
G1 X86.563 Y107.906 E0.07319
G1 X88.139 Y109.482 E0.20470
G1 X88.881 Y109.183 E0.07348
G1 X87.299 Y107.601 E0.20543
G1 X88.036 Y107.296 E0.07319
G1 X89.656 Y108.917 E0.21051
G1 X90.468 Y108.687 E0.07745
G1 X88.772 Y106.991 E0.22025
G1 X89.508 Y106.686 E0.07319
G1 X91.324 Y108.502 E0.23578
G1 X92.224 Y108.361 E0.08370
G1 X90.245 Y106.381 E0.25710
G1 X90.981 Y106.076 E0.07319
G1 X93.174 Y108.270 E0.28487
G1 X94.184 Y108.238 E0.09279
G1 X91.717 Y105.771 E0.32040
G1 X92.454 Y105.466 E0.07319
G1 X95.271 Y108.284 E0.36598
G1 X96.447 Y108.419 E0.10871
G1 X93.190 Y105.161 E0.42309
G1 X94.088 Y105.018 E0.08350
G1 X97.750 Y108.680 E0.47567
G1 X99.248 Y109.137 F9000.000
G1 X95.865 Y105.754 E0.43937 F900.000
G1 X97.643 Y106.491 F9000.000
G1 X101.114 Y109.961 E0.45077 F900.000
G1 X101.198 Y107.963 F9000.000
G1 X109.126 Y115.891 E1.02967 F900.000
G1 X108.390 Y114.114 F9000.000
G1 X102.976 Y108.700 E0.70316 F900.000
G1 X104.754 Y109.436 F9000.000
G1 X107.654 Y112.336 E0.37665 F900.000
G1 X106.917 Y110.558 F9000.000
G1 X106.531 Y110.172 E0.05013 F900.000
G1 X107.128 Y115.976 F9000.000
G1 X110.599 Y119.446 E0.45078 F900.000
G1 X109.862 Y117.669 F9000.000
G1 X99.421 Y107.227 E1.35618 F900.000
G1 X111.335 Y121.224 F9000.000
G1 X107.952 Y117.841 E0.43938 F900.000
G1 X108.409 Y119.339 E0.14385
G1 X112.071 Y123.002 E0.47567
G1 X111.928 Y123.900 E0.08350
G1 X108.670 Y120.642 E0.42309
G1 X108.805 Y121.818 E0.10871
G1 X111.623 Y124.636 E0.36598
G1 X111.318 Y125.372 E0.07319
G1 X108.852 Y122.906 E0.32029
G1 X108.820 Y123.915 E0.09272
G1 X111.013 Y126.109 E0.28487
G1 X110.708 Y126.845 E0.07319
G1 X108.728 Y124.865 E0.25710
G1 X108.588 Y125.766 E0.08370
G1 X110.403 Y127.581 E0.23578
G1 X110.098 Y128.317 E0.07319
G1 X108.402 Y126.622 E0.22025
G1 X108.172 Y127.433 E0.07745
G1 X109.793 Y129.054 E0.21051
G1 X109.488 Y129.790 E0.07319
G1 X107.906 Y128.208 E0.20543
G1 X107.607 Y128.950 E0.07348
G1 X109.183 Y130.526 E0.20470
G1 X108.878 Y131.263 E0.07319
G1 X107.276 Y129.661 E0.20805
G1 X106.915 Y130.342 E0.07074
G1 X108.573 Y131.999 E0.21528
G1 X108.268 Y132.735 E0.07319
G1 X106.526 Y130.994 E0.22622
G1 X106.110 Y131.618 E0.06896
G1 X107.963 Y133.472 E0.24072
G1 X107.658 Y134.208 E0.07319
G1 X105.666 Y132.216 E0.25868
G1 X105.197 Y132.788 E0.06795
G1 X107.353 Y134.944 E0.28003
G1 X107.048 Y135.681 E0.07319
G1 X104.702 Y133.334 E0.30473
G1 X104.181 Y133.855 E0.06762
G1 X106.527 Y136.201 E0.30473
G1 X105.791 Y136.506 E0.07319
G1 X103.635 Y134.350 E0.28003
G1 X103.063 Y134.820 E0.06795
G1 X105.055 Y136.811 E0.25868
G1 X104.318 Y137.116 E0.07319
G1 X102.465 Y135.263 E0.24072
G1 X101.840 Y135.680 E0.06896
G1 X103.582 Y137.421 E0.22622
G1 X102.846 Y137.726 E0.07319
G1 X101.188 Y136.069 E0.21528
G1 X100.508 Y136.429 E0.07074
G1 X102.109 Y138.031 E0.20805
G1 X101.373 Y138.336 E0.07319
G1 X99.797 Y136.760 E0.20470
G1 X99.055 Y137.060 E0.07348
G1 X100.637 Y138.641 E0.20543
G1 X99.900 Y138.946 E0.07319
G1 X98.280 Y137.326 E0.21051
G1 X97.468 Y137.556 E0.07745
G1 X99.164 Y139.251 E0.22025
G1 X98.428 Y139.556 E0.07319
G1 X96.612 Y137.741 E0.23578
G1 X95.712 Y137.882 E0.08370
G1 X97.691 Y139.861 E0.25710
G1 X96.955 Y140.166 E0.07319
G1 X94.762 Y137.973 E0.28487
G1 X93.753 Y138.005 E0.09271
G1 X96.219 Y140.471 E0.32029
G1 X95.483 Y140.776 E0.07319
G1 X92.665 Y137.958 E0.36599
G1 X91.489 Y137.824 E0.10871
G1 X94.746 Y141.081 E0.42309
G1 X93.848 Y141.225 E0.08350
G1 X90.186 Y137.562 E0.47566
G1 X88.688 Y137.105 E0.14385
G1 X92.071 Y140.488 E0.43937
G1 X90.293 Y139.752 F9000.000
G1 X86.822 Y136.281 E0.45078 F900.000
G1 X86.738 Y138.279 F9000.000
G1 X78.810 Y130.352 E1.02966 F900.000
G1 X78.074 Y128.574 F9000.000
